;FLAVOR:Marlin
;TIME:37870
;Filament used: 60.3469m
;Layer height: 0.3
;MINX:31.75
;MINY:19.3
;MINZ:0.2
;MAXX:218.15
;MAXY:190.7
;MAXZ:7.4
;Generated with Cura_SteamEngine 99.10.0-Arachne_engine_beta_2
M82 ;absolute extrusion mode
G21 ; set units to millimeters
G90 ; use absolute positioning
M82 ; absolute extrusion mode
M104 S200 ; set extruder temp
M140 S60 ; set bed temp
M190 S60 ; wait for bed temp
M109 S200 ; wait for extruder temp
G28 W ; home all without mesh bed level
G80 ; mesh bed leveling
G92 E0.0 ; reset extruder distance position
G1 Y-3.0 F1000.0 ; go outside print area
G1 X60.0 E9.0 F1000.0 ; intro line
G1 X100.0 E21.5 F1000.0 ; intro line
G92 E0.0 ; reset extruder distance position
G92 E0
G92 E0
G1 F2100 E-0.8
;LAYER_COUNT:25
;LAYER:0
M107
G0 F3600 X32.404 Y20.582 Z0.2
G0 X35.19 Y19.301
;TYPE:SKIRT
G1 F2100 E0
G1 F1800 X214.289 Y19.3 E5.95686
G1 X214.987 Y19.31 E5.98007
G1 X215.49 Y19.357 E5.99688
G1 X215.98 Y19.483 E6.01371
G1 X216.444 Y19.685 E6.03054
G1 X216.87 Y19.957 E6.04735
G1 X217.248 Y20.292 E6.06415
G1 X217.568 Y20.683 E6.08095
G1 X217.823 Y21.12 E6.09778
G1 X218.006 Y21.591 E6.11459
G1 X218.113 Y22.085 E6.1314
G1 X218.149 Y22.74 E6.15322
G1 X218.15 Y186.804 E11.61001
G1 X218.141 Y187.531 E11.63419
G1 X218.095 Y188.034 E11.65099
G1 X217.97 Y188.524 E11.66781
G1 X217.769 Y188.988 E11.68463
G1 X217.498 Y189.415 E11.70145
G1 X217.163 Y189.794 E11.71827
G1 X216.773 Y190.115 E11.73507
G1 X216.337 Y190.371 E11.75189
G1 X215.866 Y190.554 E11.76869
G1 X215.372 Y190.662 E11.78551
G1 X214.71 Y190.699 E11.80757
G1 X35.616 Y190.7 E17.76426
G1 X34.918 Y190.691 E17.78747
G1 X34.414 Y190.644 E17.80431
G1 X33.924 Y190.519 E17.82113
G1 X33.46 Y190.318 E17.83795
G1 X33.034 Y190.047 E17.85474
G1 X32.655 Y189.712 E17.87156
G1 X32.334 Y189.321 E17.88839
G1 X32.079 Y188.885 E17.90519
G1 X31.895 Y188.414 E17.92201
G1 X31.788 Y187.92 E17.93882
G1 X31.751 Y187.244 E17.96134
G1 X31.75 Y23.131 E23.41976
G1 X31.759 Y22.466 E23.44188
G1 X31.806 Y21.962 E23.45871
G1 X31.932 Y21.473 E23.47551
G1 X32.133 Y21.009 E23.49233
G1 X32.404 Y20.582 E23.50915
G1 X32.739 Y20.204 E23.52595
G1 X33.13 Y19.883 E23.54277
G1 X33.567 Y19.628 E23.5596
G1 X34.038 Y19.444 E23.57642
G1 X34.532 Y19.338 E23.59322
G1 X35.19 Y19.301 E23.61514
G1 F2100 E22.81514
;MESH:Body6.stl
G0 F3600 X35.374 Y21.835
G0 X35.374 Y22.924
G0 X39.13 Y25.501
;TYPE:WALL-INNER
G1 F2100 E23.61514
G1 F1800 X39.035 Y25.568 E23.61901
G1 X38.648 Y25.896 E23.63588
G1 X38.327 Y26.221 E23.65108
G1 X37.999 Y26.612 E23.66805
G1 X37.951 Y26.682 E23.67087
G0 F3600 X37.551 Y28.288
G1 F1800 X37.83 Y27.624 E23.69483
G1 X38.326 Y26.842 E23.72563
G1 X38.783 Y26.33 E23.74846
G1 X39.267 Y25.893 E23.77014
G1 X40.052 Y25.389 E23.80117
G1 X40.734 Y25.1 E23.82581
G0 F3600 X39.021 Y28.032
G0 X38.556 Y29.322
G0 X38.558 Y30.696
G0 X39.029 Y31.985
G0 X39.916 Y33.034
G0 X40.988 Y33.663
G0 X43.383 Y34.297
G1 F1800 X42.618 Y34.393 E23.85145
G1 X41.844 Y34.354 E23.87723
G1 X41.103 Y34.184 E23.90251
G1 X40.407 Y33.893 E23.9276
G1 X39.748 Y33.467 E23.9537
G1 X39.192 Y32.951 E23.97893
G1 X38.733 Y32.349 E24.00411
G1 X38.374 Y31.649 E24.03028
G1 F1804.5 X38.154 Y30.932 E24.05516
G1 X38.057 Y30.171 E24.08061
G1 F1800 X38.096 Y29.395 E24.10645
G1 X38.266 Y28.653 E24.13177
G1 X38.557 Y27.957 E24.15686
G1 X38.981 Y27.301 E24.18284
G1 X39.35 Y26.894 E24.20111
G1 X39.732 Y26.545 E24.21832
G1 X40.389 Y26.115 E24.24444
G1 X41.079 Y25.822 E24.26937
G1 X41.679 Y25.666 E24.28999
G1 X42.286 Y25.606 E24.31028
G1 X43.057 Y25.644 E24.33595
G1 X43.807 Y25.818 E24.36156
G1 X44.495 Y26.108 E24.3864
G1 X45.149 Y26.531 E24.4123
G1 X45.708 Y27.049 E24.43765
G1 X46.168 Y27.651 E24.46285
G1 X46.524 Y28.347 E24.48885
G1 X46.747 Y29.067 E24.51392
G1 X46.843 Y29.829 E24.53946
G1 X46.804 Y30.605 E24.56531
G1 X46.634 Y31.346 E24.59059
G1 X46.343 Y32.043 E24.61571
G1 X45.919 Y32.698 E24.64166
G1 X45.487 Y33.169 E24.66292
G1 X45.17 Y33.453 E24.67708
G1 X44.741 Y33.758 E24.69458
G1 X44.1 Y34.075 E24.71837
G1 X43.383 Y34.297 E24.74333
G0 F3600 X43.488 Y34.683
G1 F1800 X42.654 Y34.792 E24.77131
G1 X41.808 Y34.752 E24.79948
G1 X40.999 Y34.57 E24.82706
G1 X40.24 Y34.257 E24.85436
G1 X39.517 Y33.794 E24.88292
G1 X38.91 Y33.234 E24.91039
G1 X38.407 Y32.581 E24.9378
G1 X38.011 Y31.817 E24.96642
G1 F1718.4 X37.749 Y31.042 E24.99493
G1 F1551.7 X37.679 Y30.847 E25.00292
G1 F1525.4 X37.632 Y30.21 E25.02799
G1 F1551.7 X37.661 Y29.356 E25.06096
G1 F1647.6 X37.879 Y28.55 E25.0913
G1 F1800 X38.194 Y27.79 E25.11866
G1 X38.654 Y27.072 E25.14702
G1 X39.066 Y26.612 E25.16756
G1 X39.499 Y26.219 E25.18701
G1 X40.221 Y25.752 E25.21561
G1 X40.974 Y25.436 E25.24277
G1 F1621.6 X41.602 Y25.229 E25.26718
G1 F1528.7 X42.248 Y25.181 E25.29255
G1 F1555.1 X43.093 Y25.21 E25.3251
G1 F1651.4 X43.912 Y25.432 E25.35586
G1 F1800 X44.662 Y25.745 E25.38289
G1 X45.378 Y26.204 E25.41118
G1 X45.99 Y26.766 E25.43882
G1 X46.493 Y27.419 E25.46623
G1 X46.887 Y28.179 E25.49471
G1 X47.133 Y28.962 E25.522
G1 X47.242 Y29.792 E25.54985
G1 X47.202 Y30.64 E25.57808
G1 X47.02 Y31.449 E25.60566
G1 X46.706 Y32.21 E25.63304
G1 X46.508 Y32.556 E25.6463
G1 X46.204 Y32.987 E25.66384
G1 X45.771 Y33.451 E25.68495
G1 X45.403 Y33.778 E25.70133
G1 X44.96 Y34.093 E25.71941
G1 X44.268 Y34.439 E25.74514
G1 X43.488 Y34.683 E25.77232
G0 F3600 X43.935 Y33.721
G0 X43.932 Y33.712
G1 F1800 X43.278 Y33.911 E25.79506
G1 X42.582 Y33.995 E25.81837
G1 X41.879 Y33.955 E25.84179
G1 X41.206 Y33.797 E25.86479
G1 X40.573 Y33.53 E25.88764
G1 X39.978 Y33.14 E25.9113
G1 X39.474 Y32.667 E25.93429
G1 X39.058 Y32.117 E25.95722
G1 X38.737 Y31.481 E25.98092
G1 F1804.5 X38.54 Y30.827 E26.00358
G1 X38.455 Y30.135 E26.02671
G1 F1800 X38.495 Y29.43 E26.0502
G1 X38.652 Y28.756 E26.07322
G1 X38.921 Y28.124 E26.09606
G1 X39.308 Y27.531 E26.11961
G1 X39.783 Y27.024 E26.14272
G1 X40.333 Y26.608 E26.16566
G1 X40.967 Y26.288 E26.18928
G1 X41.619 Y26.089 E26.21195
G1 X42.321 Y26.005 E26.23547
G1 X43.023 Y26.043 E26.25885
G1 X43.702 Y26.204 E26.28206
G1 X44.328 Y26.471 E26.30469
G1 X44.919 Y26.858 E26.32819
G1 X45.426 Y27.333 E26.3513
G1 X45.842 Y27.883 E26.37423
G1 X46.161 Y28.515 E26.39778
G1 X46.361 Y29.173 E26.42065
G1 X46.445 Y29.865 E26.44384
G1 X46.405 Y30.57 E26.46732
G1 X46.247 Y31.243 E26.49032
G1 X45.979 Y31.876 E26.51318
G1 X45.592 Y32.469 E26.53673
G1 X45.204 Y32.887 E26.5557
G1 X44.938 Y33.128 E26.56764
G1 X44.522 Y33.423 E26.5846
G1 X43.932 Y33.712 E26.60645
G0 F3600 X43.173 Y33.525
G1 F1800 X42.546 Y33.596 E26.62744
G1 X41.914 Y33.557 E26.6485
G1 X41.309 Y33.411 E26.6692
G1 X40.74 Y33.166 E26.6898
G1 X40.209 Y32.813 E26.71101
G1 X39.756 Y32.383 E26.73179
G1 X39.384 Y31.885 E26.75246
G1 X39.101 Y31.313 E26.77369
G1 F1804.5 X38.926 Y30.722 E26.79414
G1 X38.854 Y30.099 E26.81494
G1 F1800 X38.893 Y29.465 E26.83607
G1 X39.039 Y28.86 E26.85677
G1 X39.285 Y28.291 E26.87739
G1 X39.636 Y27.761 E26.89853
G1 X40.067 Y27.306 E26.91938
G1 X40.565 Y26.934 E26.94005
G1 X41.135 Y26.651 E26.96122
G1 X41.725 Y26.475 E26.98169
G1 X42.356 Y26.403 E27.00282
G1 X42.989 Y26.442 E27.02391
G1 X43.597 Y26.59 E27.04472
G1 X44.16 Y26.835 E27.06515
G1 X44.689 Y27.186 E27.08626
G1 X45.144 Y27.617 E27.10711
G1 X45.516 Y28.115 E27.12778
G1 X45.798 Y28.683 E27.14887
G1 X45.975 Y29.278 E27.16952
G1 X46.046 Y29.901 E27.19037
G1 X46.007 Y30.535 E27.2115
G1 X45.861 Y31.14 E27.2322
G1 X45.615 Y31.709 E27.25282
G1 X45.264 Y32.239 E27.27396
G1 X44.92 Y32.605 E27.29067
G1 X44.337 Y33.065 E27.31537
G1 X43.764 Y33.349 E27.33664
G1 X43.173 Y33.525 E27.35715
G0 F3600 X43.068 Y33.139
G1 F1800 X42.51 Y33.198 E27.37581
G1 X41.949 Y33.158 E27.39452
G1 X41.412 Y33.024 E27.41293
G1 X40.906 Y32.802 E27.4313
G1 X40.44 Y32.486 E27.45003
G1 X40.038 Y32.099 E27.46859
G1 X39.71 Y31.653 E27.487
G1 X39.464 Y31.145 E27.50578
G1 F1804.5 X39.312 Y30.617 E27.52401
G1 X39.252 Y30.063 E27.54249
G1 F1800 X39.292 Y29.5 E27.56127
G1 X39.426 Y28.963 E27.57967
G1 X39.648 Y28.457 E27.59805
G1 X39.963 Y27.991 E27.61676
G1 X40.351 Y27.588 E27.63537
G1 X40.797 Y27.26 E27.65378
G1 X41.303 Y27.014 E27.67249
G1 X41.831 Y26.862 E27.69077
G1 X42.391 Y26.802 E27.7095
G1 X42.955 Y26.84 E27.7283
G1 X43.491 Y26.976 E27.74669
G1 X43.993 Y27.198 E27.76495
G1 X44.459 Y27.513 E27.78366
G1 X44.862 Y27.901 E27.80227
G1 X45.19 Y28.347 E27.82068
G1 X45.435 Y28.851 E27.83932
G1 X45.589 Y29.383 E27.85774
G1 X45.648 Y29.937 E27.87627
G1 X45.608 Y30.5 E27.89504
G1 X45.474 Y31.037 E27.91345
G1 X45.252 Y31.543 E27.93183
G1 X44.937 Y32.009 E27.95054
G1 X44.549 Y32.411 E27.96912
G1 X44.104 Y32.74 E27.98753
G1 X43.596 Y32.986 E28.0063
G1 X43.068 Y33.139 E28.02458
G0 F3600 X43.278 Y33.919
G0 X42.457 Y33.955
G0 X37.951 Y33.32
G1 F1800 X38.018 Y33.415 E28.02845
G1 X38.346 Y33.802 E28.04532
G1 X38.671 Y34.123 E28.06051
G1 X39.056 Y34.448 E28.07727
G1 X39.426 Y34.708 E28.09231
G1 X39.908 Y34.985 E28.1108
G1 X40.318 Y35.173 E28.12581
G1 X40.793 Y35.344 E28.1426
G1 X41.228 Y35.459 E28.15756
G1 X41.738 Y35.549 E28.17479
G1 X42.472 Y35.6 E28.19926
G1 X43.18 Y35.547 E28.22287
G1 X43.698 Y35.455 E28.24037
G1 X44.461 Y35.226 E28.26687
G1 X45.014 Y34.975 E28.28706
G1 X45.5 Y34.692 E28.30577
G1 X45.946 Y34.371 E28.32405
G1 X46.338 Y34.015 E28.34166
G1 X46.843 Y33.468 E28.36642
G1 X47.162 Y33.016 E28.38482
G1 X47.433 Y32.543 E28.40295
G1 X47.741 Y31.831 E28.42875
G1 X47.909 Y31.22 E28.44983
G1 X47.999 Y30.71 E28.46705
G1 X48.05 Y30 E28.49073
G1 X47.997 Y29.269 E28.51511
G1 X47.905 Y28.752 E28.53257
G1 X47.786 Y28.315 E28.54764
G1 X47.613 Y27.843 E28.56436
G1 X47.424 Y27.434 E28.57934
G1 X47.145 Y26.954 E28.59781
G1 X46.882 Y26.585 E28.61288
G1 X46.554 Y26.198 E28.62975
G1 X46.229 Y25.877 E28.64495
G1 X45.838 Y25.549 E28.66192
G1 X45.768 Y25.501 E28.66474
G0 F3600 X44.165 Y25.101
G1 F1800 X44.829 Y25.381 E28.68871
G1 X45.608 Y25.876 E28.71941
G1 X46.272 Y26.482 E28.74931
G1 X46.819 Y27.187 E28.77899
G1 X47.25 Y28.011 E28.80992
G1 X47.519 Y28.857 E28.83944
G1 X47.64 Y29.756 E28.86961
G1 X47.641 Y30.22 E28.88505
G1 X47.569 Y30.909 E28.90809
G1 X47.407 Y31.552 E28.93014
G1 X47.07 Y32.376 E28.95975
G1 X46.835 Y32.786 E28.97547
G1 X46.523 Y33.227 E28.99344
G1 X46.055 Y33.733 E29.01636
G1 X45.635 Y34.104 E29.035
G1 X45.178 Y34.428 E29.05363
G1 X44.436 Y34.802 E29.08127
G1 X43.593 Y35.069 E29.11068
G1 X42.69 Y35.19 E29.14098
G1 X42.227 Y35.191 E29.15638
G1 X41.331 Y35.073 E29.18644
G1 X40.485 Y34.809 E29.21592
G1 X39.657 Y34.382 E29.2469
G1 X38.953 Y33.84 E29.27645
G1 X38.343 Y33.183 E29.30627
G1 X37.838 Y32.396 E29.33737
G1 X37.551 Y31.716 E29.36192
G0 F3600 X40.482 Y33.429
G0 X41.771 Y33.894
G0 X43.015 Y33.905
G0 X44.349 Y33.528
G0 X43.839 Y32.433
;TYPE:WALL-OUTER
G1 F1800 X43.397 Y32.635 E29.37808
G1 X42.928 Y32.759 E29.39422
G1 X42.438 Y32.8 E29.41057
G1 X41.95 Y32.754 E29.42688
G1 X41.483 Y32.626 E29.44298
G1 X41.04 Y32.42 E29.45923
G1 X40.645 Y32.137 E29.47539
G1 X40.299 Y31.79 E29.49169
G1 X40.017 Y31.388 E29.50802
G1 X39.815 Y30.946 E29.52419
G1 X39.691 Y30.478 E29.54029
G1 X39.65 Y30.027 E29.55535
G1 X39.696 Y29.501 E29.57291
G1 X39.824 Y29.034 E29.58902
G1 X40.03 Y28.593 E29.60521
G1 X40.313 Y28.195 E29.62145
G1 X40.66 Y27.849 E29.63775
G1 X41.061 Y27.567 E29.65405
G1 X41.503 Y27.366 E29.6702
G1 X41.972 Y27.24 E29.68636
G1 X42.461 Y27.2 E29.70268
G1 X42.957 Y27.246 E29.71924
G1 X43.417 Y27.374 E29.73512
G1 X43.857 Y27.58 E29.75128
G1 X44.255 Y27.863 E29.76753
G1 X44.601 Y28.21 E29.78382
G1 X44.883 Y28.611 E29.80013
G1 X45.084 Y29.051 E29.81622
G1 X45.209 Y29.522 E29.83243
G1 X45.25 Y30.01 E29.84871
G1 X45.204 Y30.499 E29.86505
G1 X45.076 Y30.966 E29.88116
G1 X44.87 Y31.407 E29.89734
G1 X44.591 Y31.802 E29.91343
G1 X44.245 Y32.147 E29.92968
G1 X43.839 Y32.433 E29.9462
G0 F3600 X43.657 Y32.516
G0 X44.168 Y33.612
G0 X38.751 Y174.789
;TYPE:WALL-INNER
G1 F1800 X38.953 Y174.645 E29.95445
G1 X39.552 Y174.298 E29.97747
G1 X39.961 Y174.108 E29.99247
G1 X40.565 Y173.889 E30.01384
G1 X40.999 Y173.771 E30.0288
G1 X41.669 Y173.652 E30.05143
G1 X42.463 Y173.6 E30.0779
G1 X43.229 Y173.652 E30.10343
G1 X43.899 Y173.771 E30.12607
G1 X44.55 Y173.955 E30.14857
G1 X45.332 Y174.29 E30.17686
G1 X45.815 Y174.555 E30.19519
G1 X46.315 Y174.905 E30.21549
G1 X46.74 Y175.255 E30.2338
G1 X47.129 Y175.642 E30.25205
G1 X47.469 Y176.033 E30.26928
G1 X47.805 Y176.503 E30.2885
G1 X48.152 Y177.102 E30.31152
G1 X48.42 Y177.693 E30.33311
G1 X48.68 Y178.557 E30.36312
G1 X48.796 Y179.21 E30.38518
G1 X48.85 Y179.981 E30.41088
G1 X48.796 Y180.785 E30.43768
G1 X48.682 Y181.434 E30.4596
G1 X48.565 Y181.871 E30.47465
G1 X48.349 Y182.469 E30.49579
G1 X48.162 Y182.88 E30.51081
G1 X47.807 Y183.494 E30.5344
G1 X47.662 Y183.699 E30.54275
G0 F3600 X44.096 Y184.078
G1 F1804.5 X43.377 Y184.298 E30.5677
G1 X42.606 Y184.394 E30.59348
G1 F1800 X41.842 Y184.355 E30.61892
G1 X41.09 Y184.181 E30.64459
G1 X40.401 Y183.893 E30.66943
G1 X39.739 Y183.461 E30.69572
G1 X39.346 Y183.104 E30.71338
G1 X38.989 Y182.711 E30.73104
G1 X38.562 Y182.056 E30.75705
G1 X38.267 Y181.355 E30.78234
G1 X38.116 Y180.763 E30.80266
G1 X38.056 Y180.163 E30.82272
G1 X38.096 Y179.39 E30.84846
G1 X38.268 Y178.645 E30.87389
G1 X38.558 Y177.953 E30.89885
G1 X38.987 Y177.291 E30.92509
G1 X39.507 Y176.736 E30.95038
G1 X40.109 Y176.277 E30.97556
G1 X40.802 Y175.923 E31.00144
G1 X41.523 Y175.701 E31.02653
G1 X42.294 Y175.606 E31.05237
G1 X43.058 Y175.645 E31.07782
G1 X43.81 Y175.819 E31.10349
G1 X44.499 Y176.108 E31.12834
G1 X45.159 Y176.537 E31.15452
G1 X45.553 Y176.896 E31.17225
G1 X45.911 Y177.289 E31.18993
G1 X46.213 Y177.719 E31.20741
G1 X46.526 Y178.351 E31.23086
G1 X46.749 Y179.077 E31.25612
G1 X46.844 Y179.837 E31.2816
G1 X46.804 Y180.609 E31.30731
G1 X46.633 Y181.353 E31.3327
G1 X46.343 Y182.047 E31.35772
G1 X45.913 Y182.709 E31.38397
G1 X45.393 Y183.264 E31.40927
G1 X44.794 Y183.722 E31.43435
G1 X44.096 Y184.078 E31.46041
G0 F3600 X44.168 Y184.899
G1 F1800 X44.843 Y184.614 E31.48478
G1 X45.626 Y184.112 E31.51571
G1 X46.282 Y183.507 E31.54539
G1 X46.828 Y182.801 E31.57508
G1 X47.258 Y181.969 E31.60623
G1 X47.522 Y181.123 E31.6357
G1 X47.641 Y180.226 E31.6658
G1 X47.64 Y179.767 E31.68107
G1 X47.521 Y178.869 E31.7112
G1 X47.306 Y178.14 E31.73647
G1 X47.063 Y177.607 E31.75596
G1 X46.825 Y177.197 E31.77173
G1 X46.464 Y176.695 E31.79229
G1 X46.119 Y176.33 E31.809
G1 X45.69 Y175.935 E31.82839
G1 X45.251 Y175.623 E31.8463
G1 X44.832 Y175.381 E31.8624
G1 X44.167 Y175.092 E31.88651
G1 X43.584 Y174.929 E31.90665
G1 X43.126 Y174.848 E31.92212
G1 X42.226 Y174.809 E31.95208
G1 X41.314 Y174.929 E31.98268
G1 X40.466 Y175.197 E32.01225
G1 X39.647 Y175.624 E32.04297
G1 X38.941 Y176.17 E32.07266
G1 X38.334 Y176.829 E32.10246
G1 X37.83 Y177.62 E32.13365
G1 X37.551 Y178.285 E32.15764
G0 F3600 X38.734 Y181.353
G0 X39.422 Y182.542
G0 X40.419 Y183.387
G0 X43.486 Y184.703
G1 F1582.4 X43.097 Y184.79 E32.17272
G1 F1558.4 X42.451 Y184.825 E32.19757
G1 X41.805 Y184.79 E32.22243
G1 F1647.6 X40.985 Y184.567 E32.2533
G1 F1800 X40.235 Y184.257 E32.2803
G1 X39.508 Y183.787 E32.30909
G1 X39.063 Y183.387 E32.32899
G1 X38.663 Y182.942 E32.34889
G1 X38.199 Y182.224 E32.37733
G1 X37.881 Y181.458 E32.40491
G1 F1621.6 X37.679 Y180.84 E32.42891
G1 F1528.7 X37.631 Y180.201 E32.45401
G1 F1551.7 X37.661 Y179.351 E32.48683
G1 F1647.6 X37.882 Y178.541 E32.51733
G1 F1800 X38.194 Y177.786 E32.54451
G1 X38.661 Y177.06 E32.57322
G1 X39.224 Y176.453 E32.60075
G1 X39.878 Y175.951 E32.62817
G1 X40.634 Y175.56 E32.65648
G1 X41.418 Y175.315 E32.6838
G1 X42.26 Y175.207 E32.71204
G1 X43.092 Y175.246 E32.73974
G1 X43.914 Y175.433 E32.76778
G1 X44.666 Y175.745 E32.79486
G1 X45.02 Y175.949 E32.80845
G1 X45.448 Y176.254 E32.82593
G1 X45.836 Y176.613 E32.84351
G1 X46.194 Y177 E32.86104
G1 X46.499 Y177.428 E32.87852
G1 X46.889 Y178.183 E32.90679
G1 X47.135 Y178.973 E32.93431
G1 X47.242 Y179.802 E32.96211
G1 X47.202 Y180.644 E32.99014
G1 X47.019 Y181.457 E33.01786
G1 X46.707 Y182.214 E33.04509
G1 X46.239 Y182.94 E33.07382
G1 X45.676 Y183.547 E33.10136
G1 X45.025 Y184.048 E33.12868
G1 X44.264 Y184.441 E33.15717
G1 F1722.5 X43.486 Y184.703 E33.1857
G0 F3600 X43.272 Y183.912
G1 F1804.5 X42.571 Y183.995 E33.20912
G1 F1800 X41.877 Y183.956 E33.23224
