;FLAVOR:Marlin
;TIME:34176
;Filament used: 56.147m
;Layer height: 0.3
;MINX:38.45
;MINY:14.7
;MINZ:0.2
;MAXX:211.55
;MAXY:195.3
;MAXZ:7.4
;Generated with Cura_SteamEngine 99.10.0-Arachne_engine_beta_2
M82 ;absolute extrusion mode
G21 ; set units to millimeters
G90 ; use absolute positioning
M82 ; absolute extrusion mode
M104 S200 ; set extruder temp
M140 S60 ; set bed temp
M190 S60 ; wait for bed temp
M109 S200 ; wait for extruder temp
G28 W ; home all without mesh bed level
G80 ; mesh bed leveling
G92 E0.0 ; reset extruder distance position
G1 Y-3.0 F1000.0 ; go outside print area
G1 X60.0 E9.0 F1000.0 ; intro line
G1 X100.0 E21.5 F1000.0 ; intro line
G92 E0.0 ; reset extruder distance position
G92 E0
G92 E0
G1 F2100 E-0.8
;LAYER_COUNT:25
;LAYER:0
M107
G0 F3600 X39.081 Y19.426 Z0.2
G0 X46.25 Y15.5
;TYPE:SKIRT
G1 F2100 E0
G1 F1800 X203.75 Y15.5 E5.23847
G1 X204.497 Y15.54 E5.26335
G1 X205.235 Y15.659 E5.28822
G1 X205.957 Y15.857 E5.31312
G1 X206.653 Y16.13 E5.33798
G1 X207.316 Y16.477 E5.36287
G1 X207.939 Y16.892 E5.38777
G1 X208.513 Y17.371 E5.41263
G1 X209.034 Y17.908 E5.43752
G1 X209.493 Y18.498 E5.46238
G1 X209.888 Y19.134 E5.48728
G1 X210.212 Y19.808 E5.51216
G1 X210.462 Y20.513 E5.53704
G1 X210.636 Y21.241 E5.56193
G1 X210.731 Y21.983 E5.58681
G1 X210.75 Y22.5 E5.60402
G1 X210.75 Y187.5 E11.09194
G1 X210.71 Y188.247 E11.11682
G1 X210.591 Y188.985 E11.14168
G1 X210.393 Y189.707 E11.16658
G1 X210.12 Y190.403 E11.19145
G1 X209.773 Y191.066 E11.21634
G1 X209.358 Y191.689 E11.24124
G1 X208.879 Y192.263 E11.2661
G1 X208.342 Y192.784 E11.29099
G1 X207.752 Y193.243 E11.31585
G1 X207.116 Y193.638 E11.34075
G1 X206.442 Y193.962 E11.36562
G1 X205.737 Y194.212 E11.3905
G1 X205.009 Y194.386 E11.4154
G1 X204.267 Y194.481 E11.44028
G1 X203.75 Y194.5 E11.45749
G1 X46.25 Y194.5 E16.69596
G1 X45.503 Y194.46 E16.72084
G1 X44.765 Y194.341 E16.7457
G1 X44.043 Y194.143 E16.7706
G1 X43.347 Y193.87 E16.79547
G1 X42.684 Y193.523 E16.82036
G1 X42.061 Y193.108 E16.84526
G1 X41.487 Y192.629 E16.87012
G1 X40.966 Y192.092 E16.89501
G1 X40.507 Y191.502 E16.91987
G1 X40.112 Y190.866 E16.94477
G1 X39.788 Y190.192 E16.96964
G1 X39.538 Y189.487 E16.99452
G1 X39.364 Y188.759 E17.01942
G1 X39.269 Y188.017 E17.0443
G1 X39.25 Y187.5 E17.0615
G1 X39.25 Y22.5 E22.54943
G1 X39.29 Y21.753 E22.57431
G1 X39.409 Y21.015 E22.59917
G1 X39.607 Y20.293 E22.62407
G1 X39.88 Y19.597 E22.64894
G1 X40.227 Y18.934 E22.67383
G1 X40.642 Y18.311 E22.69872
G1 X41.121 Y17.737 E22.72359
G1 X41.658 Y17.216 E22.74848
G1 X42.248 Y16.757 E22.77334
G1 X42.884 Y16.362 E22.79824
G1 X43.558 Y16.038 E22.82311
G1 X44.263 Y15.788 E22.84799
G1 X44.991 Y15.614 E22.87289
G1 X45.733 Y15.519 E22.89777
G1 X46.25 Y15.5 E22.91497
G0 F3600 X46.25 Y15.1
G1 F1800 X203.75 Y15.1 E28.15345
G1 X204.518 Y15.14 E28.17902
G1 X205.278 Y15.259 E28.20461
G1 X206.021 Y15.457 E28.23018
G1 X206.74 Y15.731 E28.25578
G1 X207.426 Y16.078 E28.28135
G1 X208.073 Y16.494 E28.30693
G1 X208.673 Y16.975 E28.33251
G1 X209.22 Y17.516 E28.35809
G1 X209.708 Y18.111 E28.38369
G1 X210.131 Y18.753 E28.40926
G1 X210.486 Y19.436 E28.43486
G1 X210.767 Y20.151 E28.46041
G1 X210.973 Y20.893 E28.48603
G1 X211.101 Y21.651 E28.51159
G1 X211.15 Y22.5 E28.53988
G1 X211.15 Y187.5 E34.0278
G1 X211.11 Y188.268 E34.05338
G1 X210.991 Y189.028 E34.07897
G1 X210.793 Y189.771 E34.10454
G1 X210.519 Y190.49 E34.13013
G1 X210.172 Y191.176 E34.1557
G1 X209.756 Y191.823 E34.18128
G1 X209.275 Y192.423 E34.20686
G1 X208.734 Y192.97 E34.23245
G1 X208.139 Y193.458 E34.25804
G1 X207.497 Y193.881 E34.28362
G1 X206.814 Y194.236 E34.30922
G1 X206.099 Y194.517 E34.33477
G1 X205.357 Y194.723 E34.36038
G1 X204.599 Y194.851 E34.38595
G1 X203.75 Y194.9 E34.41423
G1 X46.25 Y194.9 E39.65271
G1 X45.482 Y194.86 E39.67828
G1 X44.722 Y194.741 E39.70387
G1 X43.979 Y194.543 E39.72945
G1 X43.26 Y194.269 E39.75504
G1 X42.574 Y193.922 E39.78061
G1 X41.927 Y193.506 E39.80619
G1 X41.327 Y193.025 E39.83177
G1 X40.78 Y192.484 E39.85736
G1 X40.292 Y191.889 E39.88295
G1 X39.869 Y191.247 E39.90852
G1 X39.514 Y190.564 E39.93412
G1 X39.233 Y189.849 E39.95967
G1 X39.027 Y189.107 E39.98529
G1 X38.899 Y188.349 E40.01086
G1 X38.85 Y187.5 E40.03914
G1 X38.85 Y22.5 E45.52706
G1 X38.89 Y21.732 E45.55264
G1 X39.009 Y20.972 E45.57823
G1 X39.207 Y20.229 E45.6038
G1 X39.481 Y19.51 E45.62939
G1 X39.828 Y18.824 E45.65496
G1 X40.244 Y18.177 E45.68055
G1 X40.725 Y17.577 E45.70612
G1 X41.266 Y17.03 E45.73171
G1 X41.861 Y16.542 E45.75731
G1 X42.503 Y16.119 E45.78288
G1 X43.186 Y15.764 E45.80848
G1 X43.901 Y15.483 E45.83403
G1 X44.643 Y15.277 E45.85964
G1 X45.401 Y15.149 E45.88521
G1 X46.25 Y15.1 E45.9135
G0 F3600 X46.25 Y14.7
G1 F1800 X203.75 Y14.7 E51.15197
G1 X204.539 Y14.74 E51.17824
G1 X205.319 Y14.859 E51.20449
G1 X206.084 Y15.057 E51.23077
G1 X206.824 Y15.331 E51.25701
G1 X207.533 Y15.679 E51.28328
G1 X208.204 Y16.097 E51.30958
G1 X208.828 Y16.58 E51.33582
G1 X209.401 Y17.123 E51.36208
G1 X209.916 Y17.722 E51.38835
G1 X210.367 Y18.37 E51.41461
G1 X210.751 Y19.061 E51.4409
G1 X211.063 Y19.786 E51.46716
G1 X211.3 Y20.539 E51.49341
G1 X211.459 Y21.313 E51.51969
G1 X211.54 Y22.098 E51.54594
G1 X211.55 Y22.5 E51.55932
G1 X211.55 Y187.5 E57.04724
G1 X211.51 Y188.289 E57.07351
G1 X211.391 Y189.069 E57.09976
G1 X211.193 Y189.834 E57.12604
G1 X210.919 Y190.574 E57.15228
G1 X210.571 Y191.283 E57.17855
G1 X210.153 Y191.954 E57.20485
G1 X209.67 Y192.578 E57.23109
G1 X209.127 Y193.151 E57.25735
G1 X208.528 Y193.666 E57.28362
G1 X207.88 Y194.117 E57.30988
G1 X207.189 Y194.501 E57.33617
G1 X206.464 Y194.813 E57.36243
G1 X205.711 Y195.05 E57.38868
G1 X204.937 Y195.209 E57.41496
G1 X204.152 Y195.29 E57.44121
G1 X203.75 Y195.3 E57.45459
G1 X46.25 Y195.3 E62.69306
G1 X45.461 Y195.26 E62.71933
G1 X44.681 Y195.141 E62.74558
G1 X43.916 Y194.943 E62.77186
G1 X43.176 Y194.669 E62.7981
G1 X42.467 Y194.321 E62.82437
G1 X41.796 Y193.903 E62.85067
G1 X41.172 Y193.42 E62.87691
G1 X40.599 Y192.877 E62.90317
G1 X40.084 Y192.278 E62.92944
G1 X39.633 Y191.63 E62.9557
G1 X39.249 Y190.939 E62.98199
G1 X38.937 Y190.214 E63.00825
G1 X38.7 Y189.461 E63.0345
G1 X38.541 Y188.687 E63.06078
G1 X38.46 Y187.902 E63.08703
G1 X38.45 Y187.5 E63.1004
G1 X38.45 Y22.5 E68.58833
G1 X38.49 Y21.711 E68.6146
G1 X38.609 Y20.931 E68.64085
G1 X38.807 Y20.166 E68.66713
G1 X39.081 Y19.426 E68.69337
G1 X39.429 Y18.717 E68.71964
G1 X39.847 Y18.046 E68.74594
G1 X40.33 Y17.422 E68.77218
G1 X40.873 Y16.849 E68.79844
G1 X41.472 Y16.334 E68.82471
G1 X42.12 Y15.883 E68.85097
G1 X42.811 Y15.499 E68.87726
G1 X43.536 Y15.187 E68.90352
G1 X44.289 Y14.95 E68.92977
G1 X45.063 Y14.791 E68.95605
G1 X45.848 Y14.71 E68.9823
G1 X46.25 Y14.7 E68.99568
G0 F3600 X46.25 Y15.9
G1 F1800 X203.75 Y15.9 E74.23415
G1 X204.475 Y15.94 E74.2583
G1 X205.192 Y16.059 E74.28247
G1 X205.891 Y16.257 E74.30663
G1 X206.564 Y16.53 E74.33079
G1 X207.203 Y16.875 E74.35494
G1 X207.8 Y17.289 E74.37911
G1 X208.348 Y17.765 E74.40325
G1 X208.841 Y18.299 E74.42742
G1 X209.271 Y18.884 E74.45157
G1 X209.635 Y19.513 E74.47574
G1 X209.928 Y20.178 E74.49991
G1 X210.146 Y20.871 E74.52407
G1 X210.286 Y21.583 E74.54821
G1 X210.35 Y22.5 E74.57878
G1 X210.35 Y187.5 E80.0667
G1 X210.31 Y188.225 E80.09085
G1 X210.191 Y188.942 E80.11503
G1 X209.993 Y189.641 E80.13919
G1 X209.72 Y190.314 E80.16335
G1 X209.375 Y190.953 E80.1875
G1 X208.961 Y191.55 E80.21166
G1 X208.485 Y192.098 E80.23581
G1 X207.951 Y192.591 E80.25998
G1 X207.366 Y193.021 E80.28413
G1 X206.737 Y193.385 E80.3083
G1 X206.072 Y193.678 E80.33247
G1 X205.379 Y193.896 E80.35663
G1 X204.667 Y194.036 E80.38076
G1 X203.75 Y194.1 E80.41134
G1 X46.25 Y194.1 E85.64981
G1 X45.525 Y194.06 E85.67396
G1 X44.808 Y193.941 E85.69813
G1 X44.109 Y193.743 E85.7223
G1 X43.436 Y193.47 E85.74645
G1 X42.797 Y193.125 E85.77061
G1 X42.2 Y192.711 E85.79477
G1 X41.652 Y192.235 E85.81891
G1 X41.159 Y191.701 E85.84308
G1 X40.729 Y191.116 E85.86723
G1 X40.365 Y190.487 E85.8914
G1 X40.072 Y189.822 E85.91557
G1 X39.854 Y189.129 E85.93974
G1 X39.714 Y188.417 E85.96387
G1 X39.65 Y187.5 E85.99444
G1 X39.65 Y22.5 E91.48237
G1 X39.69 Y21.775 E91.50652
G1 X39.809 Y21.058 E91.53069
G1 X40.007 Y20.359 E91.55485
G1 X40.28 Y19.686 E91.57901
G1 X40.625 Y19.047 E91.60316
G1 X41.039 Y18.45 E91.62733
G1 X41.515 Y17.902 E91.65147
G1 X42.049 Y17.409 E91.67564
G1 X42.634 Y16.979 E91.69979
G1 X43.263 Y16.615 E91.72396
G1 X43.928 Y16.322 E91.74813
G1 X44.621 Y16.104 E91.77229
G1 X45.333 Y15.964 E91.79643
G1 X46.25 Y15.9 E91.827
G0 F3600 X46.25 Y16.3
G1 F1800 X203.75 Y16.3 E97.06547
G1 X204.453 Y16.34 E97.08889
G1 X205.147 Y16.459 E97.11231
G1 X205.822 Y16.657 E97.13571
G1 X206.471 Y16.929 E97.15911
G1 X207.085 Y17.274 E97.18254
G1 X207.656 Y17.685 E97.20594
G1 X208.177 Y18.159 E97.22936
G1 X208.641 Y18.689 E97.25279
G1 X209.041 Y19.268 E97.2762
G1 X209.373 Y19.889 E97.29962
G1 X209.633 Y20.543 E97.32303
G1 X209.817 Y21.223 E97.34646
G1 X209.923 Y21.919 E97.36988
G1 X209.95 Y22.5 E97.38922
G1 X209.95 Y187.5 E102.87714
G1 X209.91 Y188.203 E102.90056
G1 X209.791 Y188.897 E102.92398
G1 X209.593 Y189.572 E102.94738
G1 X209.321 Y190.221 E102.97078
G1 X208.976 Y190.835 E102.99421
G1 X208.565 Y191.406 E103.01761
G1 X208.091 Y191.927 E103.04103
G1 X207.561 Y192.391 E103.06446
G1 X206.982 Y192.791 E103.08787
G1 X206.361 Y193.123 E103.11129
G1 X205.707 Y193.383 E103.1347
G1 X205.027 Y193.567 E103.15813
G1 X204.331 Y193.673 E103.18154
G1 X203.75 Y193.7 E103.20089
G1 X46.25 Y193.7 E108.43936
G1 X45.547 Y193.66 E108.46278
G1 X44.853 Y193.541 E108.4862
G1 X44.178 Y193.343 E108.5096
G1 X43.529 Y193.071 E108.533
G1 X42.915 Y192.726 E108.55643
G1 X42.344 Y192.315 E108.57983
G1 X41.823 Y191.841 E108.60325
G1 X41.359 Y191.311 E108.62668
G1 X40.959 Y190.732 E108.65009
G1 X40.627 Y190.111 E108.67351
G1 X40.367 Y189.457 E108.69692
G1 X40.183 Y188.777 E108.72035
G1 X40.077 Y188.081 E108.74376
G1 X40.05 Y187.5 E108.76311
G1 X40.05 Y22.5 E114.25103
G1 X40.09 Y21.797 E114.27445
G1 X40.209 Y21.103 E114.29787
G1 X40.407 Y20.428 E114.32127
G1 X40.679 Y19.779 E114.34467
G1 X41.024 Y19.165 E114.3681
G1 X41.435 Y18.594 E114.3915
G1 X41.909 Y18.073 E114.41492
G1 X42.439 Y17.609 E114.43835
G1 X43.018 Y17.209 E114.46176
G1 X43.639 Y16.877 E114.48518
G1 X44.293 Y16.617 E114.50859
G1 X44.973 Y16.433 E114.53202
G1 X45.669 Y16.327 E114.55543
G1 X46.25 Y16.3 E114.57478
G0 F3600 X46.25 Y16.7
G1 F1800 X203.75 Y16.7 E119.81325
G1 X204.43 Y16.74 E119.83591
G1 X205.1 Y16.859 E119.85854
G1 X205.752 Y17.056 E119.88119
G1 X206.376 Y17.328 E119.90383
G1 X206.964 Y17.672 E119.92649
G1 X207.508 Y18.082 E119.94915
G1 X207.999 Y18.553 E119.97178
G1 X208.433 Y19.078 E119.99443
G1 X208.802 Y19.65 E120.01707
G1 X209.101 Y20.262 E120.03973
G1 X209.326 Y20.904 E120.06235
G1 X209.475 Y21.569 E120.08502
G1 X209.55 Y22.5 E120.11609
G1 X209.55 Y187.5 E125.60401
G1 X209.51 Y188.18 E125.62666
G1 X209.391 Y188.85 E125.6493
G1 X209.194 Y189.502 E125.67195
G1 X208.922 Y190.126 E125.69459
G1 X208.578 Y190.714 E125.71725
G1 X208.168 Y191.258 E125.73991
G1 X207.697 Y191.749 E125.76254
G1 X207.172 Y192.183 E125.78519
G1 X206.6 Y192.552 E125.80783
G1 X205.988 Y192.851 E125.83049
G1 X205.346 Y193.076 E125.85311
G1 X204.681 Y193.225 E125.87578
G1 X203.75 Y193.3 E125.90684
G1 X46.25 Y193.3 E131.14532
G1 X45.57 Y193.26 E131.16797
G1 X44.9 Y193.141 E131.1906
G1 X44.248 Y192.944 E131.21326
G1 X43.624 Y192.672 E131.2359
G1 X43.036 Y192.328 E131.25856
G1 X42.492 Y191.918 E131.28121
G1 X42.001 Y191.447 E131.30384
G1 X41.567 Y190.922 E131.3265
G1 X41.198 Y190.35 E131.34914
G1 X40.899 Y189.738 E131.37179
G1 X40.674 Y189.096 E131.39442
G1 X40.525 Y188.431 E131.41709
G1 X40.45 Y187.5 E131.44815
G1 X40.45 Y22.5 E136.93607
G1 X40.49 Y21.82 E136.95873
G1 X40.609 Y21.15 E136.98136
G1 X40.806 Y20.498 E137.00402
G1 X41.078 Y19.874 E137.02666
G1 X41.422 Y19.286 E137.04932
G1 X41.832 Y18.742 E137.07197
G1 X42.303 Y18.251 E137.0946
G1 X42.828 Y17.817 E137.11726
G1 X43.4 Y17.448 E137.1399
G1 X44.012 Y17.149 E137.16255
G1 X44.654 Y16.924 E137.18518
G1 X45.319 Y16.775 E137.20784
G1 X46.25 Y16.7 E137.23891
G0 F3600 X46.25 Y17.1
G1 F1800 X203.75 Y17.1 E142.47738
G1 X204.406 Y17.14 E142.49924
G1 X205.052 Y17.259 E142.52109
G1 X205.679 Y17.456 E142.54295
G1 X206.277 Y17.728 E142.5648
G1 X206.838 Y18.07 E142.58665
G1 X207.353 Y18.478 E142.6085
G1 X207.815 Y18.945 E142.63035
G1 X208.216 Y19.465 E142.65219
G1 X208.552 Y20.029 E142.67403
G1 X208.816 Y20.631 E142.69589
G1 X209.006 Y21.26 E142.71775
G1 X209.117 Y21.907 E142.73958
G1 X209.15 Y22.5 E142.75933
G1 X209.15 Y187.5 E148.24726
G1 X209.11 Y188.156 E148.26911
G1 X208.991 Y188.802 E148.29096
G1 X208.794 Y189.429 E148.31282
G1 X208.522 Y190.027 E148.33467
G1 X208.18 Y190.588 E148.35652
G1 X207.772 Y191.103 E148.37838
G1 X207.305 Y191.565 E148.40023
G1 X206.785 Y191.966 E148.42207
G1 X206.221 Y192.302 E148.4439
G1 X205.619 Y192.566 E148.46577
G1 X204.99 Y192.756 E148.48762
G1 X204.343 Y192.867 E148.50945
G1 X203.75 Y192.9 E148.52921
G1 X46.25 Y192.9 E153.76768
G1 X45.594 Y192.86 E153.78954
G1 X44.948 Y192.741 E153.81139
G1 X44.321 Y192.544 E153.83324
G1 X43.723 Y192.272 E153.85509
G1 X43.162 Y191.93 E153.87695
G1 X42.647 Y191.522 E153.8988
G1 X42.185 Y191.055 E153.92065
G1 X41.784 Y190.535 E153.94249
G1 X41.448 Y189.971 E153.96433
G1 X41.184 Y189.369 E153.98619
G1 X40.994 Y188.74 E154.00804
G1 X40.883 Y188.093 E154.02988
G1 X40.85 Y187.5 E154.04963
G1 X40.85 Y22.5 E159.53755
G1 X40.89 Y21.844 E159.55941
G1 X41.009 Y21.198 E159.58126
G1 X41.206 Y20.571 E159.60312
G1 X41.478 Y19.973 E159.62497
G1 X41.82 Y19.412 E159.64682
G1 X42.228 Y18.897 E159.66867
G1 X42.695 Y18.435 E159.69052
G1 X43.215 Y18.034 E159.71236
G1 X43.779 Y17.698 E159.7342
G1 X44.381 Y17.434 E159.75606
G1 X45.01 Y17.244 E159.77792
G1 X45.657 Y17.133 E159.79975
G1 X46.25 Y17.1 E159.8195
G0 F3600 X46.25 Y17.5
G1 F1800 X203.75 Y17.5 E165.05798
G1 X204.381 Y17.54 E165.07901
G1 X205.002 Y17.659 E165.10004
G1 X205.602 Y17.856 E165.12104
G1 X206.174 Y18.127 E165.14209
G1 X206.706 Y18.467 E165.16309
G1 X207.191 Y18.873 E165.18413
G1 X207.621 Y19.336 E165.20514
G1 X207.99 Y19.85 E165.22619
G1 X208.29 Y20.406 E165.2472
G1 X208.518 Y20.995 E165.26821
G1 X208.67 Y21.609 E165.28925
G1 X208.75 Y22.5 E165.319
G1 X208.75 Y187.5 E170.80692
G1 X208.71 Y188.131 E170.82795
G1 X208.591 Y188.752 E170.84898
G1 X208.394 Y189.352 E170.86999
G1 X208.123 Y189.924 E170.89104
G1 X207.783 Y190.456 E170.91204
G1 X207.377 Y190.941 E170.93308
G1 X206.914 Y191.371 E170.95409
G1 X206.4 Y191.74 E170.97514
G1 X205.844 Y192.04 E170.99615
G1 X205.255 Y192.268 E171.01716
G1 X204.641 Y192.42 E171.03819
G1 X203.75 Y192.5 E171.06795
G1 X46.25 Y192.5 E176.30642
G1 X45.619 Y192.46 E176.32745
G1 X44.998 Y192.341 E176.34848
G1 X44.398 Y192.144 E176.36948
G1 X43.826 Y191.873 E176.39054
G1 X43.294 Y191.533 E176.41154
G1 X42.809 Y191.127 E176.43257
G1 X42.379 Y190.664 E176.45359
G1 X42.01 Y190.15 E176.47463
G1 X41.71 Y189.594 E176.49565
G1 X41.482 Y189.005 E176.51665
G1 X41.33 Y188.391 E176.53769
G1 X41.25 Y187.5 E176.56745
G1 X41.25 Y22.5 E182.05537
G1 X41.29 Y21.869 E182.0764
G1 X41.409 Y21.248 E182.09743
G1 X41.606 Y20.648 E182.11843
G1 X41.877 Y20.076 E182.13948
G1 X42.217 Y19.544 E182.16048
G1 X42.623 Y19.059 E182.18152
G1 X43.086 Y18.629 E182.20254
G1 X43.6 Y18.26 E182.22358
G1 X44.156 Y17.96 E182.24459
G1 X44.745 Y17.732 E182.2656
G1 X45.359 Y17.58 E182.28664
G1 X46.25 Y17.5 E182.31639
G0 F3600 X46.25 Y17.9
G1 F1800 X203.75 Y17.9 E187.55486
G1 X204.355 Y17.94 E187.57503
G1 X204.949 Y18.059 E187.59518
G1 X205.523 Y18.255 E187.61535
G1 X206.066 Y18.526 E187.63554
G1 X206.569 Y18.865 E187.65571
G1 X207.022 Y19.267 E187.67586
G1 X207.419 Y19.725 E187.69602
G1 X207.752 Y20.232 E187.71619
G1 X208.016 Y20.778 E187.73636
G1 X208.205 Y21.354 E187.75653
G1 X208.317 Y21.95 E187.7767
G1 X208.35 Y22.5 E187.79502
G1 X208.35 Y187.5 E193.28294
G1 X208.31 Y188.105 E193.30311
G1 X208.191 Y188.699 E193.32326
G1 X207.995 Y189.273 E193.34343
G1 X207.724 Y189.816 E193.36362
G1 X207.385 Y190.319 E193.38379
G1 X206.983 Y190.772 E193.40394
G1 X206.525 Y191.169 E193.4241
G1 X206.018 Y191.502 E193.44427
