;FLAVOR:Marlin
;TIME:25037
;Filament used: 67.7901m
;Layer height: 0.3
;MINX:31.8
;MINY:11.8
;MINZ:0.2
;MAXX:218.2
;MAXY:198.2
;MAXZ:7.4
;Generated with Cura_SteamEngine 99.10.0-Arachne_engine_beta_2
M82 ;absolute extrusion mode
G21 ; set units to millimeters
G90 ; use absolute positioning
M82 ; absolute extrusion mode
M104 S205 ; set extruder temp
M140 S60 ; set bed temp
M190 S60 ; wait for bed temp
M109 S205 ; wait for extruder temp
G28 W ; home all without mesh bed level
G80 ; mesh bed leveling
G92 E0.0 ; reset extruder distance position
G1 Y-3.0 F1000.0 ; go outside print area
G1 X60.0 E9.0 F1000.0 ; intro line
G1 X100.0 E21.5 F1000.0 ; intro line
G92 E0.0 ; reset extruder distance position
G92 E0
G92 E0
G1 F2100 E-0.8
;LAYER_COUNT:25
;LAYER:0
M107
G0 F3600 X31.982 Y13.973 Z0.2
G0 X35.24 Y11.801
;TYPE:SKIRT
G1 F2100 E0
G1 F3300 X214.241 Y11.8 E5.9536
G1 X214.939 Y11.81 E5.97682
G1 X215.442 Y11.857 E5.99362
G1 X215.932 Y11.983 E6.01045
G1 X216.396 Y12.185 E6.02728
G1 X216.822 Y12.457 E6.04409
G1 X217.2 Y12.792 E6.06089
G1 X217.52 Y13.183 E6.07769
G1 X217.775 Y13.62 E6.09452
G1 X217.958 Y14.091 E6.11133
G1 X218.065 Y14.585 E6.12814
G1 X218.101 Y15.241 E6.14999
G1 X218.2 Y194.278 E12.10479
G1 X218.191 Y195.028 E12.12973
G1 X218.145 Y195.532 E12.14657
G1 X218.02 Y196.022 E12.16338
G1 X217.82 Y196.486 E12.18019
G1 X217.549 Y196.913 E12.19701
G1 X217.214 Y197.292 E12.21383
G1 X216.824 Y197.613 E12.23063
G1 X216.388 Y197.869 E12.24745
G1 X215.917 Y198.053 E12.26427
G1 X215.423 Y198.161 E12.28109
G1 X214.774 Y198.198 E12.30271
G1 X35.666 Y198.2 E18.25987
G1 X34.968 Y198.191 E18.28308
G1 X34.464 Y198.144 E18.29992
G1 X33.974 Y198.019 E18.31674
G1 X33.51 Y197.818 E18.33356
G1 X33.084 Y197.547 E18.35035
G1 X32.705 Y197.212 E18.36717
G1 X32.384 Y196.821 E18.384
G1 X32.129 Y196.385 E18.4008
G1 X31.945 Y195.914 E18.41762
G1 X31.838 Y195.42 E18.43443
G1 X31.801 Y194.744 E18.45695
G1 X31.8 Y15.631 E24.41427
G1 X31.809 Y14.966 E24.43639
G1 X31.856 Y14.462 E24.45322
G1 X31.982 Y13.973 E24.47002
G1 X32.183 Y13.509 E24.48684
G1 X32.454 Y13.082 E24.50366
G1 X32.789 Y12.704 E24.52046
G1 X33.18 Y12.383 E24.53728
G1 X33.617 Y12.128 E24.55411
G1 X34.088 Y11.944 E24.57093
G1 X34.582 Y11.838 E24.58774
G1 X35.24 Y11.801 E24.60966
G1 F2100 E23.80966
;MESH:FRONT PANEL LOGO.stl
G0 F3600 X35.424 Y14.335
G0 X35.424 Y15.424
G0 X39.18 Y18.001
;TYPE:WALL-INNER
G1 F2100 E24.60966
G1 F3300 X39.085 Y18.068 E24.61352
G1 X38.698 Y18.396 E24.6304
G1 X38.377 Y18.721 E24.64559
G1 X38.049 Y19.112 E24.66256
G1 X38.001 Y19.182 E24.66539
G0 F3600 X38.608 Y23.197
G0 X38.787 Y23.859
G0 X39.079 Y24.485
G0 X39.477 Y25.049
G0 X39.966 Y25.534
G0 X40.532 Y25.929
G0 X41.158 Y26.218
G0 X41.821 Y26.394
G0 X42.507 Y26.455
G0 X43.985 Y26.221
G0 X43.982 Y26.212
G1 F3300 X43.328 Y26.411 E24.68812
G1 X42.632 Y26.495 E24.71144
G1 X41.929 Y26.455 E24.73486
G1 X41.256 Y26.297 E24.75785
G1 X40.623 Y26.03 E24.7807
G1 X40.028 Y25.64 E24.80436
G1 X39.524 Y25.167 E24.82735
G1 X39.108 Y24.617 E24.85029
G1 X38.787 Y23.981 E24.87398
G1 F3308.3 X38.59 Y23.328 E24.89661
G1 X38.505 Y22.635 E24.91978
G1 F3300 X38.545 Y21.925 E24.94343
G1 X38.704 Y21.252 E24.96643
G1 X38.971 Y20.624 E24.98913
G1 X39.358 Y20.031 E25.01268
G1 X39.833 Y19.524 E25.03579
G1 X40.383 Y19.108 E25.05872
G1 X41.017 Y18.788 E25.08234
G1 F3308.3 X41.672 Y18.59 E25.10505
G1 X42.367 Y18.505 E25.12827
G1 F3300 X43.071 Y18.545 E25.15173
G1 X43.745 Y18.702 E25.17475
G1 X44.378 Y18.971 E25.19762
G1 X44.969 Y19.358 E25.22112
G1 X45.476 Y19.833 E25.24422
G1 X45.892 Y20.383 E25.26716
G1 X46.211 Y21.015 E25.29071
G1 X46.411 Y21.67 E25.31349
G1 X46.495 Y22.368 E25.33687
G1 X46.457 Y23.068 E25.36019
G1 X46.296 Y23.747 E25.3834
G1 X46.029 Y24.376 E25.40612
G1 X45.642 Y24.969 E25.42967
G1 X45.254 Y25.387 E25.44864
G1 X44.988 Y25.628 E25.46058
G1 X44.572 Y25.923 E25.47754
G1 X43.982 Y26.212 E25.49939
G0 F3600 X43.223 Y26.025
G1 F3300 X42.596 Y26.096 E25.52038
G1 X41.964 Y26.057 E25.54144
G1 X41.359 Y25.911 E25.56214
G1 X40.79 Y25.666 E25.58275
G1 X40.259 Y25.313 E25.60396
G1 X39.806 Y24.883 E25.62473
G1 X39.434 Y24.385 E25.6454
G1 X39.151 Y23.813 E25.66663
G1 F3308.3 X38.976 Y23.223 E25.68705
G1 X38.904 Y22.599 E25.70789
G1 F3300 X38.943 Y21.96 E25.72918
G1 X39.09 Y21.356 E25.74985
G1 X39.335 Y20.791 E25.77034
G1 X39.686 Y20.261 E25.79148
G1 X40.117 Y19.806 E25.81233
G1 X40.615 Y19.434 E25.833
G1 X41.185 Y19.151 E25.85417
G1 F3308.3 X41.777 Y18.976 E25.87465
G1 X42.403 Y18.903 E25.89556
G1 F3300 X43.036 Y18.943 E25.91665
G1 X43.641 Y19.089 E25.93735
G1 X44.21 Y19.335 E25.95797
G1 X44.739 Y19.686 E25.97909
G1 X45.194 Y20.117 E25.99993
G1 X45.566 Y20.615 E26.02061
G1 X45.848 Y21.183 E26.0417
G1 X46.025 Y21.776 E26.06228
G1 X46.097 Y22.403 E26.08327
G1 X46.058 Y23.034 E26.1043
G1 X45.91 Y23.643 E26.12514
G1 X45.665 Y24.209 E26.14566
G1 X45.314 Y24.739 E26.1668
G1 X44.97 Y25.105 E26.18351
G1 X44.387 Y25.565 E26.20821
G1 X43.814 Y25.849 E26.22948
G1 X43.223 Y26.025 E26.24999
G0 F3600 X43.433 Y26.797
G1 F3300 X42.668 Y26.893 E26.27563
G1 X41.894 Y26.854 E26.30141
G1 X41.153 Y26.684 E26.32669
G1 X40.457 Y26.393 E26.35178
G1 X39.798 Y25.967 E26.37788
G1 X39.242 Y25.451 E26.40311
G1 X38.783 Y24.849 E26.42829
G1 X38.424 Y24.149 E26.45446
G1 F3308.3 X38.204 Y23.434 E26.47927
G1 X38.107 Y22.671 E26.50479
G1 F3300 X38.146 Y21.891 E26.53077
G1 X38.318 Y21.147 E26.55617
G1 X38.607 Y20.457 E26.58105
G1 X39.031 Y19.801 E26.60703
G1 X39.4 Y19.394 E26.6253
G1 X39.782 Y19.045 E26.64251
G1 X40.439 Y18.615 E26.66862
G1 X41.133 Y18.321 E26.69369
G1 X41.729 Y18.167 E26.71417
G1 X42.331 Y18.106 E26.73429
G1 X43.106 Y18.146 E26.7601
G1 X43.848 Y18.316 E26.78542
G1 X44.545 Y18.608 E26.81056
G1 X45.199 Y19.031 E26.83646
G1 X45.758 Y19.549 E26.86181
G1 X46.218 Y20.151 E26.88701
G1 X46.574 Y20.847 E26.91301
G1 X46.796 Y21.564 E26.93797
G1 X46.894 Y22.332 E26.96372
G1 X46.855 Y23.102 E26.98937
G1 X46.683 Y23.851 E27.01493
G1 X46.393 Y24.543 E27.03988
G1 X45.969 Y25.198 E27.06584
G1 X45.537 Y25.669 E27.08709
G1 X45.22 Y25.953 E27.10125
G1 X44.791 Y26.258 E27.11876
G1 X44.15 Y26.575 E27.14254
G1 X43.433 Y26.797 E27.1675
G0 F3600 X43.538 Y27.183
G1 F3300 X42.704 Y27.292 E27.19548
G1 X41.858 Y27.252 E27.22365
G1 X41.049 Y27.07 E27.25123
G1 X40.29 Y26.757 E27.27854
G1 X39.567 Y26.294 E27.30709
G1 X38.96 Y25.734 E27.33456
G1 X38.457 Y25.081 E27.36197
G1 X38.061 Y24.317 E27.3906
G1 F3157.9 X37.8 Y23.544 E27.41895
G1 F2851 X37.729 Y23.348 E27.42698
G1 F2796.6 X37.682 Y22.71 E27.45209
G1 F2844.8 X37.711 Y21.853 E27.48517
G1 F3020.6 X37.932 Y21.043 E27.51568
G1 F3300 X38.244 Y20.29 E27.54279
G1 X38.704 Y19.572 E27.57115
G1 X39.116 Y19.112 E27.59169
G1 X39.549 Y18.719 E27.61114
G1 X40.271 Y18.252 E27.63974
G1 X41.029 Y17.935 E27.66706
G1 F2966.3 X41.652 Y17.729 E27.69134
G1 F2796.6 X42.293 Y17.681 E27.71657
G1 F2844.8 X43.145 Y17.711 E27.74946
G1 F3020.6 X43.951 Y17.929 E27.7798
G1 F3300 X44.712 Y18.245 E27.80721
G1 X45.428 Y18.704 E27.8355
G1 X46.04 Y19.266 E27.86313
G1 X46.543 Y19.919 E27.89055
G1 X46.937 Y20.679 E27.91902
G1 X47.182 Y21.458 E27.94618
G1 X47.292 Y22.297 E27.97432
G1 X47.254 Y23.136 E28.00226
G1 X47.069 Y23.955 E28.03018
G1 X46.756 Y24.71 E28.05737
G1 X46.558 Y25.056 E28.07063
G1 X46.254 Y25.487 E28.08817
G1 X45.821 Y25.951 E28.10928
G1 X45.453 Y26.278 E28.12565
G1 X45.01 Y26.593 E28.14373
G1 X44.318 Y26.939 E28.16946
G1 X43.538 Y27.183 E28.19665
G0 F3600 X43.328 Y26.419
G0 X43.118 Y25.639
G1 F3300 X42.56 Y25.698 E28.21531
G1 X41.999 Y25.658 E28.23402
G1 X41.462 Y25.524 E28.25242
G1 X40.956 Y25.302 E28.2708
G1 X40.49 Y24.986 E28.28953
G1 X40.088 Y24.599 E28.30809
G1 X39.76 Y24.153 E28.3265
G1 X39.514 Y23.645 E28.34528
G1 F3308.3 X39.362 Y23.118 E28.36347
G1 X39.302 Y22.563 E28.38199
G1 F3300 X39.342 Y21.995 E28.40093
G1 X39.476 Y21.461 E28.41924
G1 X39.698 Y20.957 E28.43756
G1 X40.013 Y20.491 E28.45627
G1 X40.401 Y20.088 E28.47487
G1 X40.847 Y19.76 E28.49329
G1 X41.353 Y19.514 E28.512
G1 F3308.3 X41.882 Y19.362 E28.53026
G1 X42.439 Y19.302 E28.54885
G1 F3300 X43.001 Y19.342 E28.56759
G1 X43.538 Y19.476 E28.586
G1 X44.043 Y19.698 E28.60434
G1 X44.509 Y20.013 E28.62305
G1 X44.912 Y20.401 E28.64166
G1 X45.24 Y20.847 E28.66007
G1 X45.485 Y21.351 E28.67871
G1 X45.639 Y21.882 E28.6971
G1 X45.698 Y22.438 E28.7157
G1 X45.659 Y23 E28.73443
G1 X45.524 Y23.539 E28.75291
G1 X45.302 Y24.043 E28.77123
G1 X44.987 Y24.509 E28.78994
G1 X44.599 Y24.911 E28.80852
G1 X44.154 Y25.24 E28.82693
G1 X43.646 Y25.486 E28.8457
G1 X43.118 Y25.639 E28.86399
G0 F3600 X43.328 Y26.419
G0 X42.507 Y26.455
G0 X38.001 Y25.82
G1 F3300 X38.068 Y25.915 E28.86785
G1 X38.396 Y26.302 E28.88473
G1 X38.721 Y26.623 E28.89992
G1 X39.106 Y26.948 E28.91668
G1 X39.476 Y27.208 E28.93172
G1 X39.958 Y27.485 E28.95021
G1 X40.368 Y27.673 E28.96521
G1 X40.843 Y27.844 E28.982
G1 X41.278 Y27.959 E28.99697
G1 X41.788 Y28.049 E29.01419
G1 X42.522 Y28.1 E29.03866
G1 X43.23 Y28.047 E29.06228
G1 X43.748 Y27.955 E29.07977
G1 X44.511 Y27.726 E29.10627
G1 X45.064 Y27.475 E29.12647
G1 X45.55 Y27.192 E29.14517
G1 X45.996 Y26.871 E29.16345
G1 X46.388 Y26.515 E29.18106
G1 X46.893 Y25.968 E29.20582
G1 X47.212 Y25.516 E29.22422
G1 X47.483 Y25.043 E29.24236
G1 X47.789 Y24.336 E29.26798
G1 X47.958 Y23.729 E29.28894
G1 X48.051 Y23.204 E29.30667
G1 X48.1 Y22.499 E29.33017
G1 X48.049 Y21.775 E29.35431
G1 X47.954 Y21.246 E29.37219
G1 X47.834 Y20.809 E29.38726
G1 X47.474 Y19.934 E29.41873
G1 X47.195 Y19.454 E29.4372
G1 X46.932 Y19.085 E29.45227
G1 X46.604 Y18.698 E29.46914
G1 X46.279 Y18.377 E29.48434
G1 X45.888 Y18.049 E29.50131
G1 X45.818 Y18.001 E29.50413
G0 F3600 X44.213 Y17.601
G1 F3300 X44.879 Y17.881 E29.52816
G1 X45.658 Y18.376 E29.55886
G1 X46.322 Y18.982 E29.58876
G1 X46.869 Y19.687 E29.61844
G1 X47.3 Y20.511 E29.64937
G1 X47.568 Y21.352 E29.67873
G1 X47.691 Y22.262 E29.70927
G1 X47.652 Y23.17 E29.7395
G1 X47.572 Y23.625 E29.75486
G1 X47.41 Y24.209 E29.77502
G1 X47.12 Y24.876 E29.79921
G1 X46.885 Y25.286 E29.81493
G1 X46.573 Y25.727 E29.83289
G1 X46.105 Y26.233 E29.85582
G1 X45.685 Y26.604 E29.87446
G1 X45.228 Y26.928 E29.89309
G1 X44.486 Y27.302 E29.92073
G1 X43.643 Y27.569 E29.95014
G1 X42.74 Y27.69 E29.98044
G1 X42.277 Y27.691 E29.99584
G1 X41.381 Y27.573 E30.0259
G1 X40.535 Y27.309 E30.05537
G1 X39.707 Y26.882 E30.08636
G1 X39.003 Y26.34 E30.11591
G1 X38.393 Y25.683 E30.14573
G1 X37.888 Y24.896 E30.17683
G1 X37.601 Y24.218 E30.20132
G0 F3600 X37.601 Y20.786
G1 F3300 X37.88 Y20.124 E30.22521
G1 X38.376 Y19.342 E30.25601
G1 X38.833 Y18.83 E30.27884
G1 X39.317 Y18.393 E30.30053
G1 X40.102 Y17.889 E30.33155
G1 X40.784 Y17.601 E30.35618
G0 F3600 X44.468 Y19.071
G0 X45.034 Y19.466
G0 X45.523 Y19.951
G0 X45.921 Y20.515
G0 X46.212 Y21.14
G0 X46.394 Y21.804
G0 X46.455 Y22.492
G0 X46.395 Y23.179
G0 X46.217 Y23.843
G0 X45.929 Y24.468
G0 X45.534 Y25.034
G0 X44.399 Y26.028
G0 X43.889 Y24.933
;TYPE:WALL-OUTER
G1 F3300 X43.447 Y25.135 E30.37234
G1 X42.978 Y25.259 E30.38847
G1 X42.488 Y25.3 E30.40483
G1 X42 Y25.254 E30.42113
G1 X41.533 Y25.126 E30.43724
G1 X41.09 Y24.92 E30.45349
G1 X40.695 Y24.637 E30.46965
G1 X40.349 Y24.29 E30.48595
G1 X40.067 Y23.888 E30.50228
G1 X39.865 Y23.446 E30.51844
G1 X39.741 Y22.979 E30.53451
G1 X39.7 Y22.527 E30.54961
G1 X39.746 Y21.994 E30.5674
G1 X39.874 Y21.534 E30.58328
G1 X40.08 Y21.093 E30.59947
G1 X40.363 Y20.695 E30.61571
G1 X40.71 Y20.349 E30.63201
G1 X41.111 Y20.067 E30.64832
G1 X41.553 Y19.865 E30.66448
G1 X42.021 Y19.741 E30.68058
G1 X42.512 Y19.7 E30.69697
G1 X43 Y19.746 E30.71327
G1 X43.467 Y19.874 E30.72938
G1 X43.907 Y20.08 E30.74554
G1 X44.305 Y20.363 E30.76178
G1 X44.651 Y20.71 E30.77808
G1 X44.933 Y21.111 E30.79439
G1 X45.133 Y21.551 E30.81046
G1 X45.26 Y22.023 E30.82672
G1 X45.3 Y22.51 E30.84297
G1 X45.255 Y23.001 E30.85937
G1 X45.126 Y23.466 E30.87542
G1 X44.92 Y23.907 E30.89161
G1 X44.641 Y24.302 E30.90769
G1 X44.295 Y24.647 E30.92394
G1 X43.889 Y24.933 E30.94046
G0 F3600 X43.707 Y25.016
G0 X44.218 Y26.112
G0 X38.801 Y182.288
;TYPE:WALL-INNER
G1 F3300 X38.99 Y182.153 E30.94819
G1 X39.598 Y181.8 E30.97157
G1 X40.008 Y181.61 E30.9866
G1 X40.608 Y181.391 E31.00784
G1 X41.042 Y181.273 E31.0228
G1 X41.698 Y181.156 E31.04497
G1 X42.506 Y181.1 E31.0719
G1 X43.282 Y181.154 E31.09778
G1 X43.928 Y181.268 E31.11959
G1 X44.586 Y181.45 E31.1423
G1 X45.38 Y181.791 E31.17104
G1 X45.849 Y182.048 E31.18883
G1 X46.347 Y182.394 E31.209
G1 X46.777 Y182.745 E31.22746
G1 X47.167 Y183.131 E31.24571
G1 X47.509 Y183.521 E31.26296
G1 X47.846 Y183.99 E31.28217
G1 X48.112 Y184.421 E31.29902
G1 X48.389 Y185.006 E31.32055
G1 X48.605 Y185.595 E31.34141
G1 X48.797 Y186.347 E31.36723
G1 X48.886 Y187.156 E31.3943
G1 X48.887 Y187.817 E31.41628
G1 X48.848 Y188.272 E31.43147
G1 X48.731 Y188.934 E31.45383
G1 X48.614 Y189.37 E31.46884
G1 X48.399 Y189.966 E31.48992
G1 X48.211 Y190.376 E31.50492
G1 X47.867 Y190.975 E31.52789
G1 X47.709 Y191.2 E31.53704
G0 F3600 X46.868 Y191.599
G1 F3300 X46.907 Y191.561 E31.53885
G1 X47.279 Y191.117 E31.55811
G1 X47.54 Y190.746 E31.5732
G1 X47.848 Y190.21 E31.59376
G1 X48.035 Y189.8 E31.60875
G1 X48.228 Y189.266 E31.62764
G1 X48.345 Y188.83 E31.64265
G1 X48.449 Y188.238 E31.66264
G1 X48.5 Y187.474 E31.68811
G1 X48.447 Y186.74 E31.71259
G1 X48.339 Y186.137 E31.73296
G1 X48.094 Y185.333 E31.76092
G1 X47.837 Y184.766 E31.78162
G1 X47.52 Y184.222 E31.80256
G1 X47.191 Y183.764 E31.82132
G1 X46.797 Y183.328 E31.84086
G1 X46.208 Y182.787 E31.86746
G1 X45.745 Y182.46 E31.88632
G1 X45.212 Y182.154 E31.90676
G1 X44.459 Y181.83 E31.93402
G1 X43.825 Y181.654 E31.95591
G1 X43.247 Y181.552 E31.97543
G1 X42.504 Y181.5 E32.0002
G1 X41.734 Y181.554 E32.02587
G1 X41.147 Y181.659 E32.04571
G1 X40.713 Y181.777 E32.06067
G1 X40.176 Y181.973 E32.07968
G1 X39.766 Y182.163 E32.09471
G1 X39.222 Y182.479 E32.11563
G1 X38.853 Y182.742 E32.13071
G1 X38.414 Y183.114 E32.14984
G1 X38.401 Y183.128 E32.15048
G0 F3600 X38.608 Y188.196
G0 X38.787 Y188.858
G0 X39.079 Y189.485
G0 X39.477 Y190.049
G0 X39.966 Y190.534
G0 X40.424 Y190.853
G0 X43.348 Y192.271
G1 F2796.6 X42.707 Y192.319 E32.17571
G1 F2844.8 X41.855 Y192.289 E32.2086
G1 F3020.6 X41.049 Y192.071 E32.23894
G1 F3300 X40.291 Y191.758 E32.26622
G1 X39.567 Y191.294 E32.29482
G1 X39.112 Y190.884 E32.31519
G1 X38.719 Y190.451 E32.33464
G1 X38.252 Y189.728 E32.36326
G1 X37.935 Y188.97 E32.39059
G1 F2966.3 X37.729 Y188.347 E32.41487
G1 F2796.6 X37.682 Y187.71 E32.43994
G1 F2844.8 X37.711 Y186.853 E32.47302
G1 F3020.6 X37.932 Y186.042 E32.50357
G1 F3300 X38.244 Y185.29 E32.53065
G1 X38.704 Y184.572 E32.55901
G1 X39.266 Y183.96 E32.58664
G1 X39.919 Y183.457 E32.61406
G1 X40.681 Y183.062 E32.6426
G1 X41.462 Y182.817 E32.66983
G1 X42.296 Y182.708 E32.6978
G1 X43.142 Y182.748 E32.72597
G1 X43.95 Y182.93 E32.75352
G1 X44.711 Y183.244 E32.7809
G1 X45.428 Y183.704 E32.80923
G1 X45.951 Y184.179 E32.83273
G1 X46.28 Y184.55 E32.84923
G1 X46.594 Y184.993 E32.86729
G1 X46.937 Y185.679 E32.8928
G1 X47.182 Y186.456 E32.91989
G1 X47.292 Y187.298 E32.94814
G1 X47.254 Y188.135 E32.976
G1 X47.069 Y188.954 E33.00393
G1 X46.757 Y189.709 E33.0311
G1 X46.297 Y190.428 E33.05949
G1 X45.734 Y191.04 E33.08715
G1 X45.085 Y191.542 E33.11444
G1 X44.318 Y191.939 E33.14316
G1 F3150.4 X43.543 Y192.201 E33.17167
G1 F2844.8 X43.348 Y192.271 E33.17966
G0 F3600 X44.217 Y192.399
G1 F3300 X44.486 Y192.302 E33.18917
G1 X45.318 Y191.867 E33.2204
G1 X46.018 Y191.322 E33.2499
G1 X46.624 Y190.658 E33.2798
G1 X47.12 Y189.876 E33.3106
G1 X47.455 Y189.058 E33.34
G1 X47.652 Y188.17 E33.37026
G1 X47.7 Y187.478 E33.39333
G1 X47.65 Y186.81 E33.41561
G1 X47.567 Y186.35 E33.43115
G1 X47.3 Y185.511 E33.46044
G1 X46.929 Y184.775 E33.48785
G1 X46.606 Y184.317 E33.50649
G1 X46.233 Y183.895 E33.52522
G1 X45.727 Y183.427 E33.54815
G1 X45.286 Y183.115 E33.56612
G1 X44.878 Y182.881 E33.58176
G1 X44.054 Y182.543 E33.61138
G1 X43.41 Y182.381 E33.63347
G1 X42.723 Y182.309 E33.65644
G1 X42.26 Y182.31 E33.67184
G1 X41.357 Y182.431 E33.70215
G1 X40.512 Y182.699 E33.73163
G1 X39.687 Y183.131 E33.7626
G1 X38.982 Y183.678 E33.79228
G1 X38.376 Y184.342 E33.82218
G1 X37.88 Y185.124 E33.85298
