;FLAVOR:Marlin
;TIME:1932
;Filament used: 2.05735m
;Layer height: 0.2
;MINX:91.945
;MINY:71.942
;MINZ:0.2
;MAXX:158.049
;MAXY:138.051
;MAXZ:12.4
;Generated with Cura_SteamEngine 4.12.1
M82 ;absolute extrusion mode
G21 ; set units to millimeters
G90 ; use absolute positioning
M82 ; absolute extrusion mode
M104 S200 ; set extruder temp
M140 S60 ; set bed temp
M190 S60 ; wait for bed temp
M109 S200 ; wait for extruder temp
G28 W ; home all without mesh bed level
G80 ; mesh bed leveling
G92 E0.0 ; reset extruder distance position
G1 Y-3.0 F1000.0 ; go outside print area
G1 X60.0 E9.0 F1000.0 ; intro line
G1 X100.0 E21.5 F1000.0 ; intro line
G92 E0.0 ; reset extruder distance position
G92 E0
G92 E0
G1 F2100 E-0.8
;LAYER_COUNT:62
;LAYER:0
M107
G0 F3600 X99.451 Y84.03 Z0.2
;TYPE:SKIRT
G1 F2100 E0
G1 F1800 X100.113 Y83.249 E0.03405
G1 X100.194 Y83.157 E0.03813
G1 X100.857 Y82.427 E0.07093
G1 X100.94 Y82.338 E0.07498
G1 X101.659 Y81.598 E0.10929
G1 X102.441 Y80.843 E0.14545
G1 X102.536 Y80.755 E0.14975
G1 X103.344 Y80.031 E0.18584
G1 X103.437 Y79.95 E0.18994
G1 X104.186 Y79.324 E0.22241
G1 X104.28 Y79.248 E0.22643
G1 X105.049 Y78.648 E0.25887
G1 X105.148 Y78.574 E0.26298
G1 X106.086 Y77.894 E0.30151
G1 X106.931 Y77.323 E0.33543
G1 X107.036 Y77.255 E0.33959
G1 X107.874 Y76.73 E0.37248
G1 X107.98 Y76.666 E0.3766
G1 X108.846 Y76.164 E0.40989
G1 X109.884 Y75.607 E0.44908
G1 X109.995 Y75.55 E0.45323
G1 X110.844 Y75.133 E0.48469
G1 X110.954 Y75.081 E0.48873
G1 X111.901 Y74.655 E0.52327
G1 X112.012 Y74.607 E0.52729
G1 X112.985 Y74.208 E0.56227
G1 X113.103 Y74.162 E0.56648
G1 X113.98 Y73.838 E0.59758
G1 X114.099 Y73.796 E0.60178
G1 X115.138 Y73.453 E0.63817
G1 X116.147 Y73.155 E0.67316
G1 X116.268 Y73.122 E0.67733
G1 X117.232 Y72.875 E0.71043
G1 X117.349 Y72.847 E0.71443
G1 X118.662 Y72.558 E0.75915
G1 X119.309 Y72.435 E0.78105
G1 X119.45 Y72.411 E0.78581
G1 X120.536 Y72.249 E0.82233
G1 X120.657 Y72.233 E0.82639
G1 X121.748 Y72.108 E0.86291
G1 X121.871 Y72.096 E0.86702
G1 X122.859 Y72.017 E0.89999
G1 X124.211 Y71.954 E0.94501
G1 X124.32 Y71.95 E0.94863
G1 X124.847 Y71.942 E0.96616
G1 X125.127 Y71.942 E0.97548
G1 X126.129 Y71.96 E1.00881
G1 X126.321 Y71.967 E1.0152
G1 X127.184 Y72.014 E1.04394
G1 X127.319 Y72.024 E1.04845
G1 X128.684 Y72.15 E1.09404
G1 X129.531 Y72.253 E1.12242
G1 X130.408 Y72.387 E1.15193
G1 X130.929 Y72.477 E1.16951
G1 X131.589 Y72.604 E1.19187
G1 X131.951 Y72.681 E1.20418
G1 X132.838 Y72.884 E1.23444
G1 X133.165 Y72.965 E1.24564
G1 X133.747 Y73.119 E1.26567
G1 X134.224 Y73.255 E1.28217
G1 X134.914 Y73.463 E1.30614
G1 X135.25 Y73.571 E1.31787
G1 X136.015 Y73.831 E1.34475
G1 X136.511 Y74.01 E1.36229
G1 X136.831 Y74.13 E1.37365
G1 X137.479 Y74.387 E1.39684
G1 X138.058 Y74.63 E1.41772
G1 X138.516 Y74.831 E1.43436
G1 X138.863 Y74.989 E1.44704
G1 X139.589 Y75.335 E1.47379
G1 X140.079 Y75.581 E1.49203
G1 X140.591 Y75.848 E1.51123
G1 X140.813 Y75.968 E1.51962
G1 X141.63 Y76.428 E1.55081
G1 X141.934 Y76.607 E1.56254
G1 X142.443 Y76.917 E1.58236
G1 X143.058 Y77.309 E1.60662
G1 X143.612 Y77.678 E1.62876
G1 X144.446 Y78.267 E1.66272
G1 X144.786 Y78.517 E1.67676
G1 X145.376 Y78.968 E1.70146
G1 X146.048 Y79.514 E1.73025
G1 X146.131 Y79.582 E1.73382
G1 X147.011 Y80.344 E1.77254
G1 X147.868 Y81.137 E1.81137
G1 X147.963 Y81.228 E1.81575
G1 X148.692 Y81.955 E1.84999
G1 X148.769 Y82.034 E1.85366
G1 X149.568 Y82.881 E1.89239
G1 X149.666 Y82.989 E1.89724
G1 X150.239 Y83.648 E1.92629
G1 X150.315 Y83.738 E1.9302
G1 X150.838 Y84.381 E1.95777
G1 X151.636 Y85.424 E2.00145
G1 X152.061 Y86.01 E2.02553
G1 X152.199 Y86.209 E2.03358
G1 X152.614 Y86.824 E2.05826
G1 X152.849 Y87.187 E2.07264
G1 X153.228 Y87.794 E2.09644
G1 X153.445 Y88.154 E2.11042
G1 X153.836 Y88.831 E2.13643
G1 X153.966 Y89.067 E2.14539
G1 X154.387 Y89.857 E2.17516
G1 X154.519 Y90.116 E2.18483
G1 X154.827 Y90.745 E2.20812
G1 X155.08 Y91.284 E2.22793
G1 X155.242 Y91.648 E2.24118
G1 X155.497 Y92.241 E2.26265
G1 X155.71 Y92.76 E2.28131
G1 X155.903 Y93.258 E2.29907
G1 X156.062 Y93.682 E2.31413
G1 X156.322 Y94.423 E2.34025
G1 X156.395 Y94.643 E2.34796
G1 X156.671 Y95.524 E2.37867
G1 X156.781 Y95.9 E2.3917
G1 X156.985 Y96.642 E2.41729
G1 X157.014 Y96.755 E2.42117
G1 X157.21 Y97.577 E2.44928
G1 X157.486 Y98.907 E2.49446
G1 X157.689 Y100.072 E2.53379
G1 X157.711 Y100.216 E2.53863
G1 X157.791 Y100.818 E2.55883
G1 X157.925 Y102.11 E2.60204
G1 X157.936 Y102.231 E2.60608
G1 X158.004 Y103.22 E2.63905
G1 X158.01 Y103.345 E2.64321
G1 X158.046 Y104.408 E2.67859
G1 X158.048 Y104.527 E2.68255
G1 X158.049 Y105.573 E2.71734
G1 X158.026 Y106.39 E2.74452
G1 X158.02 Y106.524 E2.74898
G1 X157.937 Y107.761 E2.79022
G1 X157.926 Y107.889 E2.79449
G1 X157.823 Y108.889 E2.82793
G1 X157.808 Y109.011 E2.83201
G1 X157.65 Y110.149 E2.87023
G1 X157.467 Y111.209 E2.906
G1 X157.3 Y112.027 E2.93377
G1 X157.271 Y112.156 E2.93817
G1 X156.978 Y113.357 E2.97929
G1 X156.946 Y113.48 E2.98351
G1 X156.672 Y114.453 E3.01713
G1 X156.637 Y114.57 E3.0212
G1 X156.343 Y115.493 E3.05342
G1 X156.304 Y115.61 E3.05752
G1 X155.956 Y116.585 E3.09195
G1 X155.912 Y116.701 E3.09608
G1 X155.54 Y117.64 E3.12967
G1 X155.492 Y117.754 E3.13378
G1 X155.048 Y118.768 E3.1706
G1 X154.592 Y119.726 E3.20589
G1 X154.534 Y119.842 E3.2102
G1 X154.095 Y120.685 E3.24181
G1 X154.037 Y120.792 E3.24586
G1 X153.527 Y121.695 E3.28036
G1 X153.462 Y121.806 E3.28463
G1 X152.956 Y122.632 E3.31685
G1 X152.316 Y123.608 E3.35567
G1 X152.245 Y123.712 E3.35986
G1 X151.673 Y124.519 E3.39276
G1 X151.601 Y124.617 E3.3968
G1 X150.977 Y125.437 E3.43107
G1 X150.9 Y125.535 E3.43522
G1 X150.266 Y126.311 E3.46855
G1 X150.185 Y126.406 E3.4727
G1 X149.523 Y127.161 E3.5061
G1 X149.44 Y127.253 E3.51022
G1 X148.743 Y127.995 E3.54408
G1 X148.657 Y128.083 E3.54817
G1 X147.96 Y128.776 E3.58086
G1 X147.874 Y128.859 E3.58484
G1 X147.117 Y129.563 E3.61922
G1 X147.02 Y129.65 E3.62355
G1 X146.249 Y130.317 E3.65746
G1 X146.158 Y130.393 E3.66141
G1 X145.367 Y131.033 E3.69525
G1 X145.265 Y131.112 E3.69954
G1 X144.489 Y131.695 E3.73182
G1 X144.393 Y131.765 E3.73577
G1 X143.541 Y132.362 E3.77037
G1 X143.439 Y132.431 E3.77447
G1 X142.622 Y132.963 E3.8069
G1 X142.518 Y133.028 E3.81098
G1 X141.638 Y133.559 E3.84516
G1 X141.53 Y133.622 E3.84932
G1 X140.643 Y134.116 E3.88309
G1 X140.536 Y134.173 E3.88712
G1 X139.652 Y134.627 E3.92017
G1 X139.539 Y134.683 E3.92437
G1 X138.595 Y135.127 E3.95906
G1 X138.482 Y135.178 E3.96319
G1 X137.577 Y135.566 E3.99594
G1 X136.539 Y135.973 E4.03302
G1 X136.417 Y136.018 E4.03735
G1 X135.424 Y136.365 E4.07233
G1 X135.309 Y136.403 E4.07636
G1 X134.403 Y136.686 E4.10793
G1 X134.285 Y136.721 E4.11202
G1 X133.22 Y137.014 E4.14876
G1 X133.098 Y137.045 E4.15295
G1 X132.082 Y137.285 E4.18767
G1 X131.083 Y137.488 E4.22158
G1 X130.961 Y137.511 E4.22571
G1 X129.952 Y137.68 E4.25973
G1 X129.828 Y137.698 E4.2639
G1 X128.683 Y137.849 E4.30231
G1 X127.9 Y137.93 E4.32849
G1 X127.758 Y137.942 E4.33323
G1 X126.599 Y138.014 E4.37186
G1 X126.477 Y138.02 E4.37592
G1 X125.411 Y138.05 E4.41139
G1 X125.287 Y138.051 E4.41551
G1 X124.068 Y138.042 E4.45606
G1 X123.248 Y138.012 E4.48335
G1 X122.962 Y137.996 E4.49288
G1 X122.366 Y137.954 E4.51275
G1 X121.949 Y137.918 E4.52667
G1 X121.145 Y137.833 E4.55356
G1 X120.808 Y137.792 E4.56485
G1 X120.046 Y137.685 E4.59045
G1 X119.912 Y137.664 E4.59496
G1 X118.403 Y137.392 E4.64596
G1 X117.783 Y137.261 E4.66703
G1 X117.452 Y137.186 E4.67832
G1 X116.652 Y136.987 E4.70574
G1 X116.369 Y136.912 E4.71548
G1 X115.554 Y136.68 E4.74366
G1 X114.729 Y136.423 E4.7724
G1 X114.13 Y136.221 E4.79343
G1 X113.514 Y135.999 E4.8152
G1 X112.937 Y135.779 E4.83574
G1 X112.771 Y135.713 E4.84168
G1 X111.879 Y135.344 E4.87379
G1 X111.598 Y135.221 E4.88399
G1 X110.997 Y134.946 E4.90598
G1 X110.389 Y134.654 E4.92841
G1 X109.869 Y134.392 E4.94778
G1 X109.613 Y134.26 E4.95736
G1 X108.966 Y133.91 E4.98182
G1 X108.346 Y133.558 E5.00553
G1 X107.669 Y133.152 E5.03179
G1 X107.035 Y132.75 E5.05676
G1 X106.731 Y132.552 E5.06883
G1 X106.011 Y132.061 E5.09781
G1 X105.679 Y131.825 E5.11136
G1 X105.123 Y131.415 E5.13434
G1 X104.8 Y131.168 E5.14786
G1 X104.333 Y130.797 E5.1677
G1 X103.439 Y130.05 E5.20645
G1 X103.345 Y129.968 E5.21059
G1 X102.442 Y129.157 E5.25096
G1 X101.719 Y128.461 E5.28434
G1 X100.765 Y127.481 E5.32983
G1 X100.673 Y127.383 E5.3343
G1 X100.158 Y126.811 E5.3599
G1 X99.975 Y126.601 E5.36917
G1 X99.521 Y126.061 E5.39263
G1 X98.667 Y124.985 E5.43832
G1 X98.103 Y124.221 E5.46991
G1 X97.711 Y123.66 E5.49267
G1 X97.416 Y123.222 E5.51023
G1 X97.073 Y122.692 E5.53123
G1 X96.833 Y122.306 E5.54635
G1 X96.499 Y121.751 E5.56789
G1 X96.257 Y121.332 E5.58398
G1 X95.948 Y120.775 E5.60517
G1 X95.661 Y120.237 E5.62545
G1 X95.463 Y119.848 E5.63997
G1 X95.173 Y119.256 E5.66189
G1 X95.014 Y118.918 E5.67432
G1 X94.669 Y118.149 E5.70235
G1 X94.558 Y117.891 E5.71169
G1 X94.246 Y117.129 E5.73908
G1 X94.153 Y116.887 E5.7477
G1 X93.857 Y116.089 E5.77601
G1 X93.734 Y115.736 E5.78844
G1 X93.443 Y114.851 E5.81943
G1 X93.188 Y113.979 E5.84965
G1 X92.856 Y112.717 E5.89305
G1 X92.823 Y112.581 E5.8977
G1 X92.658 Y111.83 E5.92328
G1 X92.409 Y110.531 E5.96727
G1 X92.385 Y110.39 E5.97203
G1 X92.281 Y109.701 E5.9952
G1 X92.127 Y108.429 E6.03782
G1 X92.114 Y108.308 E6.04187
G1 X92.033 Y107.369 E6.07321
G1 X92.025 Y107.244 E6.07738
G1 X91.969 Y106.149 E6.11385
G1 X91.965 Y106.029 E6.11784
G1 X91.945 Y104.851 E6.15703
G1 X91.955 Y104.095 E6.18217
G1 X92.003 Y103.024 E6.21783
G1 X92.012 Y102.883 E6.22253
G1 X92.116 Y101.669 E6.26306
G1 X92.252 Y100.521 E6.30151
G1 X92.269 Y100.395 E6.30573
G1 X92.415 Y99.458 E6.33727
G1 X92.436 Y99.337 E6.34136
G1 X92.639 Y98.274 E6.37735
G1 X92.664 Y98.154 E6.38143
G1 X92.874 Y97.226 E6.41308
G1 X92.904 Y97.104 E6.41726
G1 X93.199 Y95.99 E6.45558
G1 X93.497 Y94.995 E6.49013
G1 X93.839 Y93.979 E6.52579
G1 X93.879 Y93.865 E6.5298
G1 X94.261 Y92.849 E6.56591
G1 X94.308 Y92.73 E6.57016
G1 X94.668 Y91.867 E6.60126
G1 X94.717 Y91.756 E6.6053
G1 X95.161 Y90.785 E6.64081
G1 X95.214 Y90.675 E6.64487
G1 X95.654 Y89.793 E6.67765
G1 X95.71 Y89.685 E6.6817
G1 X96.176 Y88.825 E6.71423
G1 X96.239 Y88.714 E6.71848
G1 X96.787 Y87.783 E6.75441
G1 X96.849 Y87.681 E6.75838
G1 X97.426 Y86.774 E6.79413
G1 X98.006 Y85.925 E6.82833
G1 X98.079 Y85.822 E6.83253
G1 X98.678 Y85.008 E6.86614
G1 X99.372 Y84.127 E6.90345
G1 X99.451 Y84.03 E6.90761
G0 F3600 X99.685 Y84.375
G1 F1800 X100.418 Y83.508 E6.94537
G1 X100.49 Y83.426 E6.949
G1 X101.153 Y82.696 E6.9818
G1 X101.227 Y82.617 E6.9854
G1 X101.946 Y81.877 E7.01971
G1 X102.719 Y81.131 E7.05544
G1 X102.803 Y81.053 E7.05926
G1 X103.611 Y80.329 E7.09534
G1 X103.694 Y80.257 E7.099
G1 X104.443 Y79.631 E7.13146
G1 X104.527 Y79.563 E7.13506
G1 X105.383 Y78.897 E7.17113
G1 X106.221 Y78.288 E7.20559
G1 X107.155 Y77.655 E7.24311
G1 X107.248 Y77.594 E7.24681
G1 X108.086 Y77.069 E7.2797
G1 X109.046 Y76.511 E7.31663
G1 X109.142 Y76.457 E7.3203
G1 X110.073 Y75.959 E7.35541
G1 X110.171 Y75.909 E7.35907
G1 X111.02 Y75.492 E7.39053
G1 X111.118 Y75.446 E7.39413
G1 X112.164 Y74.977 E7.43226
G1 X113.137 Y74.578 E7.46724
G1 X113.242 Y74.537 E7.47099
G1 X114.119 Y74.213 E7.50208
G1 X114.225 Y74.176 E7.50582
G1 X115.264 Y73.833 E7.54221
G1 X116.26 Y73.539 E7.57675
G1 X116.368 Y73.509 E7.58048
G1 X117.435 Y73.237 E7.6171
G1 X118.736 Y72.951 E7.66141
G1 X119.383 Y72.828 E7.68331
G1 X119.509 Y72.807 E7.68756
G1 X120.595 Y72.645 E7.72408
G1 X120.703 Y72.631 E7.7277
G1 X121.903 Y72.495 E7.76787
G1 X122.891 Y72.416 E7.80083
G1 X123 Y72.409 E7.80447
G1 X124.326 Y72.35 E7.84861
G1 X124.853 Y72.342 E7.86614
G1 X125.127 Y72.342 E7.87526
G1 X126.115 Y72.36 E7.90812
G1 X126.299 Y72.367 E7.91425
G1 X127.162 Y72.414 E7.94299
G1 X127.282 Y72.423 E7.947
G1 X128.745 Y72.559 E7.99587
G1 X129.575 Y72.663 E8.02369
G1 X130.34 Y72.781 E8.04943
G1 X130.854 Y72.87 E8.06678
G1 X131.449 Y72.984 E8.08693
G1 X131.862 Y73.071 E8.10097
G1 X132.742 Y73.272 E8.13099
G1 X133.063 Y73.351 E8.14199
G1 X133.638 Y73.504 E8.16178
G1 X134.109 Y73.638 E8.17807
G1 X134.792 Y73.844 E8.20179
G1 X135.122 Y73.95 E8.21332
G1 X135.88 Y74.207 E8.23994
G1 X136.371 Y74.384 E8.2573
G1 X136.684 Y74.502 E8.26843
G1 X137.325 Y74.756 E8.29136
G1 X137.897 Y74.996 E8.31199
G1 X138.646 Y75.33 E8.33927
G1 X139.41 Y75.693 E8.3674
G1 X139.894 Y75.935 E8.3854
G1 X140.402 Y76.201 E8.40447
G1 X140.617 Y76.317 E8.4126
G1 X141.427 Y76.773 E8.44351
G1 X141.726 Y76.949 E8.45505
G1 X142.288 Y77.292 E8.47695
G1 X142.836 Y77.642 E8.49858
G1 X143.465 Y78.062 E8.52373
G1 X144.21 Y78.59 E8.5541
G1 X144.543 Y78.835 E8.56786
G1 X145.212 Y79.348 E8.5959
G1 X145.869 Y79.885 E8.62412
G1 X146.749 Y80.647 E8.66283
G1 X146.829 Y80.719 E8.66641
G1 X147.596 Y81.43 E8.7012
G1 X147.681 Y81.511 E8.7051
G1 X148.41 Y82.238 E8.73935
G1 X149.277 Y83.155 E8.78132
G1 X149.364 Y83.251 E8.78563
G1 X149.937 Y83.91 E8.81468
G1 X150.005 Y83.991 E8.81819
G1 X150.589 Y84.711 E8.84903
G1 X151.318 Y85.666 E8.88899
G1 X151.733 Y86.239 E8.91252
G1 X151.867 Y86.433 E8.92036
G1 X152.278 Y87.043 E8.94483
G1 X152.51 Y87.399 E8.95896
G1 X152.886 Y88.002 E8.98259
G1 X153.099 Y88.354 E8.99628
G1 X153.485 Y89.024 E9.022
G1 X153.613 Y89.256 E9.03081
G1 X154.031 Y90.039 E9.06033
G1 X154.16 Y90.292 E9.06978
G1 X154.465 Y90.915 E9.09285
G1 X154.715 Y91.448 E9.11243
G1 X154.875 Y91.806 E9.12547
G1 X155.127 Y92.393 E9.14672
G1 X155.337 Y92.906 E9.16515
G1 X155.529 Y93.399 E9.18275
G1 X155.684 Y93.814 E9.19748
G1 X155.993 Y94.699 E9.22866
G1 X156.288 Y95.636 E9.26133
G1 X156.396 Y96.006 E9.27415
G1 X156.6 Y96.748 E9.29975
G1 X156.819 Y97.659 E9.33091
G1 X157.072 Y98.872 E9.37213
G1 X157.294 Y100.141 E9.41497
G1 X157.314 Y100.268 E9.41925
G1 X157.405 Y100.965 E9.44263
G1 X157.527 Y102.151 E9.48228
G1 X157.536 Y102.258 E9.48585
G1 X157.604 Y103.247 E9.51883
G1 X157.61 Y103.359 E9.52256
G1 X157.646 Y104.422 E9.55793
G1 X157.648 Y104.527 E9.56143
G1 X157.648 Y105.671 E9.59948
G1 X157.627 Y106.378 E9.623
G1 X157.621 Y106.497 E9.62696
G1 X157.538 Y107.734 E9.6682
G1 X157.528 Y107.848 E9.67201
G1 X157.425 Y108.848 E9.70544
G1 X157.412 Y108.956 E9.70906
G1 X157.272 Y109.973 E9.7432
G1 X157.255 Y110.081 E9.74684
G1 X157.054 Y111.241 E9.786
G1 X156.909 Y111.947 E9.80997
G1 X156.883 Y112.061 E9.81386
G1 X156.59 Y113.262 E9.85497
G1 X156.561 Y113.371 E9.85873
G1 X156.287 Y114.344 E9.89235
G1 X156.256 Y114.448 E9.89596
G1 X155.927 Y115.476 E9.93186
G1 X155.579 Y116.451 E9.96629
G1 X155.54 Y116.554 E9.96995
G1 X155.168 Y117.493 E10.00354
G1 X155.126 Y117.594 E10.00718
G1 X154.73 Y118.501 E10.0401
G1 X154.23 Y119.554 E10.07887
G1 X154.179 Y119.657 E10.08269
G1 X153.74 Y120.5 E10.11431
G1 X153.688 Y120.596 E10.11794
G1 X153.121 Y121.597 E10.1562
G1 X152.615 Y122.423 E10.18842
G1 X151.982 Y123.388 E10.2268
G1 X151.919 Y123.48 E10.23051
G1 X151.283 Y124.375 E10.26703
G1 X150.659 Y125.195 E10.3013
G1 X150.59 Y125.282 E10.305
G1 X149.956 Y126.058 E10.33832
G1 X149.884 Y126.143 E10.34203
G1 X149.222 Y126.898 E10.37543
G1 X148.451 Y127.721 E10.41293
G1 X148.375 Y127.799 E10.41656
G1 X147.678 Y128.492 E10.44925
G1 X147.601 Y128.566 E10.4528
G1 X146.759 Y129.347 E10.491
G1 X145.988 Y130.014 E10.52491
G1 X145.907 Y130.082 E10.52842
G1 X145.116 Y130.722 E10.56226
G1 X144.249 Y131.375 E10.59837
G1 X144.163 Y131.438 E10.60191
G1 X143.311 Y132.035 E10.63651
G1 X143.221 Y132.096 E10.64013
G1 X142.404 Y132.628 E10.67256
G1 X142.311 Y132.686 E10.6762
G1 X141.431 Y133.217 E10.71039
G1 X141.335 Y133.273 E10.71408
G1 X140.448 Y133.767 E10.74785
G1 X140.353 Y133.818 E10.75144
G1 X139.469 Y134.272 E10.78449
G1 X139.369 Y134.321 E10.78819
G1 X138.425 Y134.765 E10.82289
G1 X137.419 Y135.198 E10.85932
G1 X137.323 Y135.238 E10.86278
G1 X136.394 Y135.601 E10.89595
G1 X136.285 Y135.641 E10.89981
G1 X135.292 Y135.988 E10.9348
G1 X134.284 Y136.304 E10.96993
G1 X134.179 Y136.335 E10.97357
G1 X133.114 Y136.628 E11.01031
G1 X133.005 Y136.656 E11.01406
G1 X132.002 Y136.893 E11.04833
G1 X131.003 Y137.096 E11.08224
G1 X130.895 Y137.116 E11.08589
G1 X129.886 Y137.285 E11.11992
G1 X129.775 Y137.302 E11.12366
G1 X128.536 Y137.464 E11.16522
G1 X127.859 Y137.533 E11.18785
G1 X127.733 Y137.543 E11.19205
