;FLAVOR:Marlin
;TIME:1932
;Filament used: 2.0572m
;Layer height: 0.2
;MINX:91.948
;MINY:71.942
;MINZ:0.2
;MAXX:158.049
;MAXY:138.051
;MAXZ:12.4
;Generated with Cura_SteamEngine 4.12.1
M82 ;absolute extrusion mode
G21 ; set units to millimeters
G90 ; use absolute positioning
M82 ; absolute extrusion mode
M104 S200 ; set extruder temp
M140 S60 ; set bed temp
M190 S60 ; wait for bed temp
M109 S200 ; wait for extruder temp
G28 W ; home all without mesh bed level
G80 ; mesh bed leveling
G92 E0.0 ; reset extruder distance position
G1 Y-3.0 F1000.0 ; go outside print area
G1 X60.0 E9.0 F1000.0 ; intro line
G1 X100.0 E21.5 F1000.0 ; intro line
G92 E0.0 ; reset extruder distance position
G92 E0
G92 E0
G1 F2100 E-0.8
;LAYER_COUNT:62
;LAYER:0
M107
G0 F3600 X99.451 Y84.03 Z0.2
;TYPE:SKIRT
G1 F2100 E0
G1 F1800 X100.113 Y83.249 E0.03405
G1 X100.194 Y83.157 E0.03813
G1 X100.857 Y82.427 E0.07093
G1 X100.94 Y82.338 E0.07498
G1 X101.659 Y81.598 E0.10929
G1 X102.441 Y80.843 E0.14545
G1 X102.536 Y80.755 E0.14975
G1 X103.344 Y80.031 E0.18584
G1 X103.437 Y79.95 E0.18994
G1 X104.186 Y79.324 E0.22241
G1 X104.28 Y79.248 E0.22643
G1 X105.049 Y78.648 E0.25887
G1 X105.148 Y78.574 E0.26298
G1 X106.086 Y77.894 E0.30151
G1 X106.931 Y77.323 E0.33543
G1 X107.036 Y77.255 E0.33959
G1 X107.874 Y76.73 E0.37248
G1 X107.98 Y76.666 E0.3766
G1 X108.846 Y76.164 E0.40989
G1 X109.884 Y75.607 E0.44908
G1 X109.995 Y75.55 E0.45323
G1 X110.844 Y75.133 E0.48469
G1 X110.954 Y75.081 E0.48873
G1 X111.901 Y74.655 E0.52327
G1 X112.012 Y74.607 E0.52729
G1 X112.985 Y74.208 E0.56227
G1 X113.103 Y74.162 E0.56648
G1 X113.98 Y73.838 E0.59758
G1 X114.099 Y73.796 E0.60178
G1 X115.138 Y73.453 E0.63817
G1 X116.147 Y73.155 E0.67316
G1 X116.268 Y73.122 E0.67733
G1 X117.232 Y72.875 E0.71043
G1 X117.349 Y72.847 E0.71443
G1 X118.662 Y72.558 E0.75915
G1 X119.309 Y72.435 E0.78105
G1 X119.45 Y72.411 E0.78581
G1 X120.536 Y72.249 E0.82233
G1 X120.657 Y72.233 E0.82639
G1 X121.748 Y72.108 E0.86291
G1 X121.871 Y72.096 E0.86702
G1 X122.859 Y72.017 E0.89999
G1 X124.211 Y71.954 E0.94501
G1 X124.32 Y71.95 E0.94863
G1 X124.847 Y71.942 E0.96616
G1 X125.127 Y71.942 E0.97548
G1 X126.129 Y71.96 E1.00881
G1 X126.321 Y71.967 E1.0152
G1 X127.184 Y72.014 E1.04394
G1 X127.319 Y72.024 E1.04845
G1 X128.684 Y72.15 E1.09404
G1 X129.531 Y72.253 E1.12242
G1 X130.408 Y72.387 E1.15193
G1 X130.929 Y72.477 E1.16951
G1 X131.589 Y72.604 E1.19187
G1 X131.951 Y72.681 E1.20418
G1 X132.838 Y72.884 E1.23444
G1 X133.165 Y72.965 E1.24564
G1 X133.747 Y73.119 E1.26567
G1 X134.224 Y73.255 E1.28217
G1 X134.914 Y73.463 E1.30614
G1 X135.25 Y73.571 E1.31787
G1 X136.015 Y73.831 E1.34475
G1 X136.511 Y74.01 E1.36229
G1 X136.831 Y74.13 E1.37365
G1 X137.479 Y74.387 E1.39684
G1 X138.058 Y74.63 E1.41772
G1 X138.516 Y74.831 E1.43436
G1 X138.863 Y74.989 E1.44704
G1 X139.589 Y75.335 E1.47379
G1 X140.079 Y75.581 E1.49203
G1 X140.591 Y75.848 E1.51123
G1 X140.813 Y75.968 E1.51962
G1 X141.63 Y76.428 E1.55081
G1 X141.934 Y76.607 E1.56254
G1 X142.443 Y76.917 E1.58236
G1 X143.058 Y77.309 E1.60662
G1 X143.612 Y77.678 E1.62876
G1 X144.446 Y78.267 E1.66272
G1 X144.786 Y78.517 E1.67676
G1 X145.376 Y78.968 E1.70146
G1 X146.048 Y79.514 E1.73025
G1 X146.131 Y79.582 E1.73382
G1 X147.011 Y80.344 E1.77254
G1 X147.868 Y81.137 E1.81137
G1 X147.963 Y81.228 E1.81575
G1 X148.692 Y81.955 E1.84999
G1 X148.769 Y82.034 E1.85366
G1 X149.568 Y82.881 E1.89239
G1 X149.666 Y82.989 E1.89724
G1 X150.239 Y83.648 E1.92629
G1 X150.315 Y83.738 E1.9302
G1 X150.838 Y84.381 E1.95777
G1 X151.636 Y85.424 E2.00145
G1 X152.061 Y86.01 E2.02553
G1 X152.199 Y86.209 E2.03358
G1 X152.614 Y86.824 E2.05826
G1 X152.849 Y87.187 E2.07264
G1 X153.228 Y87.794 E2.09644
G1 X153.445 Y88.154 E2.11042
G1 X153.836 Y88.831 E2.13643
G1 X153.966 Y89.067 E2.14539
G1 X154.387 Y89.857 E2.17516
G1 X154.52 Y90.117 E2.18487
G1 X154.812 Y90.714 E2.20698
G1 X155.08 Y91.284 E2.22793
G1 X155.242 Y91.648 E2.24118
G1 X155.497 Y92.241 E2.26265
G1 X155.71 Y92.76 E2.28131
G1 X155.903 Y93.258 E2.29907
G1 X156.062 Y93.682 E2.31413
G1 X156.322 Y94.423 E2.34025
G1 X156.395 Y94.643 E2.34796
G1 X156.671 Y95.524 E2.37867
G1 X156.781 Y95.9 E2.3917
G1 X156.985 Y96.642 E2.41729
G1 X157.014 Y96.755 E2.42117
G1 X157.21 Y97.577 E2.44928
G1 X157.486 Y98.907 E2.49446
G1 X157.689 Y100.072 E2.53379
G1 X157.711 Y100.216 E2.53863
G1 X157.791 Y100.818 E2.55883
G1 X157.925 Y102.11 E2.60204
G1 X157.936 Y102.231 E2.60608
G1 X158.004 Y103.22 E2.63905
G1 X158.01 Y103.345 E2.64321
G1 X158.046 Y104.408 E2.67859
G1 X158.048 Y104.527 E2.68255
G1 X158.049 Y105.573 E2.71734
G1 X158.026 Y106.39 E2.74452
G1 X158.02 Y106.524 E2.74898
G1 X157.937 Y107.761 E2.79022
G1 X157.926 Y107.889 E2.79449
G1 X157.823 Y108.889 E2.82793
G1 X157.808 Y109.011 E2.83201
G1 X157.65 Y110.149 E2.87023
G1 X157.467 Y111.209 E2.906
G1 X157.3 Y112.027 E2.93377
G1 X157.271 Y112.156 E2.93817
G1 X156.978 Y113.357 E2.97929
G1 X156.946 Y113.48 E2.98351
G1 X156.672 Y114.453 E3.01713
G1 X156.637 Y114.57 E3.0212
G1 X156.343 Y115.493 E3.05342
G1 X156.304 Y115.61 E3.05752
G1 X155.956 Y116.585 E3.09195
G1 X155.912 Y116.701 E3.09608
G1 X155.54 Y117.64 E3.12967
G1 X155.492 Y117.754 E3.13378
G1 X155.048 Y118.768 E3.1706
G1 X154.592 Y119.726 E3.20589
G1 X154.534 Y119.842 E3.2102
G1 X154.095 Y120.685 E3.24181
G1 X154.037 Y120.792 E3.24586
G1 X153.527 Y121.695 E3.28036
G1 X153.462 Y121.806 E3.28463
G1 X152.956 Y122.632 E3.31685
G1 X152.316 Y123.608 E3.35567
G1 X152.245 Y123.712 E3.35986
G1 X151.673 Y124.519 E3.39276
G1 X151.601 Y124.617 E3.3968
G1 X150.977 Y125.437 E3.43108
G1 X150.9 Y125.535 E3.43522
G1 X150.266 Y126.311 E3.46855
G1 X150.185 Y126.406 E3.4727
G1 X149.523 Y127.161 E3.5061
G1 X149.441 Y127.252 E3.51017
G1 X148.755 Y127.983 E3.54352
G1 X148.665 Y128.075 E3.5478
G1 X147.933 Y128.801 E3.58209
G1 X147.85 Y128.881 E3.58592
G1 X147.119 Y129.561 E3.61913
G1 X147.024 Y129.646 E3.62337
G1 X146.177 Y130.378 E3.6606
G1 X145.409 Y131 E3.69347
G1 X145.307 Y131.079 E3.69776
G1 X144.436 Y131.734 E3.73401
G1 X144.334 Y131.808 E3.7382
G1 X143.6 Y132.321 E3.76798
G1 X143.505 Y132.385 E3.77179
G1 X142.581 Y132.988 E3.80849
G1 X142.473 Y133.056 E3.81274
G1 X141.637 Y133.56 E3.8452
G1 X141.53 Y133.622 E3.84932
G1 X140.643 Y134.116 E3.88309
G1 X140.536 Y134.173 E3.88712
G1 X139.652 Y134.627 E3.92017
G1 X139.539 Y134.683 E3.92437
G1 X138.595 Y135.127 E3.95906
G1 X138.482 Y135.178 E3.96319
G1 X137.577 Y135.566 E3.99594
G1 X136.526 Y135.977 E4.03347
G1 X136.409 Y136.021 E4.03763
G1 X135.424 Y136.366 E4.07234
G1 X135.306 Y136.405 E4.07647
G1 X134.415 Y136.683 E4.10752
G1 X134.298 Y136.717 E4.11157
G1 X133.219 Y137.014 E4.14879
G1 X133.096 Y137.046 E4.15302
G1 X132.199 Y137.259 E4.18368
G1 X131.125 Y137.479 E4.22015
G1 X131.002 Y137.502 E4.22431
G1 X129.6 Y137.735 E4.27158
G1 X129.016 Y137.814 E4.29118
G1 X128.739 Y137.846 E4.30045
G1 X127.881 Y137.934 E4.32914
G1 X127.643 Y137.953 E4.33708
G1 X126.769 Y138.01 E4.36621
G1 X126.634 Y138.017 E4.37071
G1 X125.44 Y138.05 E4.41044
G1 X125.319 Y138.051 E4.41446
G1 X124.072 Y138.042 E4.45594
G1 X123.239 Y138.012 E4.48366
G1 X122.962 Y137.996 E4.49289
G1 X122.366 Y137.954 E4.51276
G1 X121.949 Y137.918 E4.52668
G1 X121.145 Y137.833 E4.55357
G1 X120.808 Y137.792 E4.56487
G1 X120.046 Y137.685 E4.59046
G1 X119.912 Y137.664 E4.59497
G1 X118.403 Y137.392 E4.64597
G1 X117.734 Y137.251 E4.66871
G1 X116.975 Y137.07 E4.69466
G1 X116.315 Y136.896 E4.71736
G1 X115.558 Y136.681 E4.74354
G1 X114.729 Y136.423 E4.77241
G1 X114.134 Y136.222 E4.7933
G1 X113.483 Y135.988 E4.81631
G1 X113.118 Y135.85 E4.82929
G1 X112.385 Y135.558 E4.85553
G1 X111.59 Y135.217 E4.8843
G1 X110.964 Y134.931 E4.90719
G1 X110.528 Y134.721 E4.92329
G1 X109.906 Y134.412 E4.94639
G1 X109.583 Y134.244 E4.9585
G1 X108.989 Y133.922 E4.98097
G1 X108.249 Y133.501 E5.00929
G1 X107.685 Y133.16 E5.03121
G1 X107.111 Y132.797 E5.0538
G1 X105.937 Y132.007 E5.10086
G1 X105.713 Y131.849 E5.10998
G1 X105.124 Y131.415 E5.13431
G1 X104.409 Y130.859 E5.16444
G1 X103.21 Y129.859 E5.21637
G1 X103.098 Y129.762 E5.2213
G1 X102.624 Y129.33 E5.24263
G1 X101.71 Y128.451 E5.2848
G1 X101.623 Y128.365 E5.28887
G1 X100.764 Y127.481 E5.32987
G1 X100.673 Y127.383 E5.33432
G1 X100.158 Y126.811 E5.35992
G1 X99.975 Y126.601 E5.36918
G1 X99.521 Y126.061 E5.39265
G1 X98.667 Y124.985 E5.43834
G1 X98.103 Y124.221 E5.46992
G1 X97.711 Y123.66 E5.49268
G1 X97.416 Y123.222 E5.51025
G1 X97.07 Y122.687 E5.53144
G1 X96.782 Y122.222 E5.54963
G1 X96.571 Y121.873 E5.56319
G1 X96.206 Y121.241 E5.58747
G1 X96.013 Y120.894 E5.60068
G1 X95.661 Y120.237 E5.62547
G1 X95.463 Y119.848 E5.63998
G1 X95.171 Y119.252 E5.66206
G1 X95.011 Y118.91 E5.67462
G1 X94.601 Y117.991 E5.70809
G1 X94.251 Y117.14 E5.73869
G1 X94.153 Y116.887 E5.74771
G1 X93.857 Y116.089 E5.77602
G1 X93.734 Y115.736 E5.78846
G1 X93.443 Y114.851 E5.81944
G1 X93.188 Y113.979 E5.84966
G1 X92.856 Y112.717 E5.89306
G1 X92.823 Y112.581 E5.89772
G1 X92.658 Y111.83 E5.92329
G1 X92.409 Y110.531 E5.96728
G1 X92.385 Y110.39 E5.97204
G1 X92.281 Y109.701 E5.99522
G1 X92.127 Y108.429 E6.03783
G1 X92.114 Y108.308 E6.04188
G1 X92.033 Y107.369 E6.07323
G1 X92.025 Y107.244 E6.07739
G1 X91.97 Y106.171 E6.11313
G1 X91.966 Y106.047 E6.11725
G1 X91.948 Y104.914 E6.15494
G1 X91.965 Y103.848 E6.1904
G1 X92.002 Y103.035 E6.21747
G1 X92.011 Y102.899 E6.222
G1 X92.116 Y101.67 E6.26303
G1 X92.129 Y101.548 E6.26711
G1 X92.252 Y100.521 E6.30151
G1 X92.269 Y100.395 E6.30574
G1 X92.415 Y99.458 E6.33728
G1 X92.436 Y99.339 E6.3413
G1 X92.638 Y98.278 E6.37722
G1 X92.664 Y98.151 E6.38154
G1 X92.876 Y97.221 E6.41326
G1 X92.904 Y97.107 E6.41717
G1 X93.166 Y96.109 E6.45148
G1 X93.199 Y95.99 E6.45559
G1 X93.497 Y94.995 E6.49014
G1 X93.839 Y93.979 E6.52579
G1 X93.879 Y93.865 E6.52981
G1 X94.261 Y92.849 E6.56591
G1 X94.308 Y92.73 E6.57017
G1 X94.668 Y91.867 E6.60127
G1 X94.717 Y91.756 E6.6053
G1 X95.161 Y90.785 E6.64082
G1 X95.214 Y90.675 E6.64488
G1 X95.654 Y89.793 E6.67766
G1 X95.71 Y89.685 E6.68171
G1 X96.176 Y88.825 E6.71424
G1 X96.239 Y88.714 E6.71849
G1 X96.787 Y87.783 E6.75442
G1 X96.849 Y87.681 E6.75839
G1 X97.426 Y86.774 E6.79414
G1 X98.006 Y85.925 E6.82834
G1 X98.079 Y85.822 E6.83254
G1 X98.678 Y85.008 E6.86615
G1 X99.372 Y84.127 E6.90345
G1 X99.451 Y84.03 E6.90761
G0 F3600 X99.685 Y84.375
G1 F1800 X100.418 Y83.508 E6.94538
G1 X100.49 Y83.426 E6.949
G1 X101.153 Y82.696 E6.9818
G1 X101.227 Y82.617 E6.9854
G1 X101.946 Y81.877 E7.01972
G1 X102.719 Y81.131 E7.05545
G1 X102.803 Y81.053 E7.05926
G1 X103.611 Y80.329 E7.09535
G1 X103.694 Y80.257 E7.099
G1 X104.443 Y79.631 E7.13147
G1 X104.527 Y79.563 E7.13506
G1 X105.383 Y78.897 E7.17114
G1 X106.221 Y78.288 E7.20559
G1 X107.155 Y77.655 E7.24312
G1 X107.248 Y77.594 E7.24682
G1 X108.086 Y77.069 E7.27971
G1 X109.046 Y76.511 E7.31664
G1 X109.142 Y76.457 E7.3203
G1 X110.073 Y75.959 E7.35542
G1 X110.171 Y75.909 E7.35908
G1 X111.02 Y75.492 E7.39054
G1 X111.118 Y75.446 E7.39414
G1 X112.164 Y74.977 E7.43227
G1 X113.137 Y74.578 E7.46725
G1 X113.242 Y74.537 E7.47099
G1 X114.119 Y74.213 E7.50209
G1 X114.225 Y74.176 E7.50582
G1 X115.264 Y73.833 E7.54222
G1 X116.26 Y73.539 E7.57676
G1 X116.368 Y73.509 E7.58048
G1 X117.435 Y73.237 E7.61711
G1 X118.736 Y72.951 E7.66141
G1 X119.383 Y72.828 E7.68332
G1 X119.509 Y72.807 E7.68757
G1 X120.595 Y72.645 E7.72409
G1 X120.703 Y72.631 E7.72771
G1 X121.903 Y72.495 E7.76788
G1 X122.891 Y72.416 E7.80084
G1 X123 Y72.409 E7.80447
G1 X124.326 Y72.35 E7.84862
G1 X124.853 Y72.342 E7.86615
G1 X125.127 Y72.342 E7.87526
G1 X126.115 Y72.36 E7.90813
G1 X126.299 Y72.367 E7.91426
G1 X127.162 Y72.414 E7.943
G1 X127.282 Y72.423 E7.947
G1 X128.745 Y72.559 E7.99587
G1 X129.575 Y72.663 E8.0237
G1 X130.34 Y72.781 E8.04944
G1 X130.854 Y72.87 E8.06679
G1 X131.449 Y72.984 E8.08694
G1 X131.862 Y73.071 E8.10098
G1 X132.742 Y73.272 E8.131
G1 X133.063 Y73.351 E8.142
G1 X133.638 Y73.504 E8.16179
G1 X134.109 Y73.638 E8.17807
G1 X134.792 Y73.844 E8.2018
G1 X135.122 Y73.95 E8.21333
G1 X135.88 Y74.207 E8.23995
G1 X136.371 Y74.384 E8.25731
G1 X136.684 Y74.502 E8.26843
G1 X137.325 Y74.756 E8.29137
G1 X137.897 Y74.996 E8.312
G1 X138.646 Y75.33 E8.33927
G1 X139.41 Y75.693 E8.36741
G1 X139.894 Y75.935 E8.38541
G1 X140.402 Y76.201 E8.40448
G1 X140.617 Y76.317 E8.4126
G1 X141.427 Y76.773 E8.44352
G1 X141.726 Y76.949 E8.45506
G1 X142.288 Y77.292 E8.47696
G1 X142.836 Y77.642 E8.49859
G1 X143.465 Y78.062 E8.52374
G1 X144.21 Y78.59 E8.55411
G1 X144.543 Y78.835 E8.56786
G1 X145.212 Y79.348 E8.5959
G1 X145.869 Y79.885 E8.62412
G1 X146.749 Y80.647 E8.66284
G1 X146.829 Y80.719 E8.66642
G1 X147.596 Y81.43 E8.70121
G1 X147.681 Y81.511 E8.70511
G1 X148.41 Y82.238 E8.73935
G1 X149.277 Y83.155 E8.78133
G1 X149.364 Y83.251 E8.78564
G1 X149.937 Y83.91 E8.81468
G1 X150.005 Y83.991 E8.8182
G1 X150.589 Y84.711 E8.84903
G1 X151.318 Y85.666 E8.88899
G1 X151.733 Y86.239 E8.91253
G1 X151.867 Y86.433 E8.92037
G1 X152.278 Y87.043 E8.94483
G1 X152.51 Y87.399 E8.95897
G1 X152.886 Y88.002 E8.9826
G1 X153.099 Y88.354 E8.99628
G1 X153.485 Y89.024 E9.022
G1 X153.613 Y89.256 E9.03082
G1 X154.031 Y90.039 E9.06034
G1 X154.161 Y90.293 E9.06983
G1 X154.451 Y90.885 E9.09175
G1 X154.715 Y91.448 E9.11243
G1 X154.875 Y91.806 E9.12548
G1 X155.127 Y92.393 E9.14672
G1 X155.337 Y92.906 E9.16516
G1 X155.529 Y93.399 E9.18276
G1 X155.684 Y93.814 E9.19749
G1 X155.993 Y94.699 E9.22867
G1 X156.288 Y95.636 E9.26134
G1 X156.396 Y96.006 E9.27416
G1 X156.6 Y96.748 E9.29976
G1 X156.819 Y97.659 E9.33092
G1 X157.072 Y98.872 E9.37213
G1 X157.294 Y100.141 E9.41498
G1 X157.314 Y100.268 E9.41926
G1 X157.405 Y100.965 E9.44264
G1 X157.527 Y102.151 E9.48229
G1 X157.536 Y102.258 E9.48586
G1 X157.604 Y103.247 E9.51883
G1 X157.61 Y103.359 E9.52256
G1 X157.646 Y104.422 E9.55794
G1 X157.648 Y104.527 E9.56143
G1 X157.648 Y105.671 E9.59948
G1 X157.627 Y106.378 E9.62301
G1 X157.621 Y106.497 E9.62697
G1 X157.538 Y107.734 E9.66821
G1 X157.528 Y107.848 E9.67201
G1 X157.425 Y108.848 E9.70545
G1 X157.412 Y108.956 E9.70907
G1 X157.272 Y109.973 E9.74321
G1 X157.255 Y110.081 E9.74685
G1 X157.054 Y111.241 E9.786
G1 X156.909 Y111.947 E9.80998
G1 X156.883 Y112.061 E9.81387
G1 X156.59 Y113.262 E9.85498
G1 X156.561 Y113.371 E9.85873
G1 X156.287 Y114.344 E9.89235
G1 X156.256 Y114.448 E9.89596
G1 X155.927 Y115.476 E9.93186
G1 X155.579 Y116.451 E9.9663
G1 X155.54 Y116.554 E9.96996
G1 X155.168 Y117.493 E10.00355
G1 X155.126 Y117.594 E10.00719
G1 X154.73 Y118.501 E10.04011
G1 X154.23 Y119.554 E10.07888
G1 X154.179 Y119.657 E10.0827
G1 X153.74 Y120.5 E10.11431
G1 X153.688 Y120.596 E10.11794
G1 X153.121 Y121.597 E10.15621
G1 X152.615 Y122.423 E10.18843
G1 X151.982 Y123.388 E10.22681
G1 X151.919 Y123.48 E10.23052
G1 X151.283 Y124.375 E10.26704
G1 X150.659 Y125.195 E10.30131
G1 X150.59 Y125.282 E10.305
G1 X149.956 Y126.058 E10.33833
G1 X149.884 Y126.143 E10.34204
G1 X149.222 Y126.898 E10.37543
G1 X148.463 Y127.709 E10.41238
G1 X148.383 Y127.791 E10.41619
G1 X147.578 Y128.588 E10.45387
G1 X146.847 Y129.268 E10.48707
G1 X146.762 Y129.344 E10.49086
G1 X146.006 Y129.999 E10.52413
G1 X145.925 Y130.067 E10.52765
G1 X145.157 Y130.689 E10.56052
G1 X145.066 Y130.76 E10.56436
G1 X144.195 Y131.415 E10.60061
G1 X144.105 Y131.48 E10.6043
G1 X143.287 Y132.05 E10.63746
G1 X142.363 Y132.653 E10.67416
G1 X142.266 Y132.714 E10.67797
G1 X141.43 Y133.218 E10.71044
G1 X141.335 Y133.273 E10.71409
G1 X140.448 Y133.767 E10.74786
G1 X140.353 Y133.818 E10.75144
G1 X139.469 Y134.272 E10.7845
G1 X139.369 Y134.321 E10.7882
G1 X138.425 Y134.765 E10.8229
G1 X137.419 Y135.198 E10.85932
G1 X137.32 Y135.239 E10.86289
G1 X136.381 Y135.605 E10.89641
G1 X135.292 Y135.988 E10.9348
G1 X135.187 Y136.023 E10.93848
G1 X134.296 Y136.301 E10.96953
G1 X133.113 Y136.628 E11.01035
G1 X133.003 Y136.656 E11.01413
G1 X132.005 Y136.892 E11.04823
G1 X131.046 Y137.087 E11.08078
G1 X130.936 Y137.107 E11.0845
G1 X129.638 Y137.324 E11.12827
G1 X128.969 Y137.417 E11.15074
G1 X128.698 Y137.448 E11.15981
G1 X127.847 Y137.535 E11.18826
G1 X127.617 Y137.554 E11.19594
G1 X126.743 Y137.611 E11.22507
G1 X126.623 Y137.617 E11.22907
G1 X125.429 Y137.65 E11.26879
G1 X125.321 Y137.651 E11.27239
G1 X124.086 Y137.642 E11.31346
