;FLAVOR:Marlin
;TIME:19265
;Filament used: 54.2495m
;Layer height: 0.3
;MINX:42.906
;MINY:19.6
;MINZ:0.2
;MAXX:207.094
;MAXY:190.5
;MAXZ:37.4
;Generated with Cura_SteamEngine 99.10.0-Arachne_engine_beta_2
M82 ;absolute extrusion mode
G21 ; set units to millimeters
G90 ; use absolute positioning
M82 ; absolute extrusion mode
M104 S205 ; set extruder temp
M140 S60 ; set bed temp
M190 S60 ; wait for bed temp
M109 S205 ; wait for extruder temp
G28 W ; home all without mesh bed level
G80 ; mesh bed leveling
G92 E0.0 ; reset extruder distance position
G1 Y-3.0 F1000.0 ; go outside print area
G1 X60.0 E9.0 F1000.0 ; intro line
G1 X100.0 E21.5 F1000.0 ; intro line
G92 E0.0 ; reset extruder distance position
G92 E0
G92 E0
G1 F2100 E-0.8
;LAYER_COUNT:125
;LAYER:0
M107
G0 F3600 X43.289 Y21.309 Z0.2
G0 X46.346 Y19.601
;TYPE:SKIRT
G1 F2100 E0
G1 F3000 X203.233 Y19.6 E5.21808
G1 X203.931 Y19.61 E5.2413
G1 X204.434 Y19.657 E5.2581
G1 X204.924 Y19.783 E5.27493
G1 X205.388 Y19.985 E5.29176
G1 X205.814 Y20.257 E5.30857
G1 X206.192 Y20.592 E5.32537
G1 X206.512 Y20.983 E5.34218
G1 X206.767 Y21.42 E5.35901
G1 X206.95 Y21.891 E5.37581
G1 X207.057 Y22.385 E5.39262
G1 X207.093 Y23.04 E5.41444
G1 X207.094 Y186.604 E10.8546
G1 X207.085 Y187.331 E10.87878
G1 X207.039 Y187.834 E10.89558
G1 X206.914 Y188.324 E10.9124
G1 X206.713 Y188.788 E10.92922
G1 X206.442 Y189.215 E10.94604
G1 X206.107 Y189.594 E10.96287
G1 X205.717 Y189.915 E10.97967
G1 X205.281 Y190.171 E10.99648
G1 X204.81 Y190.354 E11.01329
G1 X204.316 Y190.462 E11.03011
G1 X203.654 Y190.499 E11.05216
G1 X46.772 Y190.5 E16.27008
G1 X46.074 Y190.491 E16.2933
G1 X45.57 Y190.444 E16.31013
G1 X45.08 Y190.319 E16.32695
G1 X44.616 Y190.118 E16.34377
G1 X44.19 Y189.847 E16.36056
G1 X43.811 Y189.512 E16.37739
G1 X43.49 Y189.121 E16.39421
G1 X43.235 Y188.685 E16.41101
G1 X43.051 Y188.214 E16.42783
G1 X42.944 Y187.72 E16.44464
G1 X42.907 Y187.044 E16.46716
G1 X42.906 Y23.431 E21.90895
G1 X42.915 Y22.766 E21.93107
G1 X42.962 Y22.262 E21.94791
G1 X43.088 Y21.773 E21.9647
G1 X43.289 Y21.309 E21.98152
G1 X43.56 Y20.882 E21.99834
G1 X43.895 Y20.504 E22.01514
G1 X44.286 Y20.183 E22.03196
G1 X44.723 Y19.928 E22.04879
G1 X45.194 Y19.744 E22.06561
G1 X45.688 Y19.638 E22.08242
G1 X46.346 Y19.601 E22.10434
G1 F2100 E21.30434
;MESH:STEPPER PANEL 1.stl
G0 F3600 X46.53 Y22.135
G0 X46.53 Y23.224
G0 X48.708 Y178.157
;TYPE:WALL-INNER
G1 F2100 E22.10434
G1 F3000 X48.977 Y177.522 E22.12727
G1 X49.478 Y176.734 E22.15833
G1 X50.072 Y176.084 E22.18762
G1 X50.786 Y175.528 E22.21772
G1 X51.606 Y175.1 E22.24848
G1 X52.456 Y174.831 E22.27813
G1 X53.357 Y174.71 E22.30837
G1 X53.82 Y174.709 E22.32377
G1 X54.506 Y174.781 E22.34671
G1 X55.149 Y174.943 E22.36877
G1 X55.975 Y175.281 E22.39845
G1 X56.383 Y175.515 E22.41409
G1 X56.825 Y175.827 E22.43209
G1 X57.251 Y176.216 E22.45128
G1 X57.642 Y176.637 E22.47039
G1 X57.965 Y177.086 E22.48878
G1 X58.204 Y177.498 E22.50462
G1 X58.449 Y178.03 E22.5241
G1 X58.665 Y178.757 E22.54933
G1 X58.787 Y179.656 E22.5795
G1 X58.788 Y180.12 E22.59494
G1 X58.669 Y181.02 E22.62513
G1 X58.405 Y181.867 E22.65464
G1 X57.978 Y182.693 E22.68557
G1 X57.437 Y183.397 E22.7151
G1 X56.785 Y184.002 E22.74468
G1 X55.994 Y184.512 E22.77598
G1 X55.587 Y184.7 E22.79089
G0 F3600 X55.247 Y183.976
G1 F3007.5 X54.531 Y184.196 E22.81575
G1 X53.762 Y184.294 E22.84146
G1 F3000 X52.995 Y184.256 E22.86701
G1 X52.246 Y184.083 E22.89257
G1 X51.551 Y183.792 E22.91763
G1 X50.898 Y183.369 E22.94351
G1 X50.447 Y182.957 E22.96383
G1 X50.142 Y182.618 E22.979
G1 X49.713 Y181.963 E23.00504
G1 X49.418 Y181.267 E23.03018
G1 X49.263 Y180.671 E23.05066
G1 X49.203 Y180.067 E23.07085
G1 X49.241 Y179.295 E23.09656
G1 X49.413 Y178.548 E23.12205
G1 X49.704 Y177.855 E23.14705
G1 X50.132 Y177.195 E23.17322
G1 X50.641 Y176.647 E23.19809
G1 X51.25 Y176.181 E23.2236
G1 X51.943 Y175.826 E23.2495
G1 X52.665 Y175.603 E23.27463
G1 X53.429 Y175.507 E23.30024
G1 X54.203 Y175.546 E23.32602
G1 X54.943 Y175.716 E23.35127
G1 X55.641 Y176.008 E23.37643
G1 X56.295 Y176.431 E23.40234
G1 X56.686 Y176.783 E23.41984
G1 X57.05 Y177.182 E23.4378
G1 X57.354 Y177.611 E23.45529
G1 X57.669 Y178.244 E23.47881
G1 X57.893 Y178.967 E23.50398
G1 X57.99 Y179.729 E23.52953
G1 X57.951 Y180.506 E23.5554
G1 X57.781 Y181.247 E23.58069
G1 X57.489 Y181.945 E23.60586
G1 X57.061 Y182.605 E23.63202
G1 X56.553 Y183.153 E23.65687
G1 X55.949 Y183.617 E23.68221
G1 X55.247 Y183.976 E23.70843
G0 F3600 X54.426 Y183.81
G1 F3007.5 X53.727 Y183.895 E23.73179
G1 F3000 X53.029 Y183.857 E23.75504
G1 X52.35 Y183.697 E23.77824
G1 X51.719 Y183.429 E23.80105
G1 X51.127 Y183.042 E23.82457
G1 X50.73 Y182.674 E23.84257
G1 X50.468 Y182.386 E23.85552
G1 X50.075 Y181.795 E23.87913
G1 X49.804 Y181.162 E23.90203
G1 X49.657 Y180.602 E23.92129
G1 X49.602 Y180.032 E23.94033
G1 X49.64 Y179.329 E23.96375
G1 X49.8 Y178.652 E23.98689
G1 X50.068 Y178.022 E24.00966
G1 X50.459 Y177.426 E24.03337
G1 X50.925 Y176.928 E24.05605
G1 X51.482 Y176.507 E24.07927
G1 X52.112 Y176.189 E24.10275
G1 X52.77 Y175.989 E24.12562
G1 X53.465 Y175.905 E24.1489
G1 X54.168 Y175.945 E24.17232
G1 X54.84 Y176.102 E24.19528
G1 X55.474 Y176.371 E24.21818
G1 X56.066 Y176.758 E24.24171
G1 X56.573 Y177.235 E24.26486
G1 X56.988 Y177.783 E24.28772
G1 X57.307 Y178.412 E24.31118
G1 X57.507 Y179.073 E24.33415
G1 X57.592 Y179.765 E24.35734
G1 X57.552 Y180.471 E24.38086
G1 X57.394 Y181.144 E24.40385
G1 X57.125 Y181.778 E24.42676
G1 X56.734 Y182.374 E24.45046
G1 X56.269 Y182.872 E24.47313
G1 X55.716 Y183.291 E24.4962
G1 X55.079 Y183.613 E24.51994
G1 F3007.5 X54.426 Y183.81 E24.54257
G0 F3600 X54.32 Y183.424
G1 F3007.5 X53.692 Y183.497 E24.56355
G1 F3000 X53.063 Y183.458 E24.58451
G1 X52.453 Y183.31 E24.60538
G1 X51.886 Y183.065 E24.62593
G1 X51.357 Y182.714 E24.64704
G1 X50.902 Y182.282 E24.66791
G1 X50.531 Y181.785 E24.68854
G1 X50.247 Y181.215 E24.70972
G1 F3007.5 X50.072 Y180.624 E24.73017
G1 X50 Y179.997 E24.75111
G1 F3000 X50.039 Y179.362 E24.77227
G1 X50.186 Y178.756 E24.79301
G1 X50.431 Y178.189 E24.81355
G1 X50.786 Y177.656 E24.83485
G1 X51.209 Y177.21 E24.8553
G1 X51.713 Y176.833 E24.87623
G1 X52.28 Y176.551 E24.89729
G1 X52.875 Y176.375 E24.91793
G1 X53.501 Y176.303 E24.93889
G1 X54.133 Y176.343 E24.95995
G1 X54.738 Y176.489 E24.98065
G1 X55.307 Y176.735 E25.00127
G1 X55.836 Y177.086 E25.02238
G1 X56.291 Y177.518 E25.04325
G1 X56.662 Y178.015 E25.06388
G1 X56.944 Y178.581 E25.08491
G1 X57.121 Y179.178 E25.10562
G1 X57.193 Y179.801 E25.12648
G1 X57.154 Y180.436 E25.14764
G1 X57.008 Y181.041 E25.16834
G1 X56.762 Y181.612 E25.18902
G1 X56.407 Y182.144 E25.21029
G1 X55.984 Y182.59 E25.23074
G1 X55.484 Y182.965 E25.25153
G1 X54.911 Y183.25 E25.27281
G1 F3007.5 X54.32 Y183.424 E25.29325
G0 F3600 X54.215 Y183.038
G1 F3007.5 X53.656 Y183.098 E25.3119
G1 F3000 X53.097 Y183.06 E25.33054
G1 X52.557 Y182.924 E25.34906
G1 X52.053 Y182.702 E25.36738
G1 X51.587 Y182.387 E25.38609
G1 X51.185 Y181.998 E25.40469
G1 X50.857 Y181.553 E25.42308
G1 X50.61 Y181.046 E25.44184
G1 F3007.5 X50.458 Y180.518 E25.46006
G1 X50.399 Y179.961 E25.47865
G1 F3000 X50.437 Y179.396 E25.49748
G1 X50.572 Y178.861 E25.51583
G1 X50.795 Y178.355 E25.53422
G1 X51.113 Y177.887 E25.55304
G1 X51.493 Y177.491 E25.5713
G1 X51.945 Y177.159 E25.58995
G1 X52.449 Y176.914 E25.60859
G1 X52.979 Y176.761 E25.62694
G1 X53.537 Y176.702 E25.6456
G1 X54.097 Y176.742 E25.66427
G1 X54.635 Y176.876 E25.68271
G1 X55.14 Y177.098 E25.70106
G1 X55.606 Y177.413 E25.71977
G1 X56.008 Y177.802 E25.73838
G1 X56.336 Y178.247 E25.75676
G1 X56.581 Y178.75 E25.77537
G1 X56.735 Y179.283 E25.79382
G1 X56.795 Y179.837 E25.81236
G1 X56.755 Y180.401 E25.83116
G1 X56.621 Y180.937 E25.84954
G1 X56.398 Y181.445 E25.86799
G1 X56.08 Y181.913 E25.88681
G1 X55.7 Y182.309 E25.90507
G1 X55.251 Y182.64 E25.92362
G1 X54.743 Y182.886 E25.94239
G1 F3007.5 X54.215 Y183.038 E25.96062
G0 F3600 X54.348 Y183.53
G0 X54.639 Y184.591
G1 F2857.1 X54.251 Y184.664 E25.97441
G1 F2912.6 X53.603 Y184.7 E25.99664
G1 F2919.7 X52.96 Y184.665 E26.01865
G1 X52.143 Y184.469 E26.04736
G1 F3000 X51.384 Y184.156 E26.07467
G1 X50.668 Y183.697 E26.10296
G1 X50.164 Y183.24 E26.12558
G1 X49.816 Y182.851 E26.14294
G1 X49.35 Y182.132 E26.17144
G1 X49.032 Y181.372 E26.19884
G1 F2714.9 X48.828 Y180.748 E26.22297
G1 F2569.6 X48.78 Y180.105 E26.24801
G1 F2614.4 X48.809 Y179.258 E26.28035
G1 F2765 X49.027 Y178.443 E26.3108
G1 F3000 X49.34 Y177.688 E26.33798
G1 X49.805 Y176.965 E26.36657
G1 X50.356 Y176.365 E26.39367
G1 X51.018 Y175.855 E26.42146
G1 X51.775 Y175.463 E26.44982
G1 X52.56 Y175.217 E26.47718
G1 X53.393 Y175.108 E26.50512
G1 X54.238 Y175.148 E26.53326
G1 X55.046 Y175.329 E26.5608
G1 X55.808 Y175.645 E26.58823
G1 X56.153 Y175.842 E26.60145
G1 X56.584 Y176.147 E26.61901
G1 X56.969 Y176.499 E26.63636
G1 X57.325 Y176.881 E26.65373
G1 X57.639 Y177.319 E26.67165
G1 X57.842 Y177.667 E26.68505
G1 X58.078 Y178.18 E26.70383
G1 X58.279 Y178.862 E26.72748
G1 X58.389 Y179.692 E26.75533
G1 X58.349 Y180.541 E26.7836
G1 X58.167 Y181.351 E26.81121
G1 X57.852 Y182.112 E26.8386
G1 X57.388 Y182.835 E26.86718
G1 X56.837 Y183.435 E26.89427
G1 X56.182 Y183.942 E26.92182
G1 X55.415 Y184.339 E26.95055
G1 F2941.2 X54.639 Y184.591 E26.97822
G0 F3600 X51.61 Y184.699
G1 F3000 X50.81 Y184.285 E27.00818
G1 X50.096 Y183.737 E27.03812
G1 X49.49 Y183.083 E27.06778
G1 X48.987 Y182.301 E27.0987
G1 X48.707 Y181.644 E27.12245
G0 F3600 X52.355 Y183.334
G0 X52.97 Y183.499
G0 X53.604 Y183.554
G0 X55.37 Y183.155
G0 X54.986 Y182.333
;TYPE:WALL-OUTER
G1 F3000 X54.544 Y182.534 E27.1386
G1 X54.074 Y182.66 E27.15479
G1 X53.585 Y182.7 E27.17111
G1 X53.097 Y182.655 E27.18741
G1 X52.629 Y182.526 E27.20355
G1 X52.189 Y182.32 E27.21971
G1 X51.79 Y182.037 E27.23598
G1 X51.446 Y181.69 E27.25223
G1 X51.164 Y181.289 E27.26854
G1 X50.962 Y180.846 E27.28473
G1 X50.837 Y180.378 E27.30084
G1 X50.797 Y179.926 E27.31594
G1 X50.842 Y179.394 E27.33369
G1 X50.97 Y178.934 E27.34957
G1 X51.177 Y178.49 E27.36587
G1 X51.461 Y178.092 E27.38213
G1 X51.804 Y177.75 E27.39824
G1 X52.208 Y177.467 E27.41465
G1 X52.649 Y177.265 E27.43078
G1 X53.119 Y177.141 E27.44695
G1 X53.609 Y177.1 E27.4633
G1 X54.096 Y177.146 E27.47957
G1 X54.564 Y177.274 E27.49571
G1 X55.004 Y177.48 E27.51187
G1 X55.403 Y177.763 E27.52814
G1 X55.743 Y178.104 E27.54415
G1 X56.029 Y178.511 E27.5607
G1 X56.23 Y178.951 E27.57679
G1 X56.356 Y179.422 E27.593
G1 X56.397 Y179.91 E27.60929
G1 X56.351 Y180.4 E27.62566
G1 X56.223 Y180.866 E27.64173
G1 X56.016 Y181.31 E27.65803
G1 X55.732 Y181.708 E27.67429
G1 X55.39 Y182.049 E27.69035
G1 X54.986 Y182.333 E27.70678
G0 F3600 X54.804 Y182.415
G0 X55.189 Y183.24
G0 X55.952 Y182.692
G0 X56.4 Y182.24
G0 X56.763 Y181.719
G0 X57.032 Y181.141
G0 X57.194 Y180.527
G0 X54.787 Y34.097
;TYPE:WALL-INNER
G1 F3000 X54.025 Y34.193 E27.73232
G1 X53.25 Y34.154 E27.75813
G1 X52.51 Y33.985 E27.78338
G1 X51.812 Y33.694 E27.80853
G1 X51.154 Y33.267 E27.83462
G1 X50.599 Y32.75 E27.85985
G1 X50.138 Y32.149 E27.88504
G1 X49.78 Y31.449 E27.91119
G1 X49.559 Y30.732 E27.93614
G1 X49.462 Y29.972 E27.96163
G1 X49.502 Y29.19 E27.98767
G1 X49.674 Y28.447 E28.01304
G1 X49.963 Y27.757 E28.03792
G1 X50.387 Y27.101 E28.0639
G1 X50.906 Y26.542 E28.08927
G1 X51.507 Y26.082 E28.11444
G1 X52.205 Y25.725 E28.14052
G1 X52.922 Y25.503 E28.16548
G1 X53.691 Y25.406 E28.19126
G1 X54.458 Y25.445 E28.2168
G1 X55.206 Y25.617 E28.24233
G1 X55.9 Y25.908 E28.26736
G1 X56.555 Y26.331 E28.29329
G1 X57.114 Y26.849 E28.31864
G1 X57.573 Y27.451 E28.34382
G1 X57.93 Y28.147 E28.36984
G1 X58.152 Y28.862 E28.39474
G1 X58.25 Y29.633 E28.42059
G1 X58.211 Y30.401 E28.44616
G1 X58.039 Y31.15 E28.47173
G1 X57.749 Y31.843 E28.49671
G1 X57.325 Y32.498 E28.52266
G1 X56.806 Y33.057 E28.54803
G1 X56.208 Y33.516 E28.57311
G1 X55.506 Y33.875 E28.59933
G1 X54.787 Y34.097 E28.62436
G0 F3600 X54.682 Y33.711
G1 F3000 X53.989 Y33.795 E28.64758
G1 X53.285 Y33.755 E28.67103
G1 X52.613 Y33.598 E28.69398
G1 X51.979 Y33.33 E28.71688
G1 X51.385 Y32.94 E28.74051
G1 X50.881 Y32.467 E28.7635
G1 X50.464 Y31.917 E28.78646
G1 X50.143 Y31.281 E28.81015
G1 X49.945 Y30.627 E28.83288
G1 X49.861 Y29.935 E28.85606
G1 X49.9 Y29.225 E28.87971
G1 X50.06 Y28.551 E28.90275
G1 X50.327 Y27.924 E28.92542
G1 X50.714 Y27.331 E28.94897
G1 X51.189 Y26.824 E28.97208
G1 X51.739 Y26.408 E28.99502
G1 X52.373 Y26.088 E29.01864
G1 X53.027 Y25.889 E29.04137
G1 X53.726 Y25.805 E29.06479
G1 X54.424 Y25.844 E29.08804
G1 X55.103 Y26.003 E29.11124
G1 X55.733 Y26.271 E29.13401
G1 X56.325 Y26.658 E29.15753
G1 X56.832 Y27.133 E29.18064
G1 X57.248 Y27.683 E29.20357
G1 X57.567 Y28.315 E29.22712
G1 X57.766 Y28.968 E29.24983
G1 X57.851 Y29.668 E29.27328
G1 X57.813 Y30.367 E29.29656
G1 X57.653 Y31.046 E29.31976
G1 X57.385 Y31.676 E29.34253
G1 X56.998 Y32.269 E29.36609
G1 X56.523 Y32.775 E29.38917
G1 X55.976 Y33.191 E29.41203
G1 X55.338 Y33.512 E29.43578
G1 X54.682 Y33.711 E29.45858
G0 F3600 X54.577 Y33.325
G1 F3000 X53.953 Y33.397 E29.47947
G1 X53.321 Y33.357 E29.50054
G1 X52.715 Y33.211 E29.52127
G1 X52.145 Y32.966 E29.5419
G1 X51.615 Y32.613 E29.56308
G1 X51.163 Y32.183 E29.58383
G1 X50.79 Y31.685 E29.60453
G1 X50.507 Y31.113 E29.62575
G1 X50.332 Y30.522 E29.64625
G1 X50.259 Y29.899 E29.66712
G1 X50.299 Y29.259 E29.68844
G1 X50.446 Y28.656 E29.70909
G1 X50.691 Y28.091 E29.72957
G1 X51.042 Y27.561 E29.75071
G1 X51.473 Y27.106 E29.77156
G1 X51.971 Y26.734 E29.79223
G1 X52.541 Y26.451 E29.8134
G1 X53.133 Y26.275 E29.83394
G1 X53.761 Y26.203 E29.85497
G1 X54.389 Y26.242 E29.87589
G1 X54.999 Y26.39 E29.89677
G1 X55.566 Y26.635 E29.91731
G1 X56.095 Y26.986 E29.93843
G1 X56.55 Y27.417 E29.95927
G1 X56.922 Y27.915 E29.97995
G1 X57.204 Y28.483 E30.00104
G1 X57.381 Y29.074 E30.02156
G1 X57.453 Y29.703 E30.04262
G1 X57.414 Y30.333 E30.06361
G1 X57.266 Y30.942 E30.08446
G1 X57.022 Y31.509 E30.10499
G1 X56.67 Y32.039 E30.12615
G1 X56.239 Y32.493 E30.14697
G1 X55.743 Y32.865 E30.16759
G1 X55.17 Y33.149 E30.18886
G1 X54.577 Y33.325 E30.20944
G0 F3600 X54.473 Y32.939
G1 F3000 X53.917 Y32.998 E30.22803
G1 X53.356 Y32.958 E30.24674
G1 X52.818 Y32.825 E30.26517
G1 X52.312 Y32.602 E30.28356
G1 X51.846 Y32.286 E30.30229
G1 X51.445 Y31.899 E30.32082
G1 X51.116 Y31.453 E30.33926
G1 X50.87 Y30.945 E30.35803
G1 X50.718 Y30.417 E30.37631
G1 X50.658 Y29.863 E30.39484
G1 X50.698 Y29.294 E30.41381
G1 X50.832 Y28.761 E30.43209
G1 X51.054 Y28.257 E30.45041
G1 X51.369 Y27.791 E30.46912
G1 X51.757 Y27.388 E30.48772
G1 X52.203 Y27.06 E30.50614
G1 X52.709 Y26.814 E30.52485
G1 X53.238 Y26.661 E30.54316
G1 X53.797 Y26.602 E30.56186
G1 X54.355 Y26.641 E30.58046
G1 X54.895 Y26.776 E30.59898
G1 X55.399 Y26.998 E30.61729
G1 X55.865 Y27.313 E30.636
G1 X56.268 Y27.701 E30.65461
G1 X56.596 Y28.147 E30.67302
G1 X56.841 Y28.651 E30.69166
G1 X56.995 Y29.18 E30.70999
G1 X57.054 Y29.739 E30.72868
G1 X57.015 Y30.299 E30.74735
G1 X56.88 Y30.838 E30.76583
G1 X56.658 Y31.343 E30.78418
G1 X56.343 Y31.809 E30.80289
G1 X55.955 Y32.211 E30.82147
G1 X55.51 Y32.54 E30.83988
G1 X55.002 Y32.786 E30.85865
G1 X54.473 Y32.939 E30.87697
G0 F3600 X54.605 Y33.43
G0 X53.863 Y33.454
G0 X53.23 Y33.397
G0 X52.617 Y33.235
G0 X52.037 Y32.968
G0 X49.064 Y30.008
G1 F3000 X49.103 Y29.156 E30.90534
G1 X49.287 Y28.342 E30.93309
G1 X49.6 Y27.59 E30.96018
G1 X50.06 Y26.871 E30.98857
G1 X50.622 Y26.26 E31.01618
G1 X51.275 Y25.756 E31.04362
G1 X52.036 Y25.362 E31.07212
G1 F2877.7 X52.812 Y25.101 E31.10051
G1 F2643.2 X53.011 Y25.036 E31.10841
G0 F3600 X54.494 Y25.024
G1 F2836.9 X55.31 Y25.231 E31.13802
G1 F3000 X56.067 Y25.544 E31.16527
G1 X56.784 Y26.003 E31.19358
G1 X57.396 Y26.565 E31.22122
G1 X57.899 Y27.218 E31.24863
G1 X58.293 Y27.979 E31.27714
G1 X58.538 Y28.755 E31.3042
G1 X58.648 Y29.598 E31.33248
G1 X58.61 Y30.435 E31.36035
G1 X58.425 Y31.254 E31.38827
G1 X58.112 Y32.01 E31.41549
G1 X57.652 Y32.728 E31.44385
G1 X57.09 Y33.339 E31.47146
G1 X56.441 Y33.841 E31.49875
G1 X56.085 Y34.048 E31.51245
G1 X55.569 Y34.283 E31.5313
G1 X54.891 Y34.483 E31.55482
G1 X54.061 Y34.592 E31.58266
G1 X53.215 Y34.552 E31.61083
G1 X52.407 Y34.371 E31.63837
G1 X51.646 Y34.058 E31.66574
G1 X50.923 Y33.594 E31.69431
