;FLAVOR:Marlin
;TIME:37934
;Filament used: 60.3713m
;Layer height: 0.3
;MINX:31.75
;MINY:19.3
;MINZ:0.2
;MAXX:218.15
;MAXY:190.7
;MAXZ:7.4
;Generated with Cura_SteamEngine 99.10.0-Arachne_engine_beta_2
M82 ;absolute extrusion mode
G21 ; set units to millimeters
G90 ; use absolute positioning
M82 ; absolute extrusion mode
M104 S200 ; set extruder temp
M140 S60 ; set bed temp
M190 S60 ; wait for bed temp
M109 S200 ; wait for extruder temp
G28 W ; home all without mesh bed level
G80 ; mesh bed leveling
G92 E0.0 ; reset extruder distance position
G1 Y-3.0 F1000.0 ; go outside print area
G1 X60.0 E9.0 F1000.0 ; intro line
G1 X100.0 E21.5 F1000.0 ; intro line
G92 E0.0 ; reset extruder distance position
G92 E0
G92 E0
G1 F2100 E-0.8
;LAYER_COUNT:25
;LAYER:0
M107
G0 F3600 X32.404 Y20.582 Z0.2
G0 X35.19 Y19.301
;TYPE:SKIRT
G1 F2100 E0
G1 F1800 X214.289 Y19.3 E5.95686
G1 X214.987 Y19.31 E5.98007
G1 X215.49 Y19.357 E5.99688
G1 X215.98 Y19.483 E6.01371
G1 X216.444 Y19.685 E6.03054
G1 X216.87 Y19.957 E6.04735
G1 X217.248 Y20.292 E6.06415
G1 X217.568 Y20.683 E6.08095
G1 X217.823 Y21.12 E6.09778
G1 X218.006 Y21.591 E6.11459
G1 X218.113 Y22.085 E6.1314
G1 X218.149 Y22.74 E6.15322
G1 X218.15 Y186.804 E11.61001
G1 X218.141 Y187.531 E11.63419
G1 X218.095 Y188.034 E11.65099
G1 X217.97 Y188.524 E11.66781
G1 X217.769 Y188.988 E11.68463
G1 X217.498 Y189.415 E11.70145
G1 X217.163 Y189.794 E11.71827
G1 X216.773 Y190.115 E11.73507
G1 X216.337 Y190.371 E11.75189
G1 X215.866 Y190.554 E11.76869
G1 X215.372 Y190.662 E11.78551
G1 X214.71 Y190.699 E11.80757
G1 X35.616 Y190.7 E17.76426
G1 X34.918 Y190.691 E17.78747
G1 X34.414 Y190.644 E17.80431
G1 X33.924 Y190.519 E17.82113
G1 X33.46 Y190.318 E17.83795
G1 X33.034 Y190.047 E17.85474
G1 X32.655 Y189.712 E17.87156
G1 X32.334 Y189.321 E17.88839
G1 X32.079 Y188.885 E17.90519
G1 X31.895 Y188.414 E17.92201
G1 X31.788 Y187.92 E17.93882
G1 X31.751 Y187.244 E17.96134
G1 X31.75 Y23.131 E23.41976
G1 X31.759 Y22.466 E23.44188
G1 X31.806 Y21.962 E23.45871
G1 X31.932 Y21.473 E23.47551
G1 X32.133 Y21.009 E23.49233
G1 X32.404 Y20.582 E23.50915
G1 X32.739 Y20.204 E23.52595
G1 X33.13 Y19.883 E23.54277
G1 X33.567 Y19.628 E23.5596
G1 X34.038 Y19.444 E23.57642
G1 X34.532 Y19.338 E23.59322
G1 X35.19 Y19.301 E23.61514
G1 F2100 E22.81514
;MESH:Body4.stl
G0 F3600 X35.374 Y21.835
G0 X35.374 Y22.924
G0 X39.13 Y25.501
;TYPE:WALL-INNER
G1 F2100 E23.61514
G1 F1800 X39.035 Y25.568 E23.61901
G1 X38.648 Y25.896 E23.63588
G1 X38.327 Y26.221 E23.65108
G1 X37.999 Y26.612 E23.66805
G1 X37.951 Y26.682 E23.67087
G0 F3600 X37.551 Y28.288
G1 F1800 X37.83 Y27.624 E23.69483
G1 X38.326 Y26.842 E23.72563
G1 X38.783 Y26.33 E23.74846
G1 X39.267 Y25.893 E23.77014
G1 X40.052 Y25.389 E23.80117
G1 X40.734 Y25.1 E23.82581
G0 F3600 X39.021 Y28.032
G0 X38.556 Y29.322
G0 X38.558 Y30.696
G0 X39.029 Y31.985
G0 X39.916 Y33.034
G0 X40.987 Y33.662
G0 X43.387 Y34.296
G1 F1800 X42.614 Y34.394 E23.85172
G1 X41.847 Y34.355 E23.87727
G1 X41.099 Y34.183 E23.90279
G1 X40.407 Y33.893 E23.92775
G1 X39.748 Y33.467 E23.95385
G1 X39.192 Y32.951 E23.97908
G1 X38.733 Y32.349 E24.00426
G1 X38.374 Y31.649 E24.03042
G1 F1804.5 X38.154 Y30.932 E24.05531
G1 X38.057 Y30.171 E24.08076
G1 F1800 X38.096 Y29.395 E24.1066
G1 X38.266 Y28.653 E24.13192
G1 X38.557 Y27.957 E24.15701
G1 X38.981 Y27.301 E24.18299
G1 X39.35 Y26.894 E24.20126
G1 X39.732 Y26.545 E24.21847
G1 X40.389 Y26.115 E24.24459
G1 X41.079 Y25.822 E24.26952
G1 X41.679 Y25.666 E24.29014
G1 X42.286 Y25.606 E24.31043
G1 X43.053 Y25.645 E24.33597
G1 X43.801 Y25.817 E24.3615
G1 X44.495 Y26.108 E24.38653
G1 X45.149 Y26.531 E24.41243
G1 X45.708 Y27.049 E24.43778
G1 X46.168 Y27.651 E24.46298
G1 X46.524 Y28.347 E24.48898
G1 X46.747 Y29.067 E24.51405
G1 X46.843 Y29.829 E24.53959
G1 X46.804 Y30.605 E24.56544
G1 X46.634 Y31.346 E24.59072
G1 X46.343 Y32.043 E24.61584
G1 X45.919 Y32.698 E24.6418
G1 X45.487 Y33.169 E24.66305
G1 X45.17 Y33.453 E24.67721
G1 X44.741 Y33.758 E24.69472
G1 X44.1 Y34.075 E24.7185
G1 X43.387 Y34.296 E24.74333
G0 F3600 X43.492 Y34.682
G1 F1800 X42.65 Y34.792 E24.77157
G1 X41.813 Y34.754 E24.79944
G1 X40.995 Y34.569 E24.82733
G1 X40.24 Y34.257 E24.8545
G1 X39.517 Y33.794 E24.88306
G1 X38.91 Y33.234 E24.91053
G1 X38.407 Y32.581 E24.93794
G1 X38.011 Y31.817 E24.96656
G1 F1718.4 X37.749 Y31.042 E24.99507
G1 F1551.7 X37.679 Y30.847 E25.00306
G1 F1525.4 X37.632 Y30.21 E25.02813
G1 F1551.7 X37.661 Y29.356 E25.0611
G1 F1647.6 X37.879 Y28.55 E25.09144
G1 F1800 X38.194 Y27.79 E25.1188
G1 X38.654 Y27.072 E25.14716
G1 X39.066 Y26.612 E25.1677
G1 X39.499 Y26.219 E25.18715
G1 X40.221 Y25.752 E25.21575
G1 X40.974 Y25.436 E25.24291
G1 F1621.6 X41.602 Y25.229 E25.26732
G1 F1528.7 X42.248 Y25.181 E25.29269
G1 F1551.7 X43.09 Y25.21 E25.32519
G1 F1460.4 X43.485 Y25.26 E25.34152
G1 F1578.9 X44.252 Y25.556 E25.37269
G1 F1800 X45.006 Y25.943 E25.40088
G1 X45.665 Y26.444 E25.42841
G1 X46.23 Y27.049 E25.45594
G1 X46.698 Y27.771 E25.48456
G1 X47.014 Y28.525 E25.51175
G1 X47.201 Y29.341 E25.5396
G1 X47.25 Y29.998 E25.56151
G1 X47.202 Y30.64 E25.58292
G1 X47.02 Y31.449 E25.6105
G1 X46.706 Y32.21 E25.63788
G1 X46.508 Y32.556 E25.65114
G1 X46.204 Y32.987 E25.66868
G1 X45.771 Y33.451 E25.68979
G1 X45.403 Y33.778 E25.70617
G1 X44.96 Y34.093 E25.72425
G1 X44.268 Y34.439 E25.74998
G1 X43.492 Y34.682 E25.77702
G0 F3600 X43.935 Y33.72
G0 X43.932 Y33.712
G1 F1800 X43.281 Y33.911 E25.79966
G1 X42.579 Y33.995 E25.82318
G1 X41.882 Y33.957 E25.8464
G1 X41.203 Y33.797 E25.8696
G1 X40.573 Y33.53 E25.89236
G1 X39.978 Y33.14 E25.91602
G1 X39.474 Y32.667 E25.93901
G1 X39.058 Y32.117 E25.96194
G1 X38.737 Y31.481 E25.98564
G1 F1804.5 X38.54 Y30.827 E26.0083
G1 X38.455 Y30.135 E26.03143
G1 F1800 X38.495 Y29.43 E26.05492
G1 X38.652 Y28.756 E26.07793
G1 X38.921 Y28.124 E26.10078
G1 X39.308 Y27.531 E26.12433
G1 X39.783 Y27.024 E26.14744
G1 X40.333 Y26.608 E26.17038
G1 X40.967 Y26.288 E26.194
G1 X41.619 Y26.089 E26.21667
G1 X42.321 Y26.005 E26.24018
G1 X43.018 Y26.044 E26.2634
G1 X43.697 Y26.203 E26.2866
G1 X44.328 Y26.471 E26.3094
G1 X44.919 Y26.858 E26.3329
G1 X45.426 Y27.333 E26.356
G1 X45.842 Y27.883 E26.37894
G1 X46.161 Y28.515 E26.40249
G1 X46.361 Y29.173 E26.42536
G1 X46.445 Y29.865 E26.44854
G1 X46.405 Y30.57 E26.47203
G1 X46.247 Y31.243 E26.49502
G1 X45.979 Y31.876 E26.51789
G1 X45.592 Y32.469 E26.54144
G1 X45.204 Y32.887 E26.56041
G1 X44.938 Y33.128 E26.57235
G1 X44.522 Y33.423 E26.58931
G1 X43.932 Y33.712 E26.61116
G0 F3600 X43.175 Y33.525
G1 F1800 X42.544 Y33.597 E26.63228
G1 X41.916 Y33.558 E26.65321
G1 X41.307 Y33.41 E26.67405
G1 X40.74 Y33.166 E26.69459
G1 X40.209 Y32.813 E26.71579
G1 X39.756 Y32.383 E26.73657
G1 X39.384 Y31.885 E26.75724
G1 X39.101 Y31.313 E26.77847
G1 F1804.5 X38.926 Y30.722 E26.79892
G1 X38.854 Y30.099 E26.81972
G1 F1800 X38.893 Y29.465 E26.84085
G1 X39.039 Y28.86 E26.86155
G1 X39.285 Y28.291 E26.88217
G1 X39.636 Y27.761 E26.90331
G1 X40.067 Y27.306 E26.92416
G1 X40.565 Y26.934 E26.94483
G1 X41.135 Y26.651 E26.966
G1 X41.725 Y26.475 E26.98647
G1 X42.356 Y26.403 E27.0076
G1 X42.984 Y26.442 E27.02853
G1 X43.593 Y26.59 E27.04937
G1 X44.16 Y26.835 E27.06991
G1 X44.689 Y27.186 E27.09103
G1 X45.144 Y27.617 E27.11187
G1 X45.516 Y28.115 E27.13255
G1 X45.798 Y28.683 E27.15364
G1 X45.975 Y29.278 E27.17429
G1 X46.046 Y29.901 E27.19514
G1 X46.007 Y30.535 E27.21627
G1 X45.861 Y31.14 E27.23697
G1 X45.615 Y31.709 E27.25759
G1 X45.264 Y32.239 E27.27873
G1 X44.92 Y32.605 E27.29544
G1 X44.337 Y33.065 E27.32014
G1 X43.764 Y33.349 E27.34141
G1 X43.175 Y33.525 E27.36185
G0 F3600 X43.069 Y33.139
G1 F1800 X42.509 Y33.198 E27.38058
G1 X41.95 Y33.159 E27.39922
G1 X41.411 Y33.024 E27.4177
G1 X40.906 Y32.802 E27.43605
G1 X40.44 Y32.486 E27.45478
G1 X40.038 Y32.099 E27.47333
G1 X39.71 Y31.653 E27.49175
G1 X39.464 Y31.145 E27.51052
G1 F1804.5 X39.312 Y30.617 E27.52875
G1 X39.252 Y30.063 E27.54724
G1 F1800 X39.292 Y29.5 E27.56601
G1 X39.426 Y28.963 E27.58442
G1 X39.648 Y28.457 E27.6028
G1 X39.963 Y27.991 E27.62151
G1 X40.351 Y27.588 E27.64011
G1 X40.797 Y27.26 E27.65853
G1 X41.303 Y27.014 E27.67724
G1 X41.831 Y26.862 E27.69551
G1 X42.391 Y26.802 E27.71425
G1 X42.95 Y26.841 E27.73288
G1 X43.489 Y26.976 E27.75136
G1 X43.993 Y27.198 E27.76968
G1 X44.459 Y27.513 E27.78839
G1 X44.862 Y27.901 E27.807
G1 X45.19 Y28.347 E27.82541
G1 X45.435 Y28.851 E27.84405
G1 X45.589 Y29.383 E27.86247
G1 X45.648 Y29.937 E27.881
G1 X45.608 Y30.5 E27.89977
G1 X45.474 Y31.037 E27.91818
G1 X45.252 Y31.543 E27.93656
G1 X44.937 Y32.009 E27.95527
G1 X44.549 Y32.411 E27.97385
G1 X44.104 Y32.74 E27.99226
G1 X43.596 Y32.986 E28.01103
G1 X43.069 Y33.139 E28.02928
G0 F3600 X43.282 Y33.92
G0 X42.457 Y33.955
G0 X37.951 Y33.32
G1 F1800 X38.018 Y33.415 E28.03315
G1 X38.346 Y33.802 E28.05002
G1 X38.671 Y34.123 E28.06521
G1 X39.056 Y34.448 E28.08197
G1 X39.426 Y34.708 E28.09701
G1 X39.908 Y34.985 E28.1155
G1 X40.318 Y35.173 E28.1305
G1 X41.222 Y35.459 E28.16204
G1 X41.745 Y35.551 E28.1797
G1 X42.471 Y35.6 E28.2039
G1 X43.174 Y35.549 E28.22735
G1 X43.704 Y35.453 E28.24526
G1 X44.463 Y35.225 E28.27162
G1 X45.014 Y34.975 E28.29174
G1 X45.5 Y34.692 E28.31045
G1 X45.946 Y34.371 E28.32873
G1 X46.338 Y34.015 E28.34634
G1 X46.843 Y33.468 E28.3711
G1 X47.162 Y33.016 E28.3895
G1 X47.433 Y32.543 E28.40763
G1 X47.741 Y31.831 E28.43343
G1 X47.909 Y31.22 E28.45451
G1 X47.999 Y30.71 E28.47173
G1 X48.05 Y30 E28.49541
G1 X47.997 Y29.269 E28.51979
G1 X47.905 Y28.752 E28.53725
G1 X47.786 Y28.315 E28.55232
G1 X47.613 Y27.843 E28.56904
G1 X47.424 Y27.434 E28.58402
G1 X47.145 Y26.954 E28.60249
G1 X46.882 Y26.585 E28.61756
G1 X46.554 Y26.198 E28.63443
G1 X46.229 Y25.877 E28.64963
G1 X45.838 Y25.549 E28.6666
G1 X45.768 Y25.501 E28.66942
G0 F3600 X44.163 Y25.101
G1 F1800 X44.829 Y25.381 E28.69345
G1 X45.608 Y25.876 E28.72415
G1 X46.272 Y26.482 E28.75405
G1 X46.819 Y27.187 E28.78373
G1 X47.25 Y28.011 E28.81466
G1 X47.519 Y28.857 E28.84418
G1 X47.64 Y29.756 E28.87435
G1 X47.641 Y30.22 E28.88979
G1 X47.569 Y30.909 E28.91283
G1 X47.407 Y31.552 E28.93488
G1 X47.07 Y32.376 E28.96449
G1 X46.835 Y32.786 E28.98021
G1 X46.523 Y33.227 E28.99818
G1 X46.055 Y33.733 E29.0211
G1 X45.635 Y34.104 E29.03974
G1 X45.178 Y34.428 E29.05837
G1 X44.436 Y34.802 E29.08601
G1 X43.598 Y35.068 E29.11525
G1 X43.139 Y35.151 E29.13077
G1 X42.469 Y35.2 E29.15311
G1 X41.779 Y35.152 E29.17612
G1 X40.891 Y34.955 E29.20637
G1 X40.074 Y34.621 E29.23572
G1 X39.286 Y34.121 E29.26676
G1 X38.628 Y33.518 E29.29645
G1 X38.081 Y32.813 E29.32613
G1 X37.648 Y31.985 E29.35721
G1 X37.551 Y31.716 E29.36672
G0 F3600 X40.482 Y33.429
G0 X41.771 Y33.895
G0 X43.015 Y33.907
G0 X44.349 Y33.528
G0 X43.839 Y32.433
;TYPE:WALL-OUTER
G1 F1800 X43.397 Y32.634 E29.38287
G1 X42.928 Y32.76 E29.39902
G1 X42.438 Y32.8 E29.41537
G1 X41.95 Y32.755 E29.43167
G1 X41.483 Y32.626 E29.44778
G1 X41.04 Y32.42 E29.46403
G1 X40.645 Y32.137 E29.4802
G1 X40.299 Y31.79 E29.49649
G1 X40.017 Y31.388 E29.51283
G1 X39.815 Y30.946 E29.52899
G1 X39.691 Y30.478 E29.54509
G1 X39.65 Y30.027 E29.56015
G1 X39.696 Y29.501 E29.57772
G1 X39.824 Y29.034 E29.59382
G1 X40.03 Y28.593 E29.61001
G1 X40.313 Y28.195 E29.62625
G1 X40.66 Y27.849 E29.64255
G1 X41.061 Y27.567 E29.65886
G1 X41.503 Y27.366 E29.67501
G1 X41.972 Y27.24 E29.69116
G1 X42.462 Y27.2 E29.70751
G1 X42.95 Y27.245 E29.72381
G1 X43.417 Y27.374 E29.73992
G1 X43.857 Y27.58 E29.75608
G1 X44.255 Y27.863 E29.77233
G1 X44.601 Y28.21 E29.78862
G1 X44.883 Y28.611 E29.80493
G1 X45.084 Y29.051 E29.82102
G1 X45.209 Y29.522 E29.83723
G1 X45.25 Y30.01 E29.85351
G1 X45.204 Y30.499 E29.86985
G1 X45.076 Y30.966 E29.88596
G1 X44.87 Y31.407 E29.90214
G1 X44.591 Y31.802 E29.91823
G1 X44.245 Y32.147 E29.93448
G1 X43.839 Y32.433 E29.951
G0 F3600 X43.657 Y32.515
G0 X44.168 Y33.612
G0 X38.751 Y174.788
;TYPE:WALL-INNER
G1 F1800 X38.94 Y174.653 E29.95872
G1 X39.548 Y174.3 E29.98211
G1 X39.958 Y174.11 E29.99714
G1 X40.55 Y173.894 E30.0181
G1 X40.985 Y173.775 E30.0331
G1 X41.656 Y173.654 E30.05577
G1 X42.455 Y173.6 E30.08241
G1 X43.224 Y173.652 E30.10804
G1 X43.886 Y173.769 E30.1304
G1 X44.541 Y173.952 E30.15302
G1 X45.33 Y174.291 E30.18159
G1 X45.799 Y174.548 E30.19937
G1 X46.297 Y174.894 E30.21954
G1 X46.727 Y175.245 E30.238
G1 X47.117 Y175.631 E30.25625
G1 X47.459 Y176.021 E30.27351
G1 X47.796 Y176.49 E30.29272
G1 X48.062 Y176.921 E30.30956
G1 X48.339 Y177.506 E30.33109
G1 X48.556 Y178.103 E30.35222
G1 X48.746 Y178.848 E30.37779
G1 X48.835 Y179.648 E30.40456
G1 X48.836 Y180.326 E30.42711
G1 X48.796 Y180.78 E30.44227
G1 X48.682 Y181.427 E30.46412
G1 X48.567 Y181.862 E30.47909
G1 X48.349 Y182.466 E30.50044
G1 X48.161 Y182.876 E30.51544
G1 X47.817 Y183.475 E30.53842
G1 X47.659 Y183.7 E30.54756
G0 F3600 X44.1 Y184.076
G1 F1804.5 X43.383 Y184.296 E30.57245
G1 X42.619 Y184.394 E30.598
G1 F1800 X41.84 Y184.354 E30.62394
G1 X41.096 Y184.182 E30.64934
G1 X40.407 Y183.894 E30.67418
G1 X39.748 Y183.467 E30.7003
G1 X39.344 Y183.1 E30.71845
G1 X38.995 Y182.718 E30.73566
G1 X38.565 Y182.06 E30.7618
G1 X38.271 Y181.366 E30.78687
G1 X38.117 Y180.77 E30.80735
G1 X38.057 Y180.171 E30.82737
G1 X38.096 Y179.394 E30.85325
G1 X38.266 Y178.653 E30.87853
G1 X38.557 Y177.957 E30.90362
G1 X38.981 Y177.301 E30.9296
G1 X39.499 Y176.742 E30.95495
G1 X40.101 Y176.282 E30.98015
G1 X40.799 Y175.925 E31.00622
G1 X41.514 Y175.704 E31.03112
G1 X42.285 Y175.606 E31.05697
G1 X43.053 Y175.645 E31.08254
G1 X43.801 Y175.817 E31.10807
G1 X44.494 Y176.108 E31.13307
G1 X45.148 Y176.531 E31.15897
G1 X45.619 Y176.963 E31.18023
G1 X45.904 Y177.282 E31.19446
G1 X46.209 Y177.712 E31.21199
G1 X46.524 Y178.347 E31.23557
G1 X46.746 Y179.066 E31.2606
G1 X46.843 Y179.829 E31.28618
G1 X46.804 Y180.605 E31.31202
G1 X46.634 Y181.346 E31.33731
G1 X46.343 Y182.043 E31.36243
G1 X45.919 Y182.698 E31.38838
G1 X45.401 Y183.258 E31.41375
G1 X44.802 Y183.716 E31.43883
G1 X44.1 Y184.076 E31.46507
G0 F3600 X44.167 Y184.899
G1 F1800 X44.847 Y184.612 E31.48962
G1 X45.635 Y184.104 E31.5208
G1 X46.29 Y183.497 E31.55051
G1 X46.835 Y182.786 E31.5803
G1 X47.258 Y181.966 E31.61099
G1 X47.523 Y181.117 E31.64057
G1 X47.641 Y180.22 E31.67066
G1 X47.64 Y179.756 E31.6861
G1 X47.518 Y178.855 E31.71634
G1 X47.25 Y178.011 E31.74579
G1 X46.879 Y177.275 E31.7732
G1 X46.556 Y176.817 E31.79184
G1 X46.183 Y176.395 E31.81058
G1 X45.677 Y175.927 E31.8335
G1 X45.236 Y175.615 E31.85147
G1 X44.828 Y175.381 E31.86711
G1 X44.16 Y175.09 E31.89135
G1 X43.574 Y174.928 E31.91157
G1 X43.121 Y174.848 E31.92687
G1 X42.215 Y174.809 E31.95703
G1 X41.302 Y174.932 E31.98767
G1 X40.462 Y175.199 E32.01699
G1 X39.637 Y175.631 E32.04796
G1 X38.932 Y176.178 E32.07764
G1 X38.326 Y176.842 E32.10754
G1 X37.83 Y177.624 E32.13834
G1 X37.551 Y178.288 E32.16229
G0 F3600 X39.029 Y181.985
G0 X39.916 Y183.034
G0 X43.298 Y184.771
G1 F1525.4 X42.657 Y184.819 E32.18752
G1 F1551.7 X41.802 Y184.789 E32.22053
G1 F1647.6 X40.992 Y184.568 E32.25104
G1 F1800 X40.241 Y184.258 E32.27806
G1 X39.517 Y183.794 E32.30666
G1 X39.062 Y183.384 E32.32703
G1 X38.669 Y182.951 E32.34648
G1 X38.202 Y182.228 E32.37511
G1 X37.885 Y181.47 E32.40243
G1 F1618 X37.679 Y180.847 E32.42671
G1 F1525.4 X37.632 Y180.21 E32.45178
G1 F1551.7 X37.661 Y179.356 E32.48475
G1 F1647.6 X37.88 Y178.549 E32.51513
G1 F1800 X38.194 Y177.79 E32.54245
G1 X38.654 Y177.072 E32.57082
G1 X39.216 Y176.46 E32.59845
G1 X39.869 Y175.957 E32.62587
G1 X40.631 Y175.562 E32.65441
G1 X41.408 Y175.318 E32.6815
G1 X42.25 Y175.208 E32.70974
G1 X43.087 Y175.246 E32.73761
G1 X43.905 Y175.431 E32.76551
G1 X44.661 Y175.744 E32.79272
G1 X45.378 Y176.204 E32.82105
G1 X45.901 Y176.679 E32.84455
G1 X46.23 Y177.05 E32.86104
G1 X46.544 Y177.493 E32.8791
G1 X46.887 Y178.179 E32.90461
G1 X47.132 Y178.96 E32.93184
G1 X47.242 Y179.793 E32.95978
G1 X47.202 Y180.64 E32.98799
G1 X47.02 Y181.45 E33.0156
G1 X46.707 Y182.209 E33.04291
G1 X46.247 Y182.928 E33.0713
G1 X45.684 Y183.54 E33.09895
G1 X45.035 Y184.042 E33.12624
G1 X44.268 Y184.439 E33.15497
G1 F1718.4 X43.493 Y184.701 E33.18347
G1 F1551.7 X43.298 Y184.771 E33.19146
G0 F3600 X43.935 Y183.721
G0 X43.932 Y183.713
G1 F1804.5 X43.278 Y183.91 E33.21413
G1 X42.583 Y183.995 E33.23736
