;FLAVOR:Marlin
;TIME:38764
;Filament used: 62.2198m
;Layer height: 0.3
;MINX:27.2
;MINY:14.7
;MINZ:0.2
;MAXX:222.8
;MAXY:195.3
;MAXZ:7.4
;Generated with Cura_SteamEngine 99.10.0-Arachne_engine_beta_2
M82 ;absolute extrusion mode
G21 ; set units to millimeters
G90 ; use absolute positioning
M82 ; absolute extrusion mode
M104 S210 ; set extruder temp
M140 S60 ; set bed temp
M190 S60 ; wait for bed temp
M109 S210 ; wait for extruder temp
G28 W ; home all without mesh bed level
G80 ; mesh bed leveling
G92 E0.0 ; reset extruder distance position
G1 Y-3.0 F1000.0 ; go outside print area
G1 X60.0 E9.0 F1000.0 ; intro line
G1 X100.0 E21.5 F1000.0 ; intro line
G92 E0.0 ; reset extruder distance position
G92 E0
G92 E0
G1 F2100 E-0.8
;LAYER_COUNT:25
;LAYER:0
M107
G0 F3600 X28.597 Y18.046 Z0.2
G0 X35 Y16.7
;TYPE:SKIRT
G1 F2100 E0
G1 F1800 X215 Y16.7 E5.98682
G1 X215.68 Y16.74 E6.00948
G1 X216.35 Y16.859 E6.03211
G1 X217.002 Y17.056 E6.05477
G1 X217.626 Y17.328 E6.07741
G1 X218.214 Y17.672 E6.10007
G1 X218.758 Y18.082 E6.12272
G1 X219.249 Y18.553 E6.14535
G1 X219.683 Y19.078 E6.16801
G1 X220.052 Y19.65 E6.19065
G1 X220.351 Y20.262 E6.2133
G1 X220.576 Y20.904 E6.23593
G1 X220.725 Y21.569 E6.25859
G1 X220.8 Y22.5 E6.28966
G1 X220.8 Y187.5 E11.77758
G1 X220.76 Y188.18 E11.80024
G1 X220.641 Y188.85 E11.82287
G1 X220.444 Y189.502 E11.84553
G1 X220.172 Y190.126 E11.86817
G1 X219.828 Y190.714 E11.89082
G1 X219.418 Y191.258 E11.91348
G1 X218.947 Y191.749 E11.93611
G1 X218.422 Y192.183 E11.95877
G1 X217.85 Y192.552 E11.98141
G1 X217.238 Y192.851 E12.00406
G1 X216.596 Y193.076 E12.02669
G1 X215.931 Y193.225 E12.04935
G1 X215 Y193.3 E12.08042
G1 X35 Y193.3 E18.06724
G1 X34.32 Y193.26 E18.0899
G1 X33.65 Y193.141 E18.11253
G1 X32.998 Y192.944 E18.13519
G1 X32.374 Y192.672 E18.15783
G1 X31.786 Y192.328 E18.18048
G1 X31.242 Y191.918 E18.20314
G1 X30.751 Y191.447 E18.22577
G1 X30.317 Y190.922 E18.24843
G1 X29.948 Y190.35 E18.27107
G1 X29.649 Y189.738 E18.29372
G1 X29.424 Y189.096 E18.31635
G1 X29.275 Y188.431 E18.33901
G1 X29.2 Y187.5 E18.37008
G1 X29.2 Y22.5 E23.858
G1 X29.24 Y21.82 E23.88066
G1 X29.359 Y21.15 E23.90329
G1 X29.556 Y20.498 E23.92594
G1 X29.828 Y19.874 E23.94858
G1 X30.172 Y19.286 E23.97124
G1 X30.582 Y18.742 E23.9939
G1 X31.053 Y18.251 E24.01653
G1 X31.578 Y17.817 E24.03918
G1 X32.15 Y17.448 E24.06182
G1 X32.762 Y17.149 E24.08448
G1 X33.404 Y16.924 E24.10711
G1 X34.069 Y16.775 E24.12977
G1 X35 Y16.7 E24.16084
G0 F3600 X35 Y16.3
G1 F1800 X215 Y16.3 E30.14766
G1 X215.703 Y16.34 E30.17108
G1 X216.397 Y16.459 E30.1945
G1 X217.072 Y16.657 E30.2179
G1 X217.721 Y16.929 E30.2413
G1 X218.335 Y17.274 E30.26473
G1 X218.906 Y17.685 E30.28813
G1 X219.427 Y18.159 E30.31155
G1 X219.891 Y18.689 E30.33498
G1 X220.291 Y19.268 E30.35839
G1 X220.623 Y19.889 E30.38181
G1 X220.883 Y20.543 E30.40522
G1 X221.067 Y21.223 E30.42865
G1 X221.173 Y21.919 E30.45206
G1 X221.2 Y22.5 E30.47141
G1 X221.2 Y187.5 E35.95933
G1 X221.16 Y188.203 E35.98275
G1 X221.041 Y188.897 E36.00617
G1 X220.843 Y189.572 E36.02957
G1 X220.571 Y190.221 E36.05297
G1 X220.226 Y190.835 E36.0764
G1 X219.815 Y191.406 E36.0998
G1 X219.341 Y191.927 E36.12322
G1 X218.811 Y192.391 E36.14665
G1 X218.232 Y192.791 E36.17006
G1 X217.611 Y193.123 E36.19348
G1 X216.957 Y193.383 E36.21689
G1 X216.277 Y193.567 E36.24032
G1 X215.581 Y193.673 E36.26373
G1 X215 Y193.7 E36.28308
G1 X35 Y193.7 E42.2699
G1 X34.297 Y193.66 E42.29332
G1 X33.603 Y193.541 E42.31674
G1 X32.928 Y193.343 E42.34014
G1 X32.279 Y193.071 E42.36354
G1 X31.665 Y192.726 E42.38697
G1 X31.094 Y192.315 E42.41037
G1 X30.573 Y191.841 E42.4338
G1 X30.109 Y191.311 E42.45722
G1 X29.709 Y190.732 E42.48063
G1 X29.377 Y190.111 E42.50405
G1 X29.117 Y189.457 E42.52746
G1 X28.933 Y188.777 E42.55089
G1 X28.827 Y188.081 E42.57431
G1 X28.8 Y187.5 E42.59365
G1 X28.8 Y22.5 E48.08157
G1 X28.84 Y21.797 E48.10499
G1 X28.959 Y21.103 E48.12841
G1 X29.157 Y20.428 E48.15181
G1 X29.429 Y19.779 E48.17521
G1 X29.774 Y19.165 E48.19864
G1 X30.185 Y18.594 E48.22204
G1 X30.659 Y18.073 E48.24546
G1 X31.189 Y17.609 E48.26889
G1 X31.768 Y17.209 E48.2923
G1 X32.389 Y16.877 E48.31572
G1 X33.043 Y16.617 E48.33913
G1 X33.723 Y16.433 E48.36256
G1 X34.419 Y16.327 E48.38598
G1 X35 Y16.3 E48.40532
G0 F3600 X35 Y17.1
G1 F1800 X215 Y17.1 E54.39214
G1 X215.656 Y17.14 E54.414
G1 X216.302 Y17.259 E54.43585
G1 X216.929 Y17.456 E54.45771
G1 X217.527 Y17.728 E54.47956
G1 X218.088 Y18.07 E54.50141
G1 X218.603 Y18.478 E54.52327
G1 X219.065 Y18.945 E54.54512
G1 X219.466 Y19.465 E54.56696
G1 X219.802 Y20.029 E54.58879
G1 X220.066 Y20.631 E54.61065
G1 X220.256 Y21.26 E54.63251
G1 X220.367 Y21.907 E54.65434
G1 X220.4 Y22.5 E54.6741
G1 X220.4 Y187.5 E60.16202
G1 X220.36 Y188.156 E60.18388
G1 X220.241 Y188.802 E60.20573
G1 X220.044 Y189.429 E60.22758
G1 X219.772 Y190.027 E60.24944
G1 X219.43 Y190.588 E60.27129
G1 X219.022 Y191.103 E60.29314
G1 X218.555 Y191.565 E60.31499
G1 X218.035 Y191.966 E60.33683
G1 X217.471 Y192.302 E60.35867
G1 X216.869 Y192.566 E60.38053
G1 X216.24 Y192.756 E60.40238
G1 X215.593 Y192.867 E60.42422
G1 X215 Y192.9 E60.44397
G1 X35 Y192.9 E66.4308
G1 X34.344 Y192.86 E66.45265
G1 X33.698 Y192.741 E66.4745
G1 X33.071 Y192.544 E66.49636
G1 X32.473 Y192.272 E66.51821
G1 X31.912 Y191.93 E66.54006
G1 X31.397 Y191.522 E66.56192
G1 X30.935 Y191.055 E66.58377
G1 X30.534 Y190.535 E66.60561
G1 X30.198 Y189.971 E66.62744
G1 X29.934 Y189.369 E66.64931
G1 X29.744 Y188.74 E66.67116
G1 X29.633 Y188.093 E66.69299
G1 X29.6 Y187.5 E66.71275
G1 X29.6 Y22.5 E72.20067
G1 X29.64 Y21.844 E72.22253
G1 X29.759 Y21.198 E72.24438
G1 X29.956 Y20.571 E72.26624
G1 X30.228 Y19.973 E72.28809
G1 X30.57 Y19.412 E72.30994
G1 X30.978 Y18.897 E72.33179
G1 X31.445 Y18.435 E72.35364
G1 X31.965 Y18.034 E72.37548
G1 X32.529 Y17.698 E72.39732
G1 X33.131 Y17.434 E72.41918
G1 X33.76 Y17.244 E72.44103
G1 X34.407 Y17.133 E72.46287
G1 X35 Y17.1 E72.48262
G0 F3600 X35 Y17.5
G1 F1800 X215 Y17.5 E78.46945
G1 X215.631 Y17.54 E78.49047
G1 X216.252 Y17.659 E78.51151
G1 X216.852 Y17.856 E78.53251
G1 X217.424 Y18.127 E78.55356
G1 X217.956 Y18.467 E78.57456
G1 X218.441 Y18.873 E78.5956
G1 X218.871 Y19.336 E78.61661
G1 X219.24 Y19.85 E78.63766
G1 X219.54 Y20.406 E78.65867
G1 X219.768 Y20.995 E78.67968
G1 X219.92 Y21.609 E78.70072
G1 X220 Y22.5 E78.73047
G1 X220 Y187.5 E84.21839
G1 X219.96 Y188.131 E84.23942
G1 X219.841 Y188.752 E84.26045
G1 X219.644 Y189.352 E84.28146
G1 X219.373 Y189.924 E84.30251
G1 X219.033 Y190.456 E84.32351
G1 X218.627 Y190.941 E84.34455
G1 X218.164 Y191.371 E84.36556
G1 X217.65 Y191.74 E84.38661
G1 X217.094 Y192.04 E84.40762
G1 X216.505 Y192.268 E84.42863
G1 X215.891 Y192.42 E84.44966
G1 X215 Y192.5 E84.47942
G1 X35 Y192.5 E90.46624
G1 X34.369 Y192.46 E90.48727
G1 X33.748 Y192.341 E90.5083
G1 X33.148 Y192.144 E90.52931
G1 X32.576 Y191.873 E90.55036
G1 X32.044 Y191.533 E90.57136
G1 X31.559 Y191.127 E90.5924
G1 X31.129 Y190.664 E90.61341
G1 X30.76 Y190.15 E90.63446
G1 X30.46 Y189.594 E90.65547
G1 X30.232 Y189.005 E90.67648
G1 X30.08 Y188.391 E90.69751
G1 X30 Y187.5 E90.72727
G1 X30 Y22.5 E96.21519
G1 X30.04 Y21.869 E96.23622
G1 X30.159 Y21.248 E96.25725
G1 X30.356 Y20.648 E96.27825
G1 X30.627 Y20.076 E96.29931
G1 X30.967 Y19.544 E96.32031
G1 X31.373 Y19.059 E96.34134
G1 X31.836 Y18.629 E96.36236
G1 X32.35 Y18.26 E96.3834
G1 X32.906 Y17.96 E96.40442
G1 X33.495 Y17.732 E96.42542
G1 X34.109 Y17.58 E96.44646
G1 X35 Y17.5 E96.47622
G0 F3600 X35 Y17.9
G1 F1800 X215 Y17.9 E102.46304
G1 X215.605 Y17.94 E102.48321
G1 X216.199 Y18.059 E102.50336
G1 X216.773 Y18.255 E102.52353
G1 X217.316 Y18.526 E102.54371
G1 X217.819 Y18.865 E102.56389
G1 X218.272 Y19.267 E102.58403
G1 X218.669 Y19.725 E102.60419
G1 X219.002 Y20.232 E102.62437
G1 X219.266 Y20.778 E102.64454
G1 X219.455 Y21.354 E102.6647
G1 X219.567 Y21.95 E102.68487
G1 X219.6 Y22.5 E102.7032
G1 X219.6 Y187.5 E108.19112
G1 X219.56 Y188.105 E108.21129
G1 X219.441 Y188.699 E108.23143
G1 X219.245 Y189.273 E108.25161
G1 X218.974 Y189.816 E108.27179
G1 X218.635 Y190.319 E108.29197
G1 X218.233 Y190.772 E108.31211
G1 X217.775 Y191.169 E108.33227
G1 X217.268 Y191.502 E108.35245
G1 X216.722 Y191.766 E108.37262
G1 X216.146 Y191.955 E108.39278
G1 X215.55 Y192.067 E108.41295
G1 X215 Y192.1 E108.43128
G1 X35 Y192.1 E114.4181
G1 X34.395 Y192.06 E114.43827
G1 X33.801 Y191.941 E114.45842
G1 X33.227 Y191.745 E114.47859
G1 X32.684 Y191.474 E114.49877
G1 X32.181 Y191.135 E114.51895
G1 X31.728 Y190.733 E114.53909
G1 X31.331 Y190.275 E114.55925
G1 X30.998 Y189.768 E114.57943
G1 X30.734 Y189.222 E114.5996
G1 X30.545 Y188.646 E114.61976
G1 X30.433 Y188.05 E114.63993
G1 X30.4 Y187.5 E114.65826
G1 X30.4 Y22.5 E120.14618
G1 X30.44 Y21.895 E120.16635
G1 X30.559 Y21.301 E120.18649
G1 X30.755 Y20.727 E120.20667
G1 X31.026 Y20.184 E120.22685
G1 X31.365 Y19.681 E120.24703
G1 X31.767 Y19.228 E120.26717
G1 X32.225 Y18.831 E120.28733
G1 X32.732 Y18.498 E120.30751
G1 X33.278 Y18.234 E120.32768
G1 X33.854 Y18.045 E120.34784
G1 X34.45 Y17.933 E120.36801
G1 X35 Y17.9 E120.38634
G0 F3600 X35 Y18.3
G1 F1800 X215 Y18.3 E126.37316
G1 X215.578 Y18.34 E126.39243
G1 X216.145 Y18.459 E126.4117
G1 X216.69 Y18.655 E126.43096
G1 X217.203 Y18.924 E126.45023
G1 X217.674 Y19.261 E126.46949
G1 X218.094 Y19.66 E126.48876
G1 X218.456 Y20.113 E126.50805
G1 X218.751 Y20.611 E126.5273
G1 X218.976 Y21.145 E126.54657
G1 X219.124 Y21.705 E126.56584
G1 X219.2 Y22.5 E126.5924
G1 X219.2 Y187.5 E132.08032
G1 X219.16 Y188.078 E132.09959
G1 X219.041 Y188.645 E132.11886
G1 X218.845 Y189.19 E132.13812
G1 X218.576 Y189.703 E132.15739
G1 X218.239 Y190.174 E132.17665
G1 X217.84 Y190.594 E132.19592
G1 X217.387 Y190.956 E132.21521
G1 X216.889 Y191.251 E132.23446
G1 X216.355 Y191.476 E132.25373
G1 X215.795 Y191.624 E132.273
G1 X215 Y191.7 E132.29956
G1 X35 Y191.7 E138.28638
G1 X34.422 Y191.66 E138.30565
G1 X33.855 Y191.541 E138.32492
G1 X33.31 Y191.345 E138.34419
G1 X32.797 Y191.076 E138.36345
G1 X32.326 Y190.739 E138.38272
G1 X31.906 Y190.34 E138.40198
G1 X31.544 Y189.887 E138.42127
G1 X31.249 Y189.389 E138.44052
G1 X31.024 Y188.855 E138.45979
G1 X30.876 Y188.295 E138.47906
G1 X30.8 Y187.5 E138.50562
G1 X30.8 Y22.5 E143.99354
G1 X30.84 Y21.922 E144.01281
G1 X30.959 Y21.355 E144.03208
G1 X31.155 Y20.81 E144.05135
G1 X31.424 Y20.297 E144.07061
G1 X31.761 Y19.826 E144.08988
G1 X32.16 Y19.406 E144.10914
G1 X32.613 Y19.044 E144.12843
G1 X33.111 Y18.749 E144.14768
G1 X33.645 Y18.524 E144.16695
G1 X34.205 Y18.376 E144.18622
G1 X35 Y18.3 E144.21278
G0 F3600 X35 Y18.7
G1 F1800 X215 Y18.7 E150.19961
G1 X215.55 Y18.74 E150.21795
G1 X216.088 Y18.859 E150.23627
G1 X216.603 Y19.055 E150.2546
G1 X217.084 Y19.323 E150.27292
G1 X217.522 Y19.657 E150.29124
G1 X217.906 Y20.052 E150.30956
G1 X218.23 Y20.498 E150.32789
G1 X218.485 Y20.986 E150.34621
G1 X218.668 Y21.506 E150.36454
G1 X218.773 Y22.047 E150.38287
G1 X218.8 Y22.5 E150.39797
G1 X218.8 Y187.5 E155.88589
G1 X218.76 Y188.05 E155.90423
G1 X218.641 Y188.588 E155.92256
G1 X218.445 Y189.103 E155.94088
G1 X218.177 Y189.584 E155.9592
G1 X217.843 Y190.022 E155.97752
G1 X217.448 Y190.406 E155.99584
G1 X217.002 Y190.73 E156.01417
G1 X216.514 Y190.985 E156.03249
G1 X215.994 Y191.168 E156.05082
G1 X215.453 Y191.273 E156.06915
G1 X215 Y191.3 E156.08425
G1 X35 Y191.3 E162.07107
G1 X34.45 Y191.26 E162.08941
G1 X33.912 Y191.141 E162.10774
G1 X33.397 Y190.945 E162.12607
G1 X32.916 Y190.677 E162.14438
G1 X32.478 Y190.343 E162.1627
G1 X32.094 Y189.948 E162.18102
G1 X31.77 Y189.502 E162.19936
G1 X31.515 Y189.014 E162.21767
G1 X31.332 Y188.494 E162.23601
G1 X31.227 Y187.953 E162.25434
G1 X31.2 Y187.5 E162.26943
G1 X31.2 Y22.5 E167.75735
G1 X31.24 Y21.95 E167.77569
G1 X31.359 Y21.412 E167.79402
G1 X31.555 Y20.897 E167.81235
G1 X31.823 Y20.416 E167.83066
G1 X32.157 Y19.978 E167.84898
G1 X32.552 Y19.594 E167.8673
G1 X32.998 Y19.27 E167.88564
G1 X33.486 Y19.015 E167.90395
G1 X34.006 Y18.832 E167.92229
G1 X34.547 Y18.727 E167.94062
G1 X35 Y18.7 E167.95571
G0 F3600 X35 Y19.1
G1 F1800 X215 Y19.1 E173.94253
G1 X215.52 Y19.14 E173.95988
G1 X216.027 Y19.259 E173.9772
G1 X216.51 Y19.454 E173.99453
G1 X216.958 Y19.72 E174.01186
G1 X217.36 Y20.052 E174.0292
G1 X217.706 Y20.442 E174.04654
G1 X217.989 Y20.88 E174.06388
G1 X218.202 Y21.355 E174.0812
G1 X218.339 Y21.858 E174.09853
G1 X218.4 Y22.5 E174.11998
G1 X218.4 Y187.5 E179.60791
G1 X218.36 Y188.02 E179.62525
G1 X218.241 Y188.527 E179.64257
G1 X218.046 Y189.01 E179.6599
G1 X217.78 Y189.458 E179.67723
G1 X217.448 Y189.86 E179.69457
G1 X217.058 Y190.206 E179.71191
G1 X216.62 Y190.489 E179.72925
G1 X216.145 Y190.702 E179.74657
G1 X215.642 Y190.839 E179.76391
G1 X215 Y190.9 E179.78536
G1 X35 Y190.9 E185.77218
G1 X34.48 Y190.86 E185.78953
G1 X33.973 Y190.741 E185.80685
G1 X33.49 Y190.546 E185.82417
G1 X33.042 Y190.28 E185.8415
G1 X32.64 Y189.948 E185.85884
G1 X32.294 Y189.558 E185.87618
G1 X32.011 Y189.12 E185.89353
G1 X31.798 Y188.645 E185.91084
G1 X31.661 Y188.142 E185.92818
G1 X31.6 Y187.5 E185.94963
G1 X31.6 Y22.5 E191.43755
G1 X31.64 Y21.98 E191.4549
G1 X31.759 Y21.473 E191.47222
G1 X31.954 Y20.99 E191.48954
G1 X32.22 Y20.542 E191.50687
G1 X32.552 Y20.14 E191.52421
G1 X32.942 Y19.794 E191.54155
G1 X33.38 Y19.511 E191.5589
G1 X33.855 Y19.298 E191.57621
G1 X34.358 Y19.161 E191.59355
G1 X35 Y19.1 E191.615
G0 F3600 X35 Y19.5
G1 F1800 X215 Y19.5 E197.60183
G1 X215.488 Y19.54 E197.61811
G1 X215.963 Y19.659 E197.6344
G1 X216.412 Y19.853 E197.65067
G1 X216.824 Y20.118 E197.66696
G1 X217.187 Y20.446 E197.68323
G1 X217.492 Y20.829 E197.69952
G1 X217.73 Y21.257 E197.7158
G1 X217.896 Y21.717 E197.73207
G1 X218 Y22.5 E197.75834
G1 X218 Y187.5 E203.24626
G1 X217.96 Y187.988 E203.26255
G1 X217.841 Y188.463 E203.27883
G1 X217.647 Y188.912 E203.2951
G1 X217.382 Y189.324 E203.3114
G1 X217.054 Y189.687 E203.32767
G1 X216.671 Y189.992 E203.34395
G1 X216.243 Y190.23 E203.36024
G1 X215.783 Y190.396 E203.37651
G1 X215 Y190.5 E203.40278
G1 X35 Y190.5 E209.3896
G1 X34.512 Y190.46 E209.40589
G1 X34.037 Y190.341 E209.42217
G1 X33.588 Y190.147 E209.43844
G1 X33.176 Y189.882 E209.45474
G1 X32.813 Y189.554 E209.47101
G1 X32.508 Y189.171 E209.48729
G1 X32.27 Y188.743 E209.50358
G1 X32.104 Y188.283 E209.51985
G1 X32 Y187.5 E209.54612
G1 X32 Y22.5 E215.03404
G1 X32.04 Y22.012 E215.05032
G1 X32.159 Y21.537 E215.06661
G1 X32.353 Y21.088 E215.08288
G1 X32.618 Y20.676 E215.09917
G1 X32.946 Y20.313 E215.11544
G1 X33.329 Y20.008 E215.13173
G1 X33.757 Y19.77 E215.14802
G1 X34.217 Y19.604 E215.16428
G1 X35 Y19.5 E215.19055
G0 F3600 X35 Y19.9
G1 F1800 X215 Y19.9 E221.17738
G1 X215.454 Y19.94 E221.19254
G1 X215.894 Y20.058 E221.20769
G1 X216.306 Y20.252 E221.22283
G1 X216.679 Y20.515 E221.23801
G1 X217 Y20.838 E221.25316
G1 X217.259 Y21.213 E221.26832
G1 X217.449 Y21.627 E221.28347
G1 X217.564 Y22.068 E221.29863
G1 X217.6 Y22.5 E221.31305
G1 X217.6 Y187.5 E226.80097
G1 X217.56 Y187.954 E226.81613
G1 X217.442 Y188.394 E226.83128
G1 X217.248 Y188.806 E226.84642
G1 X216.985 Y189.179 E226.8616
G1 X216.662 Y189.5 E226.87675
G1 X216.287 Y189.759 E226.89191
G1 X215.873 Y189.949 E226.90706
G1 X215.432 Y190.064 E226.92222
G1 X215 Y190.1 E226.93664
G1 X35 Y190.1 E232.92346
G1 X34.546 Y190.06 E232.93862
G1 X34.106 Y189.942 E232.95377
G1 X33.694 Y189.748 E232.96892
G1 X33.321 Y189.485 E232.9841
G1 X33 Y189.162 E232.99924
G1 X32.741 Y188.787 E233.0144
G1 X32.551 Y188.373 E233.02955
G1 X32.436 Y187.932 E233.04471
G1 X32.4 Y187.5 E233.05913
G1 X32.4 Y22.5 E238.54705
G1 X32.44 Y22.046 E238.56221
G1 X32.558 Y21.606 E238.57736
G1 X32.752 Y21.194 E238.59251
G1 X33.015 Y20.821 E238.60769
G1 X33.338 Y20.5 E238.62283
G1 X33.713 Y20.241 E238.63799
G1 X34.127 Y20.051 E238.65314
G1 X34.568 Y19.936 E238.6683
G1 X35 Y19.9 E238.68272
G0 F3600 X35 Y20.3
G1 F1800 X215 Y20.3 E244.66954
G1 X215.417 Y20.34 E244.68347
G1 X215.819 Y20.458 E244.69741
G1 X216.191 Y20.651 E244.71135
G1 X216.52 Y20.91 E244.72527
G1 X216.794 Y21.227 E244.73921
G1 X217.003 Y21.59 E244.75314
G1 X217.139 Y21.987 E244.7671
G1 X217.2 Y22.5 E244.78428
G1 X217.2 Y187.5 E250.2722
G1 X217.16 Y187.917 E250.28614
G1 X217.042 Y188.319 E250.30007
