;FLAVOR:Marlin
;TIME:15994
;Filament used: 45.4955m
;Layer height: 0.3
;MINX:31.75
;MINY:19.3
;MINZ:0.2
;MAXX:218.15
;MAXY:190.7
;MAXZ:7.4
;Generated with Cura_SteamEngine 99.10.0-Arachne_engine_beta_2
M82 ;absolute extrusion mode
G21 ; set units to millimeters
G90 ; use absolute positioning
M82 ; absolute extrusion mode
M104 S205 ; set extruder temp
M140 S60 ; set bed temp
M190 S60 ; wait for bed temp
M109 S205 ; wait for extruder temp
G28 W ; home all without mesh bed level
G80 ; mesh bed leveling
G92 E0.0 ; reset extruder distance position
G1 Y-3.0 F1000.0 ; go outside print area
G1 X60.0 E9.0 F1000.0 ; intro line
G1 X100.0 E21.5 F1000.0 ; intro line
G92 E0.0 ; reset extruder distance position
G92 E0
G92 E0
G1 F2100 E-0.8
;LAYER_COUNT:25
;LAYER:0
M107
G0 F3600 X32.404 Y20.582 Z0.2
G0 X35.19 Y19.301
;TYPE:SKIRT
G1 F2100 E0
G1 F3000 X214.289 Y19.3 E5.95686
G1 X214.987 Y19.31 E5.98007
G1 X215.49 Y19.357 E5.99688
G1 X215.98 Y19.483 E6.01371
G1 X216.444 Y19.685 E6.03054
G1 X216.87 Y19.957 E6.04735
G1 X217.248 Y20.292 E6.06415
G1 X217.568 Y20.683 E6.08095
G1 X217.823 Y21.12 E6.09778
G1 X218.006 Y21.591 E6.11459
G1 X218.113 Y22.085 E6.1314
G1 X218.149 Y22.74 E6.15322
G1 X218.15 Y186.804 E11.61001
G1 X218.141 Y187.531 E11.63419
G1 X218.095 Y188.034 E11.65099
G1 X217.97 Y188.524 E11.66781
G1 X217.769 Y188.988 E11.68463
G1 X217.498 Y189.415 E11.70145
G1 X217.163 Y189.794 E11.71827
G1 X216.773 Y190.115 E11.73507
G1 X216.337 Y190.371 E11.75189
G1 X215.866 Y190.554 E11.76869
G1 X215.372 Y190.662 E11.78551
G1 X214.71 Y190.699 E11.80757
G1 X35.616 Y190.7 E17.76426
G1 X34.918 Y190.691 E17.78747
G1 X34.414 Y190.644 E17.80431
G1 X33.924 Y190.519 E17.82113
G1 X33.46 Y190.318 E17.83795
G1 X33.034 Y190.047 E17.85474
G1 X32.655 Y189.712 E17.87156
G1 X32.334 Y189.321 E17.88839
G1 X32.079 Y188.885 E17.90519
G1 X31.895 Y188.414 E17.92201
G1 X31.788 Y187.92 E17.93882
G1 X31.751 Y187.244 E17.96134
G1 X31.75 Y23.131 E23.41976
G1 X31.759 Y22.466 E23.44188
G1 X31.806 Y21.962 E23.45871
G1 X31.932 Y21.473 E23.47551
G1 X32.133 Y21.009 E23.49233
G1 X32.404 Y20.582 E23.50915
G1 X32.739 Y20.204 E23.52595
G1 X33.13 Y19.883 E23.54277
G1 X33.567 Y19.628 E23.5596
G1 X34.038 Y19.444 E23.57642
G1 X34.532 Y19.338 E23.59322
G1 X35.19 Y19.301 E23.61514
G1 F2100 E22.81514
;MESH:SIDE PANEL ON.stl
G0 F3600 X35.374 Y21.835
G0 X35.374 Y22.924
G0 X40.735 Y25.1
;TYPE:WALL-INNER
G1 F2100 E23.61514
G1 F3000 X40.052 Y25.389 E23.63981
G1 X39.267 Y25.893 E23.67084
G1 X38.783 Y26.33 E23.69253
G1 X38.326 Y26.842 E23.71535
G1 X37.83 Y27.624 E23.74615
G1 X37.551 Y28.288 E23.77011
G0 F3600 X39.29 Y31.834
G0 X39.658 Y32.354
G0 X40.109 Y32.803
G0 X43.488 Y34.683
G1 F3000 X42.654 Y34.792 E23.79808
G1 X41.809 Y34.752 E23.82622
G1 X41.001 Y34.571 E23.85376
G1 X40.24 Y34.257 E23.88114
G1 X39.517 Y33.794 E23.9097
G1 X38.91 Y33.234 E23.93716
G1 X38.407 Y32.581 E23.96458
G1 X38.011 Y31.817 E23.9932
G1 F2864 X37.749 Y31.042 E24.0217
G1 F2586.2 X37.679 Y30.847 E24.0297
G1 F2542.4 X37.632 Y30.21 E24.05476
G1 F2586.2 X37.661 Y29.356 E24.08773
G1 F2746 X37.88 Y28.549 E24.11812
G1 F3000 X38.194 Y27.79 E24.14544
G1 X38.654 Y27.072 E24.1738
G1 X39.066 Y26.612 E24.19434
G1 X39.499 Y26.219 E24.21379
G1 X40.221 Y25.752 E24.24238
G1 X40.975 Y25.436 E24.26958
G1 F2702.7 X41.603 Y25.229 E24.29399
G1 F2547.8 X42.247 Y25.181 E24.31928
G1 F2586.2 X43.09 Y25.21 E24.35182
G1 F2434.1 X43.485 Y25.26 E24.36815
G1 F2631.6 X44.252 Y25.556 E24.39932
G1 F3000 X45.006 Y25.943 E24.42751
G1 X45.665 Y26.444 E24.45504
G1 X46.23 Y27.049 E24.48257
G1 X46.698 Y27.771 E24.51119
G1 X47.013 Y28.524 E24.53834
G1 X47.201 Y29.341 E24.56622
G1 X47.25 Y29.998 E24.58813
G1 X47.202 Y30.64 E24.60955
G1 X47.02 Y31.449 E24.63713
G1 X46.706 Y32.21 E24.66451
G1 X46.508 Y32.556 E24.67777
G1 X46.204 Y32.987 E24.69531
G1 X45.771 Y33.451 E24.71642
G1 X45.403 Y33.778 E24.73279
G1 X44.96 Y34.093 E24.75087
G1 X44.268 Y34.439 E24.7766
G1 X43.488 Y34.683 E24.80379
G0 F3600 X43.383 Y34.297
G1 F3000 X42.618 Y34.393 E24.82943
G1 X41.844 Y34.354 E24.85521
G1 X41.104 Y34.184 E24.88046
G1 X40.407 Y33.893 E24.90558
G1 X39.748 Y33.467 E24.93168
G1 X39.192 Y32.951 E24.95691
G1 X38.733 Y32.349 E24.98209
G1 X38.374 Y31.649 E25.00825
G1 F3007.5 X38.154 Y30.932 E25.03314
G1 X38.057 Y30.171 E25.05859
G1 F3000 X38.096 Y29.394 E25.08446
G1 X38.266 Y28.653 E25.10975
G1 X38.557 Y27.957 E25.13484
G1 X38.981 Y27.301 E25.16082
G1 X39.35 Y26.894 E25.17909
G1 X39.732 Y26.545 E25.1963
G1 X40.389 Y26.115 E25.22242
G1 X41.081 Y25.822 E25.24741
G1 X41.68 Y25.666 E25.268
G1 X42.285 Y25.606 E25.28822
G1 X43.053 Y25.645 E25.3138
G1 X43.801 Y25.817 E25.33932
G1 X44.495 Y26.108 E25.36435
G1 X45.149 Y26.531 E25.39026
G1 X45.708 Y27.049 E25.41561
G1 X46.168 Y27.651 E25.44081
G1 X46.524 Y28.347 E25.46681
G1 X46.746 Y29.066 E25.49184
G1 X46.843 Y29.829 E25.51742
G1 X46.804 Y30.605 E25.54326
G1 X46.634 Y31.346 E25.56855
G1 X46.343 Y32.043 E25.59367
G1 X45.919 Y32.698 E25.61962
G1 X45.487 Y33.169 E25.64088
G1 X45.17 Y33.453 E25.65503
G1 X44.741 Y33.758 E25.67254
G1 X44.1 Y34.075 E25.69632
G1 X43.383 Y34.297 E25.72129
G0 F3600 X43.173 Y33.525
G1 F3000 X42.546 Y33.596 E25.74228
G1 X41.915 Y33.557 E25.7633
G1 X41.309 Y33.411 E25.78403
G1 X40.74 Y33.166 E25.80464
G1 X40.209 Y32.813 E25.82585
G1 X39.756 Y32.383 E25.84662
G1 X39.384 Y31.885 E25.8673
G1 X39.101 Y31.313 E25.88852
G1 F3007.5 X38.926 Y30.722 E25.90897
G1 X38.854 Y30.099 E25.92978
G1 F3000 X38.893 Y29.464 E25.95094
G1 X39.039 Y28.859 E25.97164
G1 X39.285 Y28.291 E25.99223
G1 X39.636 Y27.761 E26.01337
G1 X40.067 Y27.306 E26.03421
G1 X40.565 Y26.934 E26.05489
G1 X41.135 Y26.651 E26.07605
G1 X41.726 Y26.475 E26.09656
G1 X42.355 Y26.403 E26.11762
G1 X42.984 Y26.442 E26.13858
G1 X43.593 Y26.59 E26.15943
G1 X44.16 Y26.835 E26.17997
G1 X44.689 Y27.186 E26.20109
G1 X45.144 Y27.617 E26.22193
G1 X45.516 Y28.115 E26.24261
G1 X45.798 Y28.683 E26.2637
G1 X45.974 Y29.276 E26.28427
G1 X46.046 Y29.901 E26.3052
G1 X46.007 Y30.535 E26.32632
G1 X45.861 Y31.14 E26.34702
G1 X45.615 Y31.709 E26.36764
G1 X45.264 Y32.239 E26.38878
G1 X44.92 Y32.605 E26.40549
G1 X44.337 Y33.065 E26.43019
G1 X43.764 Y33.349 E26.45146
G1 X43.173 Y33.525 E26.47197
G0 F3600 X43.068 Y33.139
G1 F3000 X42.51 Y33.198 E26.49063
G1 X41.95 Y33.158 E26.50931
G1 X41.412 Y33.024 E26.52775
G1 X40.906 Y32.802 E26.54612
G1 X40.44 Y32.486 E26.56485
G1 X40.038 Y32.099 E26.58341
G1 X39.71 Y31.653 E26.60182
G1 X39.464 Y31.145 E26.6206
G1 F3007.5 X39.312 Y30.617 E26.63883
G1 X39.252 Y30.063 E26.65731
G1 F3000 X39.292 Y29.499 E26.67612
G1 X39.426 Y28.963 E26.6945
G1 X39.648 Y28.457 E26.71287
G1 X39.963 Y27.991 E26.73158
G1 X40.351 Y27.588 E26.75019
G1 X40.797 Y27.26 E26.7686
G1 X41.303 Y27.014 E26.78732
G1 X41.832 Y26.861 E26.80563
G1 X42.391 Y26.802 E26.82433
G1 X42.95 Y26.841 E26.84296
G1 X43.489 Y26.976 E26.86145
G1 X43.993 Y27.198 E26.87976
G1 X44.459 Y27.513 E26.89847
G1 X44.862 Y27.901 E26.91708
G1 X45.19 Y28.347 E26.93549
G1 X45.435 Y28.851 E26.95413
G1 X45.588 Y29.382 E26.97251
G1 X45.648 Y29.937 E26.99108
G1 X45.608 Y30.5 E27.00985
G1 X45.474 Y31.037 E27.02826
G1 X45.252 Y31.543 E27.04664
G1 X44.937 Y32.009 E27.06534
G1 X44.549 Y32.411 E27.08393
G1 X44.104 Y32.74 E27.10233
G1 X43.596 Y32.986 E27.12111
G1 X43.068 Y33.139 E27.13939
G0 F3600 X43.2 Y33.63
G0 X43.932 Y33.712
G1 F3000 X43.278 Y33.911 E27.16213
G1 X42.582 Y33.995 E27.18544
G1 X41.879 Y33.955 E27.20886
G1 X41.207 Y33.798 E27.23182
G1 X40.573 Y33.53 E27.25471
G1 X39.978 Y33.14 E27.27837
G1 X39.474 Y32.667 E27.30136
G1 X39.058 Y32.117 E27.3243
G1 X38.737 Y31.481 E27.34799
G1 F3007.5 X38.54 Y30.827 E27.37065
G1 X38.455 Y30.135 E27.39378
G1 F3000 X38.495 Y29.429 E27.4173
G1 X38.653 Y28.756 E27.4403
G1 X38.921 Y28.124 E27.46313
G1 X39.308 Y27.531 E27.48668
G1 X39.783 Y27.024 E27.50979
G1 X40.333 Y26.608 E27.53272
G1 X40.967 Y26.288 E27.55634
G1 X41.621 Y26.089 E27.57908
G1 X42.32 Y26.005 E27.6025
G1 X43.018 Y26.044 E27.62575
G1 X43.697 Y26.203 E27.64894
G1 X44.328 Y26.471 E27.67174
G1 X44.919 Y26.858 E27.69524
G1 X45.426 Y27.333 E27.71835
G1 X45.842 Y27.883 E27.74128
G1 X46.161 Y28.515 E27.76483
G1 X46.36 Y29.171 E27.78763
G1 X46.445 Y29.865 E27.81089
G1 X46.405 Y30.57 E27.83437
G1 X46.247 Y31.243 E27.85737
G1 X45.979 Y31.876 E27.88023
G1 X45.592 Y32.469 E27.90378
G1 X45.204 Y32.887 E27.92275
G1 X44.938 Y33.128 E27.93469
G1 X44.522 Y33.423 E27.95165
G1 X43.932 Y33.712 E27.9735
G0 F3600 X41.824 Y33.597
G0 X37.551 Y31.716
G1 F3000 X37.838 Y32.396 E27.99805
G1 X38.343 Y33.183 E28.02915
G1 X38.953 Y33.84 E28.05897
G1 X39.657 Y34.382 E28.08852
G1 X40.485 Y34.809 E28.11951
G1 X41.334 Y35.073 E28.14908
G1 X42.227 Y35.191 E28.17904
G1 X42.69 Y35.19 E28.19444
G1 X43.593 Y35.069 E28.22474
G1 X44.436 Y34.802 E28.25415
G1 X45.178 Y34.428 E28.28179
G1 X45.635 Y34.104 E28.30042
G1 X46.055 Y33.733 E28.31906
G1 X46.523 Y33.227 E28.34198
G1 X46.835 Y32.786 E28.35995
G1 X47.07 Y32.376 E28.37567
G1 X47.407 Y31.552 E28.40528
G1 X47.569 Y30.909 E28.42733
G1 X47.641 Y30.22 E28.45037
G1 X47.64 Y29.757 E28.46577
G1 X47.518 Y28.855 E28.49605
G1 X47.25 Y28.011 E28.5255
G1 X46.819 Y27.187 E28.55643
G1 X46.272 Y26.482 E28.58611
G1 X45.608 Y25.876 E28.61601
G1 X44.829 Y25.381 E28.6467
G1 X44.163 Y25.101 E28.67073
G0 F3600 X45.88 Y28.745
G0 X46.046 Y29.356
G0 X46.104 Y29.993
G0 X46.047 Y30.626
G0 X45.885 Y31.239
G0 X45.618 Y31.819
G0 X45.253 Y32.341
G0 X44.222 Y33.255
G0 X43.839 Y32.433
;TYPE:WALL-OUTER
G1 F3000 X43.397 Y32.635 E28.6869
G1 X42.928 Y32.759 E28.70303
G1 X42.438 Y32.8 E28.71939
G1 X41.951 Y32.754 E28.73566
G1 X41.483 Y32.626 E28.75179
G1 X41.04 Y32.42 E28.76804
G1 X40.645 Y32.137 E28.7842
G1 X40.299 Y31.79 E28.8005
G1 X40.017 Y31.388 E28.81683
G1 X39.815 Y30.946 E28.833
G1 X39.691 Y30.478 E28.8491
G1 X39.65 Y30.027 E28.86416
G1 X39.696 Y29.5 E28.88176
G1 X39.824 Y29.034 E28.89783
G1 X40.03 Y28.593 E28.91402
G1 X40.313 Y28.195 E28.93026
G1 X40.66 Y27.849 E28.94656
G1 X41.061 Y27.567 E28.96287
G1 X41.503 Y27.366 E28.97902
G1 X41.973 Y27.24 E28.9952
G1 X42.462 Y27.2 E29.01152
G1 X42.95 Y27.245 E29.02782
G1 X43.417 Y27.374 E29.04393
G1 X43.857 Y27.58 E29.06009
G1 X44.255 Y27.863 E29.07633
G1 X44.601 Y28.21 E29.09263
G1 X44.883 Y28.611 E29.10894
G1 X45.083 Y29.051 E29.12501
G1 X45.209 Y29.521 E29.1412
G1 X45.25 Y30.01 E29.15752
G1 X45.204 Y30.499 E29.17385
G1 X45.076 Y30.966 E29.18996
G1 X44.87 Y31.407 E29.20615
G1 X44.591 Y31.802 E29.22223
G1 X44.245 Y32.147 E29.23849
G1 X43.839 Y32.433 E29.255
G0 F3600 X43.657 Y32.516
G0 X44.041 Y33.34
G0 X37.551 Y178.288
;TYPE:WALL-INNER
G1 F3000 X37.83 Y177.624 E29.27896
G1 X38.326 Y176.842 E29.30976
G1 X38.932 Y176.178 E29.33966
G1 X39.637 Y175.631 E29.36934
G1 X40.462 Y175.199 E29.40031
G1 X41.304 Y174.931 E29.4297
G1 X42.215 Y174.809 E29.46027
G1 X43.121 Y174.848 E29.49043
G1 X43.574 Y174.928 E29.50573
G1 X44.16 Y175.09 E29.52595
G1 X44.828 Y175.381 E29.55019
G1 X45.236 Y175.615 E29.56583
G1 X45.677 Y175.927 E29.5838
G1 X46.183 Y176.395 E29.60672
G1 X46.556 Y176.817 E29.62546
G1 X46.879 Y177.275 E29.6441
G1 X47.25 Y178.011 E29.67151
G1 X47.518 Y178.855 E29.70096
G1 X47.64 Y179.756 E29.7312
G1 X47.641 Y180.22 E29.74664
G1 X47.523 Y181.117 E29.77673
G1 X47.258 Y181.966 E29.80631
G1 X46.835 Y182.786 E29.837
G1 X46.29 Y183.497 E29.86679
G1 X45.635 Y184.104 E29.89649
G1 X44.847 Y184.612 E29.92768
G1 X44.167 Y184.899 E29.95223
G0 F3600 X44.1 Y184.076
G1 F3007.5 X43.383 Y184.296 E29.97711
G1 X42.619 Y184.394 E30.00266
G1 F3000 X41.84 Y184.354 E30.02861
G1 X41.098 Y184.183 E30.05393
G1 X40.407 Y183.894 E30.07885
G1 X39.748 Y183.467 E30.10496
G1 X39.344 Y183.1 E30.12312
G1 X38.995 Y182.718 E30.14033
G1 X38.565 Y182.06 E30.16647
G1 X38.271 Y181.366 E30.19154
G1 X38.117 Y180.77 E30.21201
G1 X38.057 Y180.171 E30.23204
G1 X38.05 Y180.008 E30.23746
G1 X38.096 Y179.394 E30.25794
G1 X38.266 Y178.653 E30.28323
G1 X38.557 Y177.957 E30.30832
G1 X38.981 Y177.301 E30.3343
G1 X39.499 Y176.742 E30.35964
G1 X40.101 Y176.282 E30.38484
G1 X40.799 Y175.925 E30.41092
G1 X41.516 Y175.703 E30.43588
G1 X42.285 Y175.606 E30.46166
G1 X43.053 Y175.645 E30.48724
G1 X43.801 Y175.817 E30.51277
G1 X44.494 Y176.108 E30.53777
G1 X45.148 Y176.531 E30.56367
G1 X45.619 Y176.963 E30.58493
G1 X45.904 Y177.282 E30.59916
G1 X46.209 Y177.712 E30.61669
G1 X46.524 Y178.347 E30.64027
G1 X46.746 Y179.066 E30.6653
G1 X46.843 Y179.829 E30.69088
G1 X46.804 Y180.605 E30.71672
G1 X46.634 Y181.346 E30.74201
G1 X46.343 Y182.043 E30.76713
G1 X45.919 Y182.698 E30.79308
G1 X45.401 Y183.258 E30.81845
G1 X44.802 Y183.716 E30.84353
G1 X44.1 Y184.076 E30.86977
G0 F3600 X43.298 Y184.771
G1 F2542.4 X42.657 Y184.819 E30.895
G1 F2586.2 X41.802 Y184.789 E30.92801
G1 F2746 X40.993 Y184.569 E30.95847
G1 F3000 X40.241 Y184.258 E30.98554
G1 X39.517 Y183.794 E31.01414
G1 X39.062 Y183.384 E31.03451
G1 X38.669 Y182.951 E31.05396
G1 X38.202 Y182.228 E31.08258
G1 X37.885 Y181.47 E31.10991
G1 F2696.6 X37.679 Y180.847 E31.13419
G1 F2542.4 X37.632 Y180.21 E31.15926
G1 F2654.9 X37.625 Y180.008 E31.16686
G1 F2597.4 X37.661 Y179.356 E31.19194
G1 F2746 X37.88 Y178.549 E31.22232
G1 F3000 X38.194 Y177.79 E31.24964
G1 X38.654 Y177.072 E31.27801
G1 X39.216 Y176.46 E31.30564
G1 X39.869 Y175.957 E31.33306
G1 X40.631 Y175.562 E31.3616
G1 X41.41 Y175.317 E31.38876
G1 X42.25 Y175.208 E31.41694
G1 X43.087 Y175.246 E31.4448
G1 X43.905 Y175.431 E31.4727
G1 X44.661 Y175.744 E31.49991
G1 X45.378 Y176.204 E31.52825
G1 X45.901 Y176.679 E31.55175
G1 X46.23 Y177.05 E31.56824
G1 X46.544 Y177.493 E31.5863
G1 X46.887 Y178.179 E31.61181
G1 X47.132 Y178.96 E31.63903
G1 X47.242 Y179.793 E31.66698
G1 X47.202 Y180.64 E31.69518
G1 X47.02 Y181.45 E31.72279
G1 X46.707 Y182.209 E31.7501
G1 X46.247 Y182.928 E31.77849
G1 X45.684 Y183.54 E31.80615
G1 X45.035 Y184.042 E31.83344
G1 X44.268 Y184.439 E31.86216
G1 F2864 X43.493 Y184.701 E31.89066
G1 F2586.2 X43.298 Y184.771 E31.89866
G0 F3600 X43.932 Y183.713
G1 F3007.5 X43.278 Y183.91 E31.92132
G1 X42.583 Y183.995 E31.94455
G1 F3000 X41.875 Y183.955 E31.96813
G1 X41.202 Y183.797 E31.99113
G1 X40.573 Y183.53 E32.01385
G1 X39.979 Y183.14 E32.03749
G1 X39.474 Y182.667 E32.0605
G1 X39.058 Y182.117 E32.08344
G1 X38.737 Y181.481 E32.10713
G1 F3007.5 X38.54 Y180.827 E32.12979
G1 X38.455 Y180.135 E32.15293
G1 F3000 X38.45 Y180.008 E32.15715
G1 X38.495 Y179.429 E32.17647
G1 X38.653 Y178.756 E32.19946
G1 X38.921 Y178.124 E32.22229
G1 X39.308 Y177.531 E32.24584
G1 X39.783 Y177.024 E32.26895
G1 X40.333 Y176.608 E32.29189
G1 X40.967 Y176.288 E32.31551
G1 X41.621 Y176.089 E32.33825
G1 X42.32 Y176.005 E32.36166
G1 X43.018 Y176.043 E32.38491
G1 X43.697 Y176.203 E32.40811
G1 X44.327 Y176.471 E32.43089
G1 X44.919 Y176.858 E32.45441
G1 X45.337 Y177.246 E32.47338
G1 X45.579 Y177.514 E32.48539
G1 X45.874 Y177.93 E32.50235
G1 X46.161 Y178.515 E32.52402
G1 X46.36 Y179.171 E32.54682
G1 X46.445 Y179.865 E32.57008
G1 X46.405 Y180.57 E32.59356
G1 X46.247 Y181.243 E32.61656
G1 X45.979 Y181.876 E32.63942
G1 X45.592 Y182.469 E32.66297
G1 X45.117 Y182.976 E32.68608
G1 X44.57 Y183.391 E32.70892
G1 X43.932 Y183.713 E32.73269
G0 F3600 X43.764 Y183.349
G1 F3007.5 X43.173 Y183.524 E32.75313
G1 X42.547 Y183.597 E32.77404
G1 F3000 X41.91 Y183.557 E32.79527
G1 X41.306 Y183.41 E32.81595
G1 X40.74 Y183.166 E32.83645
G1 X40.209 Y182.813 E32.85766
G1 X39.756 Y182.383 E32.87843
G1 X39.384 Y181.885 E32.8991
G1 X39.101 Y181.313 E32.92033
G1 F3007.5 X38.926 Y180.722 E32.94078
G1 X38.854 Y180.099 E32.96159
G1 F3000 X38.85 Y180.008 E32.96462
G1 X38.893 Y179.464 E32.98277
G1 X39.039 Y178.859 E33.00347
G1 X39.285 Y178.291 E33.02405
G1 X39.636 Y177.761 E33.0452
G1 X40.067 Y177.306 E33.06604
G1 X40.565 Y176.934 E33.08672
G1 X41.135 Y176.651 E33.10788
G1 X41.727 Y176.475 E33.12842
G1 X42.356 Y176.403 E33.14948
G1 X42.984 Y176.442 E33.17041
G1 X43.593 Y176.59 E33.19125
G1 X44.16 Y176.835 E33.2118
G1 X44.689 Y177.186 E33.23291
G1 X45.055 Y177.53 E33.24962
G1 X45.253 Y177.746 E33.25936
G1 X45.562 Y178.187 E33.27727
G1 X45.798 Y178.683 E33.29554
G1 X45.974 Y179.276 E33.31612
G1 X46.047 Y179.901 E33.33705
G1 X46.007 Y180.535 E33.35818
G1 X45.861 Y181.14 E33.37888
G1 X45.616 Y181.709 E33.39948
