;FLAVOR:Marlin
;TIME:23882
;Filament used: 69.5915m
;Layer height: 0.3
;MINX:42.906
;MINY:19.55
;MINZ:0.2
;MAXX:207.094
;MAXY:190.45
;MAXZ:37.4
;Generated with Cura_SteamEngine 99.10.0-Arachne_engine_beta_2
M82 ;absolute extrusion mode
G21 ; set units to millimeters
G90 ; use absolute positioning
M82 ; absolute extrusion mode
M104 S225 ; set extruder temp
M140 S60 ; set bed temp
M190 S60 ; wait for bed temp
M109 S225 ; wait for extruder temp
G28 W ; home all without mesh bed level
G80 ; mesh bed leveling
G92 E0.0 ; reset extruder distance position
G1 Y-3.0 F1000.0 ; go outside print area
G1 X60.0 E9.0 F1000.0 ; intro line
G1 X100.0 E21.5 F1000.0 ; intro line
G92 E0.0 ; reset extruder distance position
G92 E0
G92 E0
G1 F2100 E-0.8
;LAYER_COUNT:125
;LAYER:0
M107
G0 F3600 X43.289 Y21.259 Z0.2
G0 X46.346 Y19.551
;TYPE:SKIRT
G1 F2100 E0
G1 F3300 X203.233 Y19.55 E5.21808
G1 X203.931 Y19.56 E5.2413
G1 X204.434 Y19.607 E5.2581
G1 X204.924 Y19.733 E5.27493
G1 X205.388 Y19.935 E5.29176
G1 X205.814 Y20.207 E5.30857
G1 X206.192 Y20.542 E5.32537
G1 X206.512 Y20.933 E5.34218
G1 X206.767 Y21.37 E5.35901
G1 X206.95 Y21.841 E5.37581
G1 X207.057 Y22.335 E5.39262
G1 X207.093 Y22.99 E5.41444
G1 X207.094 Y186.554 E10.8546
G1 X207.085 Y187.281 E10.87878
G1 X207.039 Y187.784 E10.89558
G1 X206.914 Y188.274 E10.9124
G1 X206.713 Y188.738 E10.92922
G1 X206.442 Y189.165 E10.94604
G1 X206.107 Y189.544 E10.96287
G1 X205.717 Y189.865 E10.97967
G1 X205.281 Y190.121 E10.99648
G1 X204.81 Y190.304 E11.01329
G1 X204.316 Y190.412 E11.03011
G1 X203.654 Y190.449 E11.05216
G1 X46.772 Y190.45 E16.27008
G1 X46.074 Y190.441 E16.2933
G1 X45.57 Y190.394 E16.31013
G1 X45.08 Y190.269 E16.32695
G1 X44.616 Y190.068 E16.34377
G1 X44.19 Y189.797 E16.36056
G1 X43.811 Y189.462 E16.37739
G1 X43.49 Y189.071 E16.39421
G1 X43.235 Y188.635 E16.41101
G1 X43.051 Y188.164 E16.42783
G1 X42.944 Y187.67 E16.44464
G1 X42.907 Y186.994 E16.46716
G1 X42.906 Y23.381 E21.90895
G1 X42.915 Y22.716 E21.93107
G1 X42.962 Y22.212 E21.94791
G1 X43.088 Y21.723 E21.9647
G1 X43.289 Y21.259 E21.98152
G1 X43.56 Y20.832 E21.99834
G1 X43.895 Y20.454 E22.01514
G1 X44.286 Y20.133 E22.03196
G1 X44.723 Y19.878 E22.04879
G1 X45.194 Y19.694 E22.06561
G1 X45.688 Y19.588 E22.08242
G1 X46.346 Y19.551 E22.10434
G1 F2100 E21.30434
;MESH:STEPPER PANEL 4.stl
G0 F3600 X46.53 Y22.085
G0 X46.53 Y23.174
G0 X49.907 Y175.969
;TYPE:WALL-INNER
G1 F2100 E22.10434
G1 F3300 X50.096 Y175.834 E22.11206
G1 X50.704 Y175.481 E22.13544
G1 X51.114 Y175.291 E22.15047
G1 X51.709 Y175.074 E22.17154
G1 X52.144 Y174.955 E22.18654
G1 X52.812 Y174.835 E22.20911
G1 X53.61 Y174.781 E22.23571
G1 X54.38 Y174.833 E22.26138
G1 X55.04 Y174.949 E22.28367
G1 X55.698 Y175.133 E22.3064
G1 X56.489 Y175.473 E22.33503
G1 X56.952 Y175.727 E22.3526
G1 X57.45 Y176.072 E22.37275
G1 X57.886 Y176.428 E22.39147
G1 X58.273 Y176.811 E22.40958
G1 X58.692 Y177.305 E22.43112
G1 X59.07 Y177.847 E22.4531
G1 X59.493 Y178.68 E22.48417
G1 X59.714 Y179.284 E22.50557
G1 X59.904 Y180.033 E22.53127
G1 X59.992 Y180.838 E22.5582
G1 X59.993 Y181.498 E22.58015
G1 X59.954 Y181.953 E22.59534
G1 X59.84 Y182.608 E22.61745
G1 X59.577 Y183.449 E22.64676
G0 F3600 X58.974 Y183.849
G1 F3300 X59.142 Y183.481 E22.66022
G1 X59.337 Y182.94 E22.67934
G1 X59.453 Y182.505 E22.69432
G1 X59.556 Y181.919 E22.71411
G1 X59.594 Y181.464 E22.72929
G1 X59.594 Y180.873 E22.74895
G1 X59.511 Y180.105 E22.77464
G1 X59.328 Y179.389 E22.79922
G1 X59.13 Y178.849 E22.81835
G1 X58.732 Y178.06 E22.84774
G1 X58.366 Y177.537 E22.86897
G1 X57.991 Y177.095 E22.88825
G1 X57.313 Y176.467 E22.91899
G1 X56.848 Y176.139 E22.93792
G1 X56.321 Y175.836 E22.95814
G1 X55.571 Y175.512 E22.98531
G1 X54.936 Y175.335 E23.00723
G1 X54.346 Y175.232 E23.02715
G1 X53.609 Y175.181 E23.05173
G1 X52.848 Y175.234 E23.0771
G1 X52.249 Y175.341 E23.09734
G1 X51.815 Y175.46 E23.1123
G1 X51.282 Y175.654 E23.13117
G1 X50.872 Y175.844 E23.1462
G1 X50.328 Y176.16 E23.16712
G1 X49.959 Y176.423 E23.1822
G1 X49.52 Y176.795 E23.20133
G1 X49.507 Y176.809 E23.20197
G0 F3600 X49.107 Y177.863
G1 F3300 X49.153 Y177.795 E23.2047
G1 X49.483 Y177.4 E23.22182
G1 X49.804 Y177.077 E23.23696
G1 X50.191 Y176.749 E23.25384
G1 X50.56 Y176.486 E23.26891
G1 X51.04 Y176.207 E23.28737
G1 X51.45 Y176.017 E23.3024
G1 X51.92 Y175.846 E23.31904
G1 X52.355 Y175.727 E23.33404
G1 X52.883 Y175.632 E23.35188
G1 X53.608 Y175.581 E23.37606
G1 X54.311 Y175.63 E23.39949
G1 X54.832 Y175.722 E23.41709
G1 X55.444 Y175.892 E23.43822
G1 X56.154 Y176.2 E23.46396
G1 X56.618 Y176.466 E23.48175
G1 X57.073 Y176.787 E23.50027
G1 X57.709 Y177.379 E23.52917
G1 X58.04 Y177.768 E23.54615
G1 X58.394 Y178.274 E23.56669
G1 X58.767 Y179.018 E23.59437
G1 X58.942 Y179.495 E23.61127
G1 X59.117 Y180.177 E23.63469
G1 X59.195 Y180.908 E23.65914
G1 X59.196 Y181.43 E23.67651
G1 X59.157 Y181.885 E23.69169
G1 X59.067 Y182.402 E23.70915
G1 X58.95 Y182.837 E23.72413
G1 X58.779 Y183.314 E23.74098
G1 X58.59 Y183.727 E23.75609
G1 X58.315 Y184.205 E23.77443
G1 X58.283 Y184.249 E23.77624
G0 F3600 X57.471 Y184.649
G1 F3300 X57.988 Y183.975 E23.80449
G1 X58.415 Y183.148 E23.83545
G1 X58.68 Y182.299 E23.86503
G1 X58.797 Y181.396 E23.89532
G1 X58.757 Y180.491 E23.92545
G1 X58.675 Y180.036 E23.94082
G1 X58.405 Y179.187 E23.97046
G1 X58.056 Y178.488 E23.99644
G1 X57.714 Y178 E24.01626
G1 X57.427 Y177.662 E24.03101
G1 X56.833 Y177.106 E24.05807
G1 X56.389 Y176.794 E24.07612
G1 X55.987 Y176.563 E24.09154
G1 X55.317 Y176.271 E24.11585
G1 X54.728 Y176.108 E24.13618
G1 X54.277 Y176.029 E24.1514
G1 X53.371 Y175.99 E24.18157
G1 X52.46 Y176.112 E24.21214
G1 X51.618 Y176.38 E24.24153
G1 X50.793 Y176.812 E24.2725
G1 X50.088 Y177.359 E24.30218
G1 X49.481 Y178.025 E24.33215
G1 X48.989 Y178.799 E24.36265
G1 X48.707 Y179.469 E24.38683
G0 F3600 X49.893 Y182.541
G0 X50.187 Y183.167
G0 X50.584 Y183.73
G0 X51.072 Y184.214
G0 X51.637 Y184.608
G0 X52.263 Y184.899
G0 X52.928 Y185.075
G0 X54.434 Y185.1
G0 X54.433 Y185.091
G1 F3308.3 X53.738 Y185.176 E24.41006
G1 F3300 X53.035 Y185.137 E24.43348
G1 X52.362 Y184.979 E24.45647
G1 X51.727 Y184.71 E24.47941
G1 X51.133 Y184.318 E24.50308
G1 X50.631 Y183.848 E24.52595
G1 X50.3 Y183.417 E24.54403
G1 X50.086 Y183.075 E24.55744
G1 X49.813 Y182.442 E24.58037
G1 X49.667 Y181.882 E24.59962
G1 X49.611 Y181.316 E24.61854
G1 X49.651 Y180.61 E24.64206
G1 X49.809 Y179.937 E24.66505
G1 X50.079 Y179.302 E24.688
G1 X50.464 Y178.713 E24.7114
G1 X50.939 Y178.205 E24.73454
G1 X51.489 Y177.789 E24.75747
G1 X52.123 Y177.469 E24.78109
G1 X52.777 Y177.27 E24.80383
G1 X53.476 Y177.186 E24.82725
G1 X54.174 Y177.224 E24.8505
G1 X54.853 Y177.384 E24.8737
G1 X55.484 Y177.653 E24.89651
G1 X56.074 Y178.038 E24.91994
G1 X56.581 Y178.513 E24.94305
G1 X56.999 Y179.065 E24.96608
G1 X57.317 Y179.694 E24.98952
G1 X57.517 Y180.352 E25.0124
G1 X57.601 Y181.049 E25.03575
G1 X57.563 Y181.748 E25.05903
G1 X57.404 Y182.424 E25.08213
G1 X57.135 Y183.059 E25.10507
G1 X56.745 Y183.653 E25.1287
G1 X56.273 Y184.156 E25.15164
G1 X55.724 Y184.571 E25.17453
G1 X55.093 Y184.892 E25.19808
G1 F3308.3 X54.433 Y185.091 E25.22095
G0 F3600 X54.371 Y185.482
G1 F3782.2 X54.533 Y185.46 E25.22569
G1 F3464.6 X55.262 Y185.254 E25.24969
G1 F3300 X55.956 Y184.897 E25.27565
G1 X56.557 Y184.438 E25.3008
G1 X57.072 Y183.883 E25.32598
G1 X57.499 Y183.226 E25.35205
G1 X57.791 Y182.527 E25.37724
G1 X57.961 Y181.782 E25.40266
G1 X58 Y181.014 E25.42823
G1 X57.903 Y180.246 E25.45398
G1 X57.679 Y179.525 E25.47909
G1 X57.325 Y178.834 E25.50492
G1 X56.863 Y178.23 E25.53021
G1 X56.304 Y177.711 E25.55558
G1 X55.652 Y177.29 E25.58139
G1 X54.957 Y176.998 E25.60646
G1 X54.209 Y176.826 E25.63199
G1 X53.441 Y176.787 E25.65757
G1 X52.672 Y176.884 E25.68335
G1 X51.955 Y177.106 E25.70831
G1 X51.257 Y177.463 E25.73439
G1 X50.655 Y177.923 E25.75959
G1 X50.136 Y178.483 E25.78498
G1 X49.716 Y179.135 E25.81078
G1 X49.422 Y179.834 E25.836
G1 X49.252 Y180.575 E25.86129
G1 X49.213 Y181.352 E25.88716
G1 X49.273 Y181.951 E25.90718
G1 X49.427 Y182.547 E25.92766
G1 X49.723 Y183.244 E25.95284
G1 X50.152 Y183.899 E25.97889
G1 X50.672 Y184.452 E26.00413
G1 X51.27 Y184.906 E26.02911
G1 X51.972 Y185.262 E26.05529
G1 X52.583 Y185.45 E26.07655
G0 F3600 X54.433 Y185.1
G0 X54.328 Y184.705
G1 F3308.3 X53.702 Y184.777 E26.09745
G1 F3300 X53.07 Y184.738 E26.11851
G1 X52.465 Y184.592 E26.13921
G1 X51.893 Y184.346 E26.15992
G1 X51.364 Y183.992 E26.18109
G1 X50.913 Y183.564 E26.20177
G1 X50.541 Y183.066 E26.22245
G1 X50.258 Y182.496 E26.24361
G1 F3308.3 X50.082 Y181.903 E26.26414
G1 X50.01 Y181.28 E26.28494
G1 F3300 X50.049 Y180.645 E26.3061
G1 X50.195 Y180.04 E26.3268
G1 X50.442 Y179.47 E26.34747
G1 X50.792 Y178.942 E26.36853
G1 X51.223 Y178.487 E26.38938
G1 X51.721 Y178.115 E26.41005
G1 X52.291 Y177.832 E26.43122
G1 X52.883 Y177.656 E26.45176
G1 X53.512 Y177.584 E26.47282
G1 X54.14 Y177.623 E26.49375
G1 X54.75 Y177.771 E26.51462
G1 X55.317 Y178.016 E26.53517
G1 X55.845 Y178.366 E26.55624
G1 X56.299 Y178.797 E26.57706
G1 X56.673 Y179.297 E26.59783
G1 X56.954 Y179.862 E26.61881
G1 X57.131 Y180.457 E26.63946
G1 X57.203 Y181.084 E26.66045
G1 X57.164 Y181.714 E26.68145
G1 X57.018 Y182.321 E26.70221
G1 X56.772 Y182.893 E26.72292
G1 X56.419 Y183.422 E26.74407
G1 X55.99 Y183.874 E26.7648
G1 X55.492 Y184.246 E26.78547
G1 X54.924 Y184.529 E26.80658
G1 F3308.3 X54.328 Y184.705 E26.8272
G0 F3600 X54.223 Y184.319
G1 F3308.3 X53.666 Y184.379 E26.84578
G1 F3300 X53.106 Y184.339 E26.86446
G1 X52.568 Y184.206 E26.88289
G1 X52.06 Y183.982 E26.90136
G1 X51.595 Y183.665 E26.92007
G1 X51.195 Y183.28 E26.93854
G1 X50.867 Y182.834 E26.95695
G1 X50.62 Y182.327 E26.97571
G1 F3308.3 X50.468 Y181.798 E26.99397
G1 X50.408 Y181.244 E27.01246
G1 F3300 X50.448 Y180.68 E27.03126
G1 X50.582 Y180.144 E27.04964
G1 X50.806 Y179.637 E27.06808
G1 X51.12 Y179.171 E27.08677
G1 X51.507 Y178.769 E27.10533
G1 X51.953 Y178.441 E27.12374
G1 X52.459 Y178.195 E27.14245
G1 X52.988 Y178.042 E27.16077
G1 X53.547 Y177.983 E27.17946
G1 X54.106 Y178.022 E27.1981
G1 X54.646 Y178.157 E27.21661
G1 X55.15 Y178.38 E27.23494
G1 X55.616 Y178.694 E27.25363
G1 X56.017 Y179.081 E27.27217
G1 X56.347 Y179.529 E27.29068
G1 X56.591 Y180.031 E27.30924
G1 X56.745 Y180.562 E27.32763
G1 X56.804 Y181.12 E27.34629
G1 X56.765 Y181.68 E27.36496
G1 X56.631 Y182.218 E27.3834
G1 X56.408 Y182.726 E27.40186
G1 X56.092 Y183.191 E27.42056
G1 X55.706 Y183.592 E27.43907
G1 X55.26 Y183.92 E27.45748
G1 X54.755 Y184.166 E27.47616
G1 F3308.3 X54.223 Y184.319 E27.49453
G0 F3600 X54.432 Y185.101
G0 X56.432 Y185.049
G1 F3300 X56.841 Y184.72 E27.51199
G1 X57.399 Y184.114 E27.53939
G1 X57.863 Y183.393 E27.5679
G1 X58.177 Y182.631 E27.59532
G1 X58.36 Y181.816 E27.6231
G1 X58.398 Y180.979 E27.65097
G1 X58.289 Y180.141 E27.67907
G1 X58.042 Y179.356 E27.70644
G1 X57.651 Y178.602 E27.73469
G1 X57.145 Y177.946 E27.76225
G1 X56.533 Y177.383 E27.78991
G1 X55.819 Y176.926 E27.8181
G1 X55.061 Y176.612 E27.84539
G1 X54.243 Y176.427 E27.87328
G1 X53.406 Y176.389 E27.90115
G1 X52.566 Y176.498 E27.92932
G1 X51.787 Y176.743 E27.95649
G1 X51.025 Y177.138 E27.98503
G1 X50.372 Y177.641 E28.01245
G1 X49.808 Y178.254 E28.04015
G1 X49.352 Y178.967 E28.0683
G1 X49.036 Y179.73 E28.09577
G1 F3020.6 X48.817 Y180.537 E28.12615
G1 F2844.8 X48.788 Y181.391 E28.15912
G1 F2796.6 X48.835 Y182.028 E28.18419
G1 F2966.3 X49.041 Y182.651 E28.20847
G1 F3300 X49.36 Y183.412 E28.23592
G1 X49.827 Y184.131 E28.26443
G1 X50.39 Y184.736 E28.29192
G1 X50.783 Y185.05 E28.30865
G0 F3600 X49.743 Y184.649
G1 F3300 X49.322 Y184.113 E28.33132
G1 X48.997 Y183.581 E28.35205
G1 X48.707 Y182.895 E28.37682
G0 F3600 X51.637 Y184.608
G0 X52.263 Y184.899
G0 X52.928 Y185.075
G0 X53.613 Y185.136
G0 X54.171 Y185.086
G0 X55.509 Y184.706
G0 X54.996 Y183.613
;TYPE:WALL-OUTER
G1 F3300 X54.554 Y183.816 E28.393
G1 X54.084 Y183.94 E28.40917
G1 X53.594 Y183.981 E28.42552
G1 X53.107 Y183.935 E28.44179
G1 X52.639 Y183.807 E28.45793
G1 X52.195 Y183.6 E28.47422
G1 X51.8 Y183.317 E28.49039
G1 X51.456 Y182.971 E28.50661
G1 X51.174 Y182.57 E28.52292
G1 X50.971 Y182.127 E28.53913
G1 X50.847 Y181.659 E28.55523
G1 X50.806 Y181.208 E28.57029
G1 X50.852 Y180.681 E28.58789
G1 X50.98 Y180.215 E28.60396
G1 X51.187 Y179.774 E28.62016
G1 X51.47 Y179.374 E28.63646
G1 X51.816 Y179.03 E28.65269
G1 X52.217 Y178.748 E28.66899
G1 X52.659 Y178.547 E28.68514
G1 X53.129 Y178.421 E28.70133
G1 X53.618 Y178.381 E28.71765
G1 X54.106 Y178.426 E28.73395
G1 X54.565 Y178.551 E28.74977
G1 X55.013 Y178.761 E28.76622
G1 X55.409 Y179.04 E28.78234
G1 X55.753 Y179.384 E28.79852
G1 X56.039 Y179.792 E28.81509
G1 X56.24 Y180.232 E28.83118
G1 X56.366 Y180.703 E28.84739
G1 X56.406 Y181.191 E28.86368
G1 X56.361 Y181.68 E28.88001
G1 X56.233 Y182.147 E28.89612
G1 X56.026 Y182.591 E28.91241
G1 X55.743 Y182.986 E28.92857
G1 X55.397 Y183.331 E28.94482
G1 X54.996 Y183.613 E28.96113
G0 F3600 X54.815 Y183.696
G0 X55.329 Y184.79
G0 X56.155 Y184.203
G0 X56.64 Y183.715
G0 X57.034 Y183.15
G0 X57.325 Y182.524
G0 X57.501 Y181.858
G0 X57.549 Y181.305
G0 X49.906 Y36.634
;TYPE:WALL-INNER
G1 F3300 X50.126 Y36.789 E28.97008
G1 X50.736 Y37.141 E28.9935
G1 X51.148 Y37.33 E29.00858
G1 X51.753 Y37.547 E29.02996
G1 X52.188 Y37.664 E29.04494
G1 X52.834 Y37.777 E29.06675
G1 X53.642 Y37.831 E29.09369
G1 X54.418 Y37.775 E29.11956
G1 X55.07 Y37.658 E29.1416
G1 X55.93 Y37.397 E29.17149
G1 X56.523 Y37.128 E29.19315
G1 X57.002 Y36.861 E29.21139
G1 X57.499 Y36.51 E29.23162
G1 X57.902 Y36.178 E29.24899
G1 X58.303 Y35.778 E29.26783
G1 X58.656 Y35.37 E29.28577
G1 X58.983 Y34.906 E29.30465
G1 X59.259 Y34.448 E29.32244
G1 X59.515 Y33.898 E29.34261
G1 X59.732 Y33.293 E29.36399
G1 X59.916 Y32.554 E29.38932
G1 X60.002 Y31.756 E29.41602
G1 X60.001 Y31.079 E29.43853
G1 X59.918 Y30.309 E29.46429
G1 X59.723 Y29.535 E29.49084
G1 X59.503 Y28.933 E29.51216
G1 X59.315 Y28.526 E29.52707
G1 X58.965 Y27.925 E29.5502
G1 X58.701 Y27.552 E29.5654
G1 X58.278 Y27.053 E29.58716
G1 X57.734 Y26.55 E29.6118
G0 F3600 X56.444 Y26.151
G1 F3300 X57.243 Y26.658 E29.64327
G1 X57.677 Y27.022 E29.66211
G1 X57.996 Y27.338 E29.67705
G1 X58.375 Y27.784 E29.69651
G1 X58.639 Y28.157 E29.71171
G1 X58.952 Y28.694 E29.73239
G1 X59.141 Y29.101 E29.74731
G1 X59.337 Y29.64 E29.76639
G1 X59.524 Y30.379 E29.79174
G1 X59.603 Y31.115 E29.81636
G1 X59.604 Y31.721 E29.83652
G1 X59.523 Y32.483 E29.862
G1 X59.346 Y33.19 E29.88625
G1 X59.151 Y33.731 E29.90537
G1 X58.902 Y34.267 E29.92503
G1 X58.395 Y35.048 E29.956
G1 X58.058 Y35.457 E29.97363
G1 X57.627 Y35.887 E29.99387
G1 X56.898 Y36.448 E30.02447
G1 X56.354 Y36.765 E30.04541
G1 X55.781 Y37.026 E30.06635
G1 X54.966 Y37.272 E30.09467
G1 X54.382 Y37.377 E30.1144
G1 X53.64 Y37.431 E30.13915
G1 X52.869 Y37.378 E30.16485
G1 X52.291 Y37.277 E30.18437
G1 X51.856 Y37.161 E30.19934
G1 X51.315 Y36.966 E30.21847
G1 X50.903 Y36.777 E30.23354
G1 X50.357 Y36.463 E30.25449
G1 X49.985 Y36.2 E30.26965
G1 X49.555 Y35.839 E30.28832
G1 X49.506 Y35.79 E30.29062
G0 F3600 X49.106 Y34.736
G1 F3300 X49.185 Y34.848 E30.29518
G1 X49.518 Y35.239 E30.31227
G1 X49.837 Y35.555 E30.3272
G1 X50.588 Y36.136 E30.35878
G1 X51.069 Y36.414 E30.37726
G1 X51.481 Y36.603 E30.39233
G1 X51.959 Y36.774 E30.40922
G1 X52.394 Y36.891 E30.4242
G1 X52.904 Y36.98 E30.44142
G1 X53.638 Y37.031 E30.46589
G1 X54.346 Y36.979 E30.4895
G1 X54.861 Y36.886 E30.50691
G1 X55.631 Y36.655 E30.53365
G1 X56.186 Y36.402 E30.55394
G1 X56.666 Y36.122 E30.57242
G1 X57.352 Y35.597 E30.60115
G1 X57.736 Y35.214 E30.61919
G1 X58.067 Y34.819 E30.63633
G1 X58.546 Y34.085 E30.66548
G1 X58.788 Y33.564 E30.68459
G1 X58.959 Y33.086 E30.70147
G1 X59.129 Y32.411 E30.72462
G1 X59.205 Y31.686 E30.74887
G1 X59.204 Y31.151 E30.76666
G1 X59.13 Y30.448 E30.79017
G1 X58.951 Y29.745 E30.8143
G1 X58.778 Y29.27 E30.83112
G1 X58.589 Y28.863 E30.84604
G1 X58.313 Y28.389 E30.86428
G1 X58.048 Y28.016 E30.8795
G1 X57.714 Y27.622 E30.89668
G1 X57.395 Y27.306 E30.91162
G1 X56.64 Y26.722 E30.94336
G1 X56.164 Y26.448 E30.96163
G1 X55.753 Y26.259 E30.97668
G1 X55.271 Y26.086 E30.99371
G1 X54.835 Y25.97 E31.00872
G1 F2838.7 X54.326 Y25.816 E31.02928
G0 F3600 X52.624 Y25.833
G1 F2727.3 X51.934 Y26.093 E31.05895
