;FLAVOR:Marlin
;TIME:7319
;Filament used: 10.8573m
;Layer height: 0.3
;MINX:67.2
;MINY:74.2
;MINZ:0.2
;MAXX:182.8
;MAXY:135.8
;MAXZ:14.9
;Generated with Cura_SteamEngine 99.10.0-Arachne_engine_beta_2
M82 ;absolute extrusion mode
G21 ; set units to millimeters
G90 ; use absolute positioning
M82 ; absolute extrusion mode
M104 S210 ; set extruder temp
M140 S60 ; set bed temp
M190 S60 ; wait for bed temp
M109 S210 ; wait for extruder temp
G28 W ; home all without mesh bed level
G80 ; mesh bed leveling
G92 E0.0 ; reset extruder distance position
G1 Y-3.0 F1000.0 ; go outside print area
G1 X60.0 E9.0 F1000.0 ; intro line
G1 X100.0 E21.5 F1000.0 ; intro line
G92 E0.0 ; reset extruder distance position
G92 E0
G92 E0
G1 F2100 E-0.8
;LAYER_COUNT:50
;LAYER:0
M107
G0 F3600 X69.623 Y76.349 Z0.2
G0 X75 Y75.4
;TYPE:SKIRT
G1 F2100 E0
G1 F1800 X175 Y75.4 E3.32601
G1 X175.725 Y75.44 E3.35016
G1 X176.442 Y75.559 E3.37434
G1 X177.141 Y75.757 E3.3985
G1 X177.814 Y76.03 E3.42266
G1 X178.453 Y76.375 E3.44681
G1 X179.05 Y76.789 E3.47097
G1 X179.598 Y77.265 E3.49512
G1 X180.091 Y77.799 E3.51929
G1 X180.521 Y78.384 E3.54344
G1 X180.885 Y79.013 E3.56761
G1 X181.178 Y79.678 E3.59178
G1 X181.396 Y80.371 E3.61594
G1 X181.536 Y81.083 E3.64007
G1 X181.6 Y82 E3.67065
G1 X181.6 Y128 E5.20061
G1 X181.56 Y128.725 E5.22476
G1 X181.441 Y129.442 E5.24894
G1 X181.243 Y130.141 E5.2731
G1 X180.97 Y130.814 E5.29726
G1 X180.625 Y131.453 E5.32141
G1 X180.211 Y132.05 E5.34557
G1 X179.735 Y132.598 E5.36972
G1 X179.201 Y133.091 E5.39389
G1 X178.616 Y133.521 E5.41804
G1 X177.987 Y133.885 E5.44221
G1 X177.322 Y134.178 E5.46638
G1 X176.629 Y134.396 E5.49054
G1 X175.917 Y134.536 E5.51468
G1 X175 Y134.6 E5.54525
G1 X75 Y134.6 E8.87126
G1 X74.275 Y134.56 E8.89541
G1 X73.558 Y134.441 E8.91959
G1 X72.859 Y134.243 E8.94375
G1 X72.186 Y133.97 E8.96791
G1 X71.547 Y133.625 E8.99206
G1 X70.95 Y133.211 E9.01622
G1 X70.402 Y132.735 E9.04037
G1 X69.909 Y132.201 E9.06454
G1 X69.479 Y131.616 E9.08869
G1 X69.115 Y130.987 E9.11286
G1 X68.822 Y130.322 E9.13703
G1 X68.604 Y129.629 E9.16119
G1 X68.464 Y128.917 E9.18532
G1 X68.4 Y128 E9.2159
G1 X68.4 Y82 E10.74586
G1 X68.44 Y81.275 E10.77001
G1 X68.559 Y80.558 E10.79419
G1 X68.757 Y79.859 E10.81835
G1 X69.03 Y79.186 E10.84251
G1 X69.375 Y78.547 E10.86666
G1 X69.789 Y77.95 E10.89082
G1 X70.265 Y77.402 E10.91497
G1 X70.799 Y76.909 E10.93914
G1 X71.384 Y76.479 E10.96329
G1 X72.013 Y76.115 E10.98746
G1 X72.678 Y75.822 E11.01163
G1 X73.371 Y75.604 E11.03579
G1 X74.083 Y75.464 E11.05993
G1 X75 Y75.4 E11.0905
G0 F3600 X75 Y75
G1 F1800 X175 Y75 E14.41651
G1 X175.747 Y75.04 E14.44139
G1 X176.485 Y75.159 E14.46626
G1 X177.207 Y75.357 E14.49116
G1 X177.903 Y75.63 E14.51602
G1 X178.566 Y75.977 E14.54091
G1 X179.189 Y76.392 E14.56581
G1 X179.763 Y76.871 E14.59068
G1 X180.284 Y77.408 E14.61556
G1 X180.743 Y77.998 E14.64042
G1 X181.138 Y78.634 E14.66532
G1 X181.462 Y79.308 E14.6902
G1 X181.712 Y80.013 E14.71508
G1 X181.886 Y80.741 E14.73997
G1 X181.981 Y81.483 E14.76485
G1 X182 Y82 E14.78206
G1 X182 Y128 E16.31203
G1 X181.96 Y128.747 E16.33691
G1 X181.841 Y129.485 E16.36177
G1 X181.643 Y130.207 E16.38667
G1 X181.37 Y130.903 E16.41154
G1 X181.023 Y131.566 E16.43643
G1 X180.608 Y132.189 E16.46132
G1 X180.129 Y132.763 E16.48619
G1 X179.592 Y133.284 E16.51107
G1 X179.002 Y133.743 E16.53594
G1 X178.366 Y134.138 E16.56084
G1 X177.692 Y134.462 E16.58571
G1 X176.987 Y134.712 E16.61059
G1 X176.259 Y134.886 E16.63548
G1 X175.517 Y134.981 E16.66037
G1 X175 Y135 E16.67757
G1 X75 Y135 E20.00359
G1 X74.253 Y134.96 E20.02847
G1 X73.515 Y134.841 E20.05333
G1 X72.793 Y134.643 E20.07823
G1 X72.097 Y134.37 E20.1031
G1 X71.434 Y134.023 E20.12799
G1 X70.811 Y133.608 E20.15288
G1 X70.237 Y133.129 E20.17775
G1 X69.716 Y132.592 E20.20263
G1 X69.257 Y132.002 E20.2275
G1 X68.862 Y131.366 E20.2524
G1 X68.538 Y130.692 E20.27727
G1 X68.288 Y129.987 E20.30215
G1 X68.114 Y129.259 E20.32704
G1 X68.019 Y128.517 E20.35193
G1 X68 Y128 E20.36913
G1 X68 Y82 E21.8991
G1 X68.04 Y81.253 E21.92398
G1 X68.159 Y80.515 E21.94884
G1 X68.357 Y79.793 E21.97374
G1 X68.63 Y79.097 E21.99861
G1 X68.977 Y78.434 E22.0235
G1 X69.392 Y77.811 E22.0484
G1 X69.871 Y77.237 E22.07326
G1 X70.408 Y76.716 E22.09815
G1 X70.998 Y76.257 E22.12301
G1 X71.634 Y75.862 E22.14791
G1 X72.308 Y75.538 E22.17278
G1 X73.013 Y75.288 E22.19766
G1 X73.741 Y75.114 E22.22256
G1 X74.483 Y75.019 E22.24744
G1 X75 Y75 E22.26465
G0 F3600 X75 Y74.6
G1 F1800 X175 Y74.6 E25.59066
G1 X175.768 Y74.64 E25.61624
G1 X176.528 Y74.759 E25.64182
G1 X177.271 Y74.957 E25.6674
G1 X177.99 Y75.231 E25.69299
G1 X178.676 Y75.578 E25.71856
G1 X179.323 Y75.994 E25.74414
G1 X179.923 Y76.475 E25.76972
G1 X180.47 Y77.016 E25.79531
G1 X180.958 Y77.611 E25.8209
G1 X181.381 Y78.253 E25.84647
G1 X181.736 Y78.936 E25.87208
G1 X182.017 Y79.651 E25.89763
G1 X182.223 Y80.393 E25.92324
G1 X182.351 Y81.151 E25.94881
G1 X182.4 Y82 E25.97709
G1 X182.4 Y128 E27.50706
G1 X182.36 Y128.768 E27.53264
G1 X182.241 Y129.528 E27.55822
G1 X182.043 Y130.271 E27.5838
G1 X181.769 Y130.99 E27.60939
G1 X181.422 Y131.676 E27.63496
G1 X181.006 Y132.323 E27.66054
G1 X180.525 Y132.923 E27.68612
G1 X179.984 Y133.47 E27.71171
G1 X179.389 Y133.958 E27.7373
G1 X178.747 Y134.381 E27.76287
G1 X178.064 Y134.736 E27.78848
G1 X177.349 Y135.017 E27.81403
G1 X176.607 Y135.223 E27.83964
G1 X175.849 Y135.351 E27.86521
G1 X175 Y135.4 E27.89349
G1 X75 Y135.4 E31.21951
G1 X74.232 Y135.36 E31.24508
G1 X73.472 Y135.241 E31.27067
G1 X72.729 Y135.043 E31.29624
G1 X72.01 Y134.769 E31.32184
G1 X71.324 Y134.422 E31.34741
G1 X70.677 Y134.006 E31.37299
G1 X70.077 Y133.525 E31.39857
G1 X69.53 Y132.984 E31.42415
G1 X69.042 Y132.389 E31.44975
G1 X68.619 Y131.747 E31.47532
G1 X68.264 Y131.064 E31.50092
G1 X67.983 Y130.349 E31.52647
G1 X67.777 Y129.607 E31.55209
G1 X67.649 Y128.849 E31.57765
G1 X67.6 Y128 E31.60594
G1 X67.6 Y82 E33.13591
G1 X67.64 Y81.232 E33.16148
G1 X67.759 Y80.472 E33.18707
G1 X67.957 Y79.729 E33.21264
G1 X68.231 Y79.01 E33.23824
G1 X68.578 Y78.324 E33.26381
G1 X68.994 Y77.677 E33.28939
G1 X69.475 Y77.077 E33.31497
G1 X70.016 Y76.53 E33.34055
G1 X70.611 Y76.042 E33.36615
G1 X71.253 Y75.619 E33.39172
G1 X71.936 Y75.264 E33.41732
G1 X72.651 Y74.983 E33.44287
G1 X73.393 Y74.777 E33.46849
G1 X74.151 Y74.649 E33.49405
G1 X75 Y74.6 E33.52234
G0 F3600 X75 Y74.2
G1 F1800 X175 Y74.2 E36.84835
G1 X175.789 Y74.24 E36.87463
G1 X176.569 Y74.359 E36.90087
G1 X177.334 Y74.557 E36.92715
G1 X178.074 Y74.831 E36.9534
G1 X178.783 Y75.179 E36.97967
G1 X179.454 Y75.597 E37.00596
G1 X180.078 Y76.08 E37.03221
G1 X180.651 Y76.623 E37.05846
G1 X181.166 Y77.222 E37.08474
G1 X181.617 Y77.87 E37.111
G1 X182.001 Y78.561 E37.13729
G1 X182.313 Y79.286 E37.16354
G1 X182.55 Y80.039 E37.1898
G1 X182.709 Y80.813 E37.21608
G1 X182.79 Y81.598 E37.24233
G1 X182.8 Y82 E37.2557
G1 X182.8 Y128 E38.78567
G1 X182.76 Y128.789 E38.81194
G1 X182.641 Y129.569 E38.83819
G1 X182.443 Y130.334 E38.86447
G1 X182.169 Y131.074 E38.89071
G1 X181.821 Y131.783 E38.91698
G1 X181.403 Y132.454 E38.94328
G1 X180.92 Y133.078 E38.96952
G1 X180.377 Y133.651 E38.99578
G1 X179.778 Y134.166 E39.02205
G1 X179.13 Y134.617 E39.04831
G1 X178.439 Y135.001 E39.0746
G1 X177.714 Y135.313 E39.10086
G1 X176.961 Y135.55 E39.12711
G1 X176.187 Y135.709 E39.15339
G1 X175.402 Y135.79 E39.17964
G1 X175 Y135.8 E39.19302
G1 X75 Y135.8 E42.51903
G1 X74.211 Y135.76 E42.5453
G1 X73.431 Y135.641 E42.57155
G1 X72.666 Y135.443 E42.59783
G1 X71.926 Y135.169 E42.62408
G1 X71.217 Y134.821 E42.65034
G1 X70.546 Y134.403 E42.67664
G1 X69.922 Y133.92 E42.70288
G1 X69.349 Y133.377 E42.72914
G1 X68.834 Y132.778 E42.75541
G1 X68.383 Y132.13 E42.78167
G1 X67.999 Y131.439 E42.80797
G1 X67.687 Y130.714 E42.83422
G1 X67.45 Y129.961 E42.86047
G1 X67.291 Y129.187 E42.88675
G1 X67.21 Y128.402 E42.913
G1 X67.2 Y128 E42.92638
G1 X67.2 Y82 E44.45634
G1 X67.24 Y81.211 E44.48262
G1 X67.359 Y80.431 E44.50886
G1 X67.557 Y79.666 E44.53514
G1 X67.831 Y78.926 E44.56139
G1 X68.179 Y78.217 E44.58766
G1 X68.597 Y77.546 E44.61395
G1 X69.08 Y76.922 E44.6402
G1 X69.623 Y76.349 E44.66645
G1 X70.222 Y75.834 E44.69273
G1 X70.87 Y75.383 E44.71899
G1 X71.561 Y74.999 E44.74528
G1 X72.286 Y74.687 E44.77153
G1 X73.039 Y74.45 E44.79779
G1 X73.813 Y74.291 E44.82407
G1 X74.598 Y74.21 E44.85032
G1 X75 Y74.2 E44.86369
G0 F3600 X75 Y75.8
G1 F1800 X175 Y75.8 E48.1897
G1 X175.703 Y75.84 E48.21312
G1 X176.397 Y75.959 E48.23654
G1 X177.072 Y76.157 E48.25994
G1 X177.721 Y76.429 E48.28335
G1 X178.335 Y76.774 E48.30677
G1 X178.906 Y77.185 E48.33017
G1 X179.427 Y77.659 E48.3536
G1 X179.891 Y78.189 E48.37703
G1 X180.291 Y78.768 E48.40043
G1 X180.623 Y79.389 E48.42385
G1 X180.883 Y80.043 E48.44726
G1 X181.067 Y80.723 E48.47069
G1 X181.173 Y81.419 E48.49411
G1 X181.2 Y82 E48.51345
G1 X181.2 Y128 E50.04342
G1 X181.16 Y128.703 E50.06684
G1 X181.041 Y129.397 E50.09026
G1 X180.843 Y130.072 E50.11365
G1 X180.571 Y130.721 E50.13706
G1 X180.226 Y131.335 E50.16048
G1 X179.815 Y131.906 E50.18388
G1 X179.341 Y132.427 E50.20731
G1 X178.811 Y132.891 E50.23074
G1 X178.232 Y133.291 E50.25415
G1 X177.611 Y133.623 E50.27757
G1 X176.957 Y133.883 E50.30097
G1 X176.277 Y134.067 E50.3244
G1 X175.581 Y134.173 E50.34782
G1 X175 Y134.2 E50.36717
G1 X75 Y134.2 E53.69318
G1 X74.297 Y134.16 E53.7166
G1 X73.603 Y134.041 E53.74002
G1 X72.928 Y133.843 E53.76341
G1 X72.279 Y133.571 E53.78682
G1 X71.665 Y133.226 E53.81024
G1 X71.094 Y132.815 E53.83364
G1 X70.573 Y132.341 E53.85707
G1 X70.109 Y131.811 E53.8805
G1 X69.709 Y131.232 E53.90391
G1 X69.377 Y130.611 E53.92733
G1 X69.117 Y129.957 E53.95074
G1 X68.933 Y129.277 E53.97417
G1 X68.827 Y128.581 E53.99758
G1 X68.8 Y128 E54.01693
G1 X68.8 Y82 E55.54689
G1 X68.84 Y81.297 E55.57031
G1 X68.959 Y80.603 E55.59373
G1 X69.157 Y79.928 E55.61713
G1 X69.429 Y79.279 E55.64053
G1 X69.774 Y78.665 E55.66396
G1 X70.185 Y78.094 E55.68736
G1 X70.659 Y77.573 E55.71078
G1 X71.189 Y77.109 E55.73421
G1 X71.768 Y76.709 E55.75762
G1 X72.389 Y76.377 E55.78104
G1 X73.043 Y76.117 E55.80445
G1 X73.723 Y75.933 E55.82788
G1 X74.419 Y75.827 E55.85129
G1 X75 Y75.8 E55.87064
G0 F3600 X75 Y76.2
G1 F1800 X175 Y76.2 E59.19665
G1 X175.68 Y76.24 E59.21931
G1 X176.35 Y76.359 E59.24194
G1 X177.002 Y76.556 E59.2646
G1 X177.626 Y76.828 E59.28724
G1 X178.214 Y77.172 E59.30989
G1 X178.758 Y77.582 E59.33255
G1 X179.249 Y78.053 E59.35518
G1 X179.683 Y78.578 E59.37784
G1 X180.052 Y79.15 E59.40048
G1 X180.351 Y79.762 E59.42313
G1 X180.576 Y80.404 E59.44576
G1 X180.725 Y81.069 E59.46842
G1 X180.8 Y82 E59.49949
G1 X180.8 Y128 E61.02946
G1 X180.76 Y128.68 E61.05211
G1 X180.641 Y129.35 E61.07474
G1 X180.444 Y130.002 E61.0974
G1 X180.172 Y130.626 E61.12004
G1 X179.828 Y131.214 E61.1427
G1 X179.418 Y131.758 E61.16535
G1 X178.947 Y132.249 E61.18798
G1 X178.422 Y132.683 E61.21064
G1 X177.85 Y133.052 E61.23328
G1 X177.238 Y133.351 E61.25593
G1 X176.596 Y133.576 E61.27856
G1 X175.931 Y133.725 E61.30123
G1 X175 Y133.8 E61.33229
G1 X75 Y133.8 E64.65831
G1 X74.32 Y133.76 E64.68096
G1 X73.65 Y133.641 E64.70359
G1 X72.998 Y133.444 E64.72625
G1 X72.374 Y133.172 E64.74889
G1 X71.786 Y132.828 E64.77155
G1 X71.242 Y132.418 E64.7942
G1 X70.751 Y131.947 E64.81683
G1 X70.317 Y131.422 E64.83949
G1 X69.948 Y130.85 E64.86213
G1 X69.649 Y130.238 E64.88478
G1 X69.424 Y129.596 E64.90741
G1 X69.275 Y128.931 E64.93008
G1 X69.2 Y128 E64.96114
G1 X69.2 Y82 E66.49111
G1 X69.24 Y81.32 E66.51376
G1 X69.359 Y80.65 E66.5364
G1 X69.556 Y79.998 E66.55905
G1 X69.828 Y79.374 E66.58169
G1 X70.172 Y78.786 E66.60435
G1 X70.582 Y78.242 E66.62701
G1 X71.053 Y77.751 E66.64964
G1 X71.578 Y77.317 E66.67229
G1 X72.15 Y76.948 E66.69493
G1 X72.762 Y76.649 E66.71759
G1 X73.404 Y76.424 E66.74021
G1 X74.069 Y76.275 E66.76288
G1 X75 Y76.2 E66.79394
G0 F3600 X75 Y76.6
G1 F1800 X175 Y76.6 E70.11996
G1 X175.656 Y76.64 E70.14182
G1 X176.302 Y76.759 E70.16366
G1 X176.929 Y76.956 E70.18552
G1 X177.527 Y77.228 E70.20737
G1 X178.088 Y77.57 E70.22923
G1 X178.603 Y77.978 E70.25108
G1 X179.065 Y78.445 E70.27293
G1 X179.466 Y78.965 E70.29477
G1 X179.802 Y79.529 E70.3166
G1 X180.066 Y80.131 E70.33847
G1 X180.256 Y80.76 E70.36032
G1 X180.367 Y81.407 E70.38216
G1 X180.4 Y82 E70.40191
G1 X180.4 Y128 E71.93188
G1 X180.36 Y128.656 E71.95373
G1 X180.241 Y129.302 E71.97558
G1 X180.044 Y129.929 E71.99744
G1 X179.772 Y130.527 E72.01929
G1 X179.43 Y131.088 E72.04114
G1 X179.022 Y131.603 E72.063
G1 X178.555 Y132.065 E72.08485
G1 X178.035 Y132.466 E72.10669
G1 X177.471 Y132.802 E72.12852
G1 X176.869 Y133.066 E72.15039
G1 X176.24 Y133.256 E72.17224
G1 X175.593 Y133.367 E72.19407
G1 X175 Y133.4 E72.21383
G1 X75 Y133.4 E75.53984
G1 X74.344 Y133.36 E75.5617
G1 X73.698 Y133.241 E75.58355
G1 X73.071 Y133.044 E75.60541
G1 X72.473 Y132.772 E75.62726
G1 X71.912 Y132.43 E75.64911
G1 X71.397 Y132.022 E75.67096
G1 X70.935 Y131.555 E75.69281
G1 X70.534 Y131.035 E75.71465
G1 X70.198 Y130.471 E75.73649
G1 X69.934 Y129.869 E75.75835
G1 X69.744 Y129.24 E75.78021
G1 X69.633 Y128.593 E75.80204
G1 X69.6 Y128 E75.82179
G1 X69.6 Y82 E77.35176
G1 X69.64 Y81.344 E77.37362
G1 X69.759 Y80.698 E77.39547
G1 X69.956 Y80.071 E77.41733
G1 X70.228 Y79.473 E77.43918
G1 X70.57 Y78.912 E77.46103
G1 X70.978 Y78.397 E77.48288
G1 X71.445 Y77.935 E77.50473
G1 X71.965 Y77.534 E77.52657
G1 X72.529 Y77.198 E77.54841
G1 X73.131 Y76.934 E77.57027
G1 X73.76 Y76.744 E77.59212
G1 X74.407 Y76.633 E77.61396
G1 X75 Y76.6 E77.63371
G0 F3600 X75 Y77
G1 F1800 X175 Y77 E80.95972
G1 X175.631 Y77.04 E80.98075
G1 X176.252 Y77.159 E81.00178
G1 X176.852 Y77.356 E81.02279
G1 X177.424 Y77.627 E81.04384
G1 X177.956 Y77.967 E81.06484
G1 X178.441 Y78.373 E81.08588
G1 X178.871 Y78.836 E81.10689
G1 X179.24 Y79.35 E81.12794
G1 X179.54 Y79.906 E81.14895
G1 X179.768 Y80.495 E81.16996
G1 X179.92 Y81.109 E81.191
G1 X180 Y82 E81.22075
G1 X180 Y128 E82.75072
G1 X179.96 Y128.631 E82.77175
G1 X179.841 Y129.252 E82.79278
G1 X179.644 Y129.852 E82.81378
G1 X179.373 Y130.424 E82.83483
G1 X179.033 Y130.956 E82.85583
G1 X178.627 Y131.441 E82.87687
G1 X178.164 Y131.871 E82.89788
G1 X177.65 Y132.24 E82.91893
G1 X177.094 Y132.54 E82.93994
G1 X176.505 Y132.768 E82.96095
G1 X175.891 Y132.92 E82.98199
G1 X175 Y133 E83.01174
G1 X75 Y133 E86.33775
G1 X74.369 Y132.96 E86.35878
G1 X73.748 Y132.841 E86.37981
G1 X73.148 Y132.644 E86.40082
G1 X72.576 Y132.373 E86.42187
G1 X72.044 Y132.033 E86.44287
G1 X71.559 Y131.627 E86.46391
G1 X71.129 Y131.164 E86.48492
G1 X70.76 Y130.65 E86.50597
G1 X70.46 Y130.094 E86.52698
G1 X70.232 Y129.505 E86.54799
G1 X70.08 Y128.891 E86.56903
G1 X70 Y128 E86.59878
G1 X70 Y82 E88.12875
G1 X70.04 Y81.369 E88.14978
G1 X70.159 Y80.748 E88.17081
G1 X70.356 Y80.148 E88.19181
G1 X70.627 Y79.576 E88.21286
G1 X70.967 Y79.044 E88.23386
G1 X71.373 Y78.559 E88.2549
G1 X71.836 Y78.129 E88.27592
G1 X72.35 Y77.76 E88.29696
G1 X72.906 Y77.46 E88.31797
G1 X73.495 Y77.232 E88.33898
G1 X74.109 Y77.08 E88.36002
G1 X75 Y77 E88.38977
G0 F3600 X75 Y77.4
G1 F1800 X175 Y77.4 E91.71579
G1 X175.605 Y77.44 E91.73595
G1 X176.199 Y77.559 E91.7561
G1 X176.773 Y77.755 E91.77627
G1 X177.316 Y78.026 E91.79646
G1 X177.819 Y78.365 E91.81663
G1 X178.272 Y78.767 E91.83678
G1 X178.669 Y79.225 E91.85694
G1 X179.002 Y79.732 E91.87711
G1 X179.266 Y80.278 E91.89728
G1 X179.455 Y80.854 E91.91745
G1 X179.567 Y81.45 E91.93762
G1 X179.6 Y82 E91.95594
G1 X179.6 Y128 E93.48591
G1 X179.56 Y128.605 E93.50607
G1 X179.441 Y129.199 E93.52622
G1 X179.245 Y129.773 E93.5464
G1 X178.974 Y130.316 E93.56658
G1 X178.635 Y130.819 E93.58676
G1 X178.233 Y131.272 E93.6069
G1 X177.775 Y131.669 E93.62706
G1 X177.268 Y132.002 E93.64723
G1 X176.722 Y132.266 E93.66741
G1 X176.146 Y132.455 E93.68757
G1 X175.55 Y132.567 E93.70774
G1 X175 Y132.6 E93.72607
G1 X75 Y132.6 E97.05208
G1 X74.395 Y132.56 E97.07224
G1 X73.801 Y132.441 E97.09239
G1 X73.227 Y132.245 E97.11257
G1 X72.684 Y131.974 E97.13275
G1 X72.181 Y131.635 E97.15293
G1 X71.728 Y131.233 E97.17307
G1 X71.331 Y130.775 E97.19323
G1 X70.998 Y130.268 E97.21341
G1 X70.734 Y129.722 E97.23358
G1 X70.545 Y129.146 E97.25374
G1 X70.433 Y128.55 E97.27391
G1 X70.4 Y128 E97.29224
G1 X70.4 Y82 E98.8222
