;FLAVOR:Marlin
;TIME:14084
;Filament used: 18.0037m
;Layer height: 0.2
;MINX:60.459
;MINY:41.917
;MINZ:0.2
;MAXX:191.836
;MAXY:173.298
;MAXZ:4
;Generated with Cura_SteamEngine 4.12.1
M82 ;absolute extrusion mode
G21 ; set units to millimeters
G90 ; use absolute positioning
M82 ; absolute extrusion mode
M104 S200 ; set extruder temp
M140 S60 ; set bed temp
M190 S60 ; wait for bed temp
M109 S200 ; wait for extruder temp
G28 W ; home all without mesh bed level
G80 ; mesh bed leveling
G92 E0.0 ; reset extruder distance position
G1 Y-3.0 F1000.0 ; go outside print area
G1 X60.0 E9.0 F1000.0 ; intro line
G1 X100.0 E21.5 F1000.0 ; intro line
G92 E0.0 ; reset extruder distance position
G92 E0
G92 E0
G1 F2100 E-0.8
;LAYER_COUNT:20
;LAYER:0
M107
G0 F3600 X76.763 Y64.286 Z0.2
;TYPE:SKIRT
G1 F2100 E0
G1 F1800 X77.028 Y63.985 E0.01334
G1 X78.205 Y62.695 E0.07142
G1 X78.585 Y62.293 E0.08982
G1 X79.753 Y61.098 E0.1454
G1 X80.053 Y60.799 E0.15948
G1 X81.351 Y59.558 E0.21921
G1 X81.73 Y59.207 E0.23639
G1 X82.997 Y58.073 E0.29295
G1 X83.313 Y57.799 E0.30686
G1 X84.648 Y56.681 E0.36477
G1 X85.008 Y56.39 E0.38017
G1 X86.409 Y55.296 E0.43929
G1 X86.856 Y54.961 E0.45787
G1 X88.165 Y54.008 E0.51172
G1 X88.531 Y53.75 E0.52662
G1 X90.011 Y52.747 E0.58608
G1 X90.374 Y52.509 E0.60052
G1 X91.876 Y51.562 E0.65958
G1 X92.312 Y51.299 E0.67651
G1 X93.791 Y50.436 E0.73347
G1 X94.134 Y50.243 E0.74656
G1 X95.729 Y49.381 E0.80686
G1 X96.076 Y49.202 E0.81984
G1 X97.724 Y48.383 E0.88105
G1 X98.158 Y48.177 E0.89703
G1 X99.689 Y47.479 E0.95299
G1 X100.13 Y47.287 E0.96899
G1 X101.688 Y46.639 E1.02511
G1 X102.097 Y46.477 E1.03975
G1 X103.82 Y45.827 E1.101
G1 X104.274 Y45.665 E1.11703
G1 X105.888 Y45.118 E1.17371
G1 X106.275 Y44.994 E1.18723
G1 X107.991 Y44.474 E1.24686
G1 X108.418 Y44.354 E1.26162
G1 X110.093 Y43.908 E1.31927
G1 X110.626 Y43.777 E1.33752
G1 X112.302 Y43.391 E1.39473
G1 X112.7 Y43.307 E1.40825
G1 X114.412 Y42.972 E1.46628
G1 X114.884 Y42.889 E1.48222
G1 X116.568 Y42.618 E1.53895
G1 X117.062 Y42.547 E1.55555
G1 X118.796 Y42.329 E1.61367
G1 X119.27 Y42.277 E1.62953
G1 X121.034 Y42.115 E1.68845
G1 X121.444 Y42.084 E1.70213
G1 X123.184 Y41.983 E1.7601
G1 X123.609 Y41.965 E1.77424
G1 X125.432 Y41.92 E1.8349
G1 X125.929 Y41.917 E1.85143
G1 X127.604 Y41.933 E1.90714
G1 X128.091 Y41.945 E1.92334
G1 X129.782 Y42.017 E1.97964
G1 X130.251 Y42.045 E1.99526
G1 X132.016 Y42.18 E2.05414
G1 X132.48 Y42.223 E2.06964
G1 X134.294 Y42.424 E2.13034
G1 X134.692 Y42.476 E2.14369
G1 X136.441 Y42.728 E2.20246
G1 X136.868 Y42.798 E2.21685
G1 X138.519 Y43.092 E2.27263
G1 X139 Y43.187 E2.28894
G1 X140.737 Y43.558 E2.34801
G1 X141.22 Y43.669 E2.3645
G1 X142.914 Y44.093 E2.42258
G1 X143.305 Y44.197 E2.43604
G1 X144.978 Y44.674 E2.4939
G1 X145.395 Y44.801 E2.5084
G1 X147.121 Y45.356 E2.5687
G1 X147.593 Y45.517 E2.58528
G1 X149.208 Y46.098 E2.64237
G1 X149.59 Y46.243 E2.65596
G1 X151.231 Y46.895 E2.71469
G1 X151.617 Y47.056 E2.7286
G1 X153.28 Y47.784 E2.78898
G1 X153.75 Y48 E2.80618
G1 X155.25 Y48.715 E2.86145
G1 X155.642 Y48.911 E2.87603
G1 X157.243 Y49.745 E2.93607
G1 X157.643 Y49.962 E2.95121
G1 X159.168 Y50.821 E3.00942
G1 X159.56 Y51.05 E3.02452
G1 X160.986 Y51.918 E3.08004
G1 X161.51 Y52.249 E3.10066
G1 X162.876 Y53.145 E3.15499
G1 X163.226 Y53.383 E3.16907
G1 X164.716 Y54.433 E3.2297
G1 X165.118 Y54.727 E3.24626
G1 X166.461 Y55.743 E3.30227
G1 X166.857 Y56.054 E3.31902
G1 X168.207 Y57.149 E3.37683
G1 X168.502 Y57.395 E3.38961
G1 X169.863 Y58.577 E3.44957
G1 X170.239 Y58.915 E3.46638
G1 X171.481 Y60.068 E3.52275
G1 X171.801 Y60.376 E3.53752
G1 X173.026 Y61.591 E3.59491
G1 X173.377 Y61.951 E3.61163
G1 X174.541 Y63.189 E3.66815
G1 X174.912 Y63.596 E3.68646
G1 X176.04 Y64.879 E3.74328
G1 X176.313 Y65.2 E3.7573
G1 X177.438 Y66.568 E3.81621
G1 X177.728 Y66.934 E3.83174
G1 X178.823 Y68.36 E3.89154
G1 X179.049 Y68.666 E3.90419
G1 X180.067 Y70.088 E3.96236
G1 X180.314 Y70.447 E3.97685
G1 X181.309 Y71.94 E4.03653
G1 X181.583 Y72.368 E4.05343
G1 X182.479 Y73.817 E4.11009
G1 X182.716 Y74.215 E4.1255
G1 X183.565 Y75.698 E4.18233
G1 X183.813 Y76.148 E4.19942
G1 X184.631 Y77.694 E4.2576
G1 X184.843 Y78.114 E4.27325
G1 X185.565 Y79.598 E4.32814
G1 X185.767 Y80.032 E4.34406
G1 X186.495 Y81.661 E4.4034
G1 X186.684 Y82.107 E4.41951
G1 X187.355 Y83.757 E4.47876
G1 X187.493 Y84.118 E4.49161
G1 X188.097 Y85.76 E4.5498
G1 X188.229 Y86.142 E4.56324
G1 X188.808 Y87.893 E4.62458
G1 X188.963 Y88.393 E4.642
G1 X189.421 Y89.957 E4.6962
G1 X189.549 Y90.424 E4.7123
G1 X189.982 Y92.108 E4.77014
G1 X190.077 Y92.51 E4.78388
G1 X190.473 Y94.297 E4.84475
G1 X190.571 Y94.78 E4.86114
G1 X190.884 Y96.461 E4.91802
G1 X190.948 Y96.848 E4.93106
G1 X191.217 Y98.608 E4.99028
G1 X191.282 Y99.091 E5.00649
G1 X191.48 Y100.773 E5.06282
G1 X191.529 Y101.264 E5.07923
G1 X191.672 Y102.974 E5.1363
G1 X191.709 Y103.535 E5.155
G1 X191.793 Y105.229 E5.21142
G1 X191.807 Y105.633 E5.22486
G1 X191.836 Y107.369 E5.28261
G1 X191.836 Y107.873 E5.29937
G1 X191.805 Y109.599 E5.35679
G1 X191.787 Y110.133 E5.37456
G1 X191.699 Y111.855 E5.43191
G1 X191.669 Y112.293 E5.44651
G1 X191.523 Y114.009 E5.50379
G1 X191.478 Y114.456 E5.51873
G1 X191.271 Y116.205 E5.57731
G1 X191.205 Y116.692 E5.59366
G1 X190.948 Y118.375 E5.65028
G1 X190.845 Y118.971 E5.6704
G1 X190.551 Y120.539 E5.72346
G1 X190.451 Y121.024 E5.73993
G1 X190.071 Y122.736 E5.79826
G1 X189.968 Y123.159 E5.81274
G1 X189.527 Y124.871 E5.87154
G1 X189.394 Y125.352 E5.88814
G1 X188.905 Y127.014 E5.94576
G1 X188.779 Y127.418 E5.95983
G1 X188.225 Y129.087 E6.01832
G1 X188.076 Y129.513 E6.03333
G1 X187.479 Y131.132 E6.09073
G1 X187.272 Y131.663 E6.10968
G1 X186.638 Y133.219 E6.16557
G1 X186.482 Y133.583 E6.17874
G1 X185.74 Y135.245 E6.23927
G1 X185.56 Y135.627 E6.25332
G1 X184.793 Y137.2 E6.31153
G1 X184.553 Y137.67 E6.32908
G1 X183.741 Y139.197 E6.3866
G1 X183.55 Y139.544 E6.39977
G1 X182.664 Y141.085 E6.4589
G1 X182.383 Y141.556 E6.47714
G1 X181.524 Y142.941 E6.53134
G1 X181.259 Y143.353 E6.54764
G1 X180.31 Y144.773 E6.60444
G1 X179.994 Y145.231 E6.62295
G1 X178.992 Y146.627 E6.6801
G1 X178.711 Y147.004 E6.69574
G1 X177.65 Y148.383 E6.75361
G1 X177.365 Y148.739 E6.76878
G1 X176.311 Y150.017 E6.82388
G1 X175.915 Y150.483 E6.84422
G1 X174.818 Y151.726 E6.89936
G1 X174.511 Y152.062 E6.91449
G1 X173.322 Y153.323 E6.97214
G1 X172.993 Y153.658 E6.98776
G1 X171.76 Y154.878 E7.04545
G1 X171.359 Y155.261 E7.06389
G1 X170.137 Y156.393 E7.11929
G1 X169.799 Y156.695 E7.13437
G1 X168.488 Y157.83 E7.19205
G1 X168.052 Y158.195 E7.21096
G1 X166.747 Y159.248 E7.26673
G1 X166.346 Y159.561 E7.28365
G1 X165.001 Y160.576 E7.33969
G1 X164.627 Y160.847 E7.35505
G1 X163.209 Y161.843 E7.41269
G1 X162.764 Y162.144 E7.43056
G1 X161.353 Y163.067 E7.48664
G1 X160.97 Y163.308 E7.50169
G1 X159.473 Y164.216 E7.55992
G1 X159.044 Y164.466 E7.57644
G1 X157.514 Y165.325 E7.6348
G1 X157.179 Y165.506 E7.64746
G1 X155.588 Y166.33 E7.70705
G1 X155.129 Y166.558 E7.7241
G1 X153.587 Y167.292 E7.7809
G1 X153.239 Y167.451 E7.79363
G1 X151.554 Y168.186 E7.85477
G1 X151.191 Y168.336 E7.86783
G1 X149.541 Y168.991 E7.92688
G1 X149.091 Y169.16 E7.94286
G1 X147.406 Y169.764 E8.0024
G1 X147.032 Y169.89 E8.01553
G1 X145.446 Y170.399 E8.07093
G1 X144.974 Y170.542 E8.08733
G1 X143.192 Y171.048 E8.14894
G1 X142.697 Y171.179 E8.16597
G1 X141.146 Y171.563 E8.21912
G1 X140.614 Y171.686 E8.23728
G1 X139.012 Y172.026 E8.29175
G1 X138.476 Y172.132 E8.30992
G1 X136.792 Y172.431 E8.36681
G1 X136.334 Y172.504 E8.38223
G1 X134.622 Y172.748 E8.43975
G1 X134.07 Y172.818 E8.45826
G1 X132.359 Y173.004 E8.5155
G1 X131.96 Y173.041 E8.52883
G1 X130.191 Y173.174 E8.58783
G1 X129.816 Y173.196 E8.60032
G1 X127.945 Y173.274 E8.66261
G1 X127.452 Y173.285 E8.67901
G1 X125.794 Y173.298 E8.73416
G1 X125.31 Y173.294 E8.75025
G1 X123.6 Y173.25 E8.80715
G1 X123.138 Y173.23 E8.82253
G1 X121.374 Y173.125 E8.8813
G1 X120.907 Y173.089 E8.89688
G1 X119.121 Y172.922 E8.95654
G1 X118.631 Y172.867 E8.97294
G1 X116.963 Y172.655 E9.02887
G1 X116.518 Y172.589 E9.04383
G1 X114.859 Y172.322 E9.09972
G1 X114.364 Y172.234 E9.11644
G1 X112.634 Y171.894 E9.17508
G1 X112.139 Y171.789 E9.19191
G1 X110.475 Y171.403 E9.24873
G1 X110.038 Y171.294 E9.26371
G1 X108.364 Y170.847 E9.32133
G1 X107.905 Y170.716 E9.33721
G1 X106.264 Y170.219 E9.39424
G1 X105.772 Y170.06 E9.41144
G1 X104.114 Y169.495 E9.4697
G1 X103.603 Y169.311 E9.48776
G1 X102.092 Y168.738 E9.54151
G1 X101.669 Y168.57 E9.55665
G1 X100.056 Y167.897 E9.61478
G1 X99.569 Y167.683 E9.63247
G1 X97.98 Y166.956 E9.69059
G1 X97.61 Y166.777 E9.70426
G1 X96.073 Y166.012 E9.76136
G1 X95.663 Y165.798 E9.77674
G1 X94.115 Y164.962 E9.83526
G1 X93.646 Y164.697 E9.85318
G1 X92.176 Y163.835 E9.90985
G1 X91.81 Y163.612 E9.92411
G1 X90.318 Y162.67 E9.9828
G1 X89.944 Y162.424 E9.99769
G1 X88.429 Y161.393 E10.05864
G1 X88.06 Y161.131 E10.07369
G1 X86.691 Y160.132 E10.13006
G1 X86.342 Y159.868 E10.14461
G1 X85.006 Y158.823 E10.20102
G1 X84.612 Y158.504 E10.21789
G1 X83.274 Y157.382 E10.27596
G1 X82.89 Y157.046 E10.29293
G1 X81.588 Y155.878 E10.35111
G1 X81.324 Y155.632 E10.36311
G1 X80.012 Y154.373 E10.42359
G1 X79.621 Y153.984 E10.44194
G1 X78.508 Y152.841 E10.495
G1 X78.158 Y152.471 E10.51194
G1 X76.997 Y151.195 E10.56932
G1 X76.646 Y150.794 E10.58704
G1 X75.537 Y149.49 E10.64398
G1 X75.225 Y149.111 E10.6603
G1 X74.157 Y147.766 E10.71743
G1 X73.876 Y147.4 E10.73277
G1 X72.867 Y146.037 E10.78918
G1 X72.551 Y145.595 E10.80725
G1 X71.587 Y144.199 E10.86367
G1 X71.339 Y143.825 E10.8786
G1 X70.404 Y142.367 E10.93621
G1 X70.115 Y141.899 E10.9545
G1 X69.251 Y140.446 E11.01073
G1 X69.056 Y140.106 E11.02376
G1 X68.172 Y138.5 E11.08474
G1 X67.927 Y138.036 E11.10219
G1 X67.197 Y136.598 E11.15583
G1 X66.971 Y136.138 E11.17287
G1 X66.258 Y134.609 E11.22899
G1 X66.027 Y134.088 E11.24794
G1 X65.357 Y132.51 E11.30496
G1 X65.193 Y132.104 E11.31953
G1 X64.579 Y130.522 E11.37597
G1 X64.415 Y130.074 E11.39183
G1 X63.826 Y128.387 E11.45127
G1 X63.673 Y127.918 E11.46767
G1 X63.16 Y126.268 E11.52514
G1 X63.032 Y125.832 E11.54026
G1 X62.587 Y124.216 E11.59601
G1 X62.463 Y123.732 E11.61262
G1 X62.06 Y122.048 E11.67022
G1 X61.964 Y121.614 E11.685
G1 X61.608 Y119.869 E11.74423
G1 X61.508 Y119.327 E11.76257
G1 X61.232 Y117.694 E11.81765
G1 X61.167 Y117.261 E11.83221
G1 X60.927 Y115.487 E11.89175
G1 X60.876 Y115.052 E11.90632
G1 X60.702 Y113.319 E11.96425
G1 X60.667 Y112.897 E11.97833
G1 X60.545 Y111.081 E12.03887
G1 X60.525 Y110.671 E12.05252
G1 X60.466 Y108.917 E12.1109
G1 X60.459 Y108.462 E12.12603
G1 X60.46 Y106.696 E12.18477
G1 X60.469 Y106.229 E12.2003
G1 X60.531 Y104.422 E12.26044
G1 X60.557 Y103.928 E12.27689
G1 X60.668 Y102.307 E12.33093
G1 X60.707 Y101.834 E12.34672
G1 X60.884 Y100.097 E12.40479
G1 X60.936 Y99.659 E12.41946
G1 X61.174 Y97.912 E12.4781
G1 X61.254 Y97.39 E12.49567
G1 X61.544 Y95.689 E12.55306
G1 X61.633 Y95.214 E12.56913
G1 X61.972 Y93.56 E12.62529
G1 X62.073 Y93.102 E12.64089
G1 X62.475 Y91.436 E12.69789
G1 X62.581 Y91.022 E12.7121
G1 X63.074 Y89.242 E12.77354
G1 X63.2 Y88.813 E12.78841
G1 X63.72 Y87.15 E12.84636
G1 X63.869 Y86.7 E12.86213
G1 X64.416 Y85.138 E12.91717
G1 X64.58 Y84.694 E12.93291
G1 X65.227 Y83.023 E12.99251
G1 X65.419 Y82.555 E13.00934
G1 X66.107 Y80.944 E13.0676
G1 X66.262 Y80.601 E13.08012
G1 X67.019 Y78.983 E13.13953
G1 X67.226 Y78.56 E13.1552
G1 X68.035 Y76.97 E13.21453
G1 X68.215 Y76.632 E13.22727
G1 X69.066 Y75.088 E13.28591
G1 X69.341 Y74.613 E13.30416
G1 X70.189 Y73.192 E13.3592
G1 X70.419 Y72.823 E13.37366
G1 X71.382 Y71.325 E13.43289
G1 X71.68 Y70.881 E13.45068
G1 X72.638 Y69.497 E13.50666
G1 X72.882 Y69.157 E13.52058
G1 X73.935 Y67.739 E13.57933
G1 X74.265 Y67.311 E13.5973
G1 X75.317 Y65.99 E13.65347
G1 X75.572 Y65.682 E13.66677
G1 X76.763 Y64.286 E13.7278
G1 F2100 E12.9278
;MESH:Body3.stl
G0 F3600 X78.663 Y65.964
G0 X79.613 Y66.8
G0 X84.581 Y70.335
;TYPE:WALL-INNER
G1 F2100 E13.7278
G1 F1800 X85.193 Y70.441 E13.74846
G1 X85.804 Y70.44 E13.76878
G1 X86.396 Y70.335 E13.78878
G1 X86.979 Y70.12 E13.80945
G1 X87.498 Y69.817 E13.82943
G1 X87.97 Y69.421 E13.84993
G1 X88.361 Y68.958 E13.87008
G1 X88.666 Y68.418 E13.89071
G1 X88.872 Y67.854 E13.91068
G1 X88.978 Y67.242 E13.93134
G1 X88.977 Y66.631 E13.95166
G1 X88.872 Y66.037 E13.97172
G1 X88.657 Y65.457 E13.9923
G1 X88.354 Y64.935 E14.01237
G1 X87.955 Y64.462 E14.03295
G1 X87.492 Y64.074 E14.05305
G1 X86.956 Y63.769 E14.07356
G1 X86.39 Y63.563 E14.09359
G1 X85.779 Y63.457 E14.11422
G1 X85.168 Y63.458 E14.13454
G1 X84.575 Y63.563 E14.15457
G1 X83.993 Y63.778 E14.1752
G1 X83.471 Y64.081 E14.19528
G1 X83.001 Y64.479 E14.21576
G1 X82.611 Y64.94 E14.23585
G1 X82.306 Y65.48 E14.25647
G1 X82.1 Y66.044 E14.27644
G1 X81.994 Y66.656 E14.2971
G1 X81.995 Y67.267 E14.31742
G1 X82.1 Y67.86 E14.33745
G1 X82.315 Y68.442 E14.35809
G1 X82.618 Y68.963 E14.37814
G1 X83.015 Y69.434 E14.39862
G1 X83.476 Y69.823 E14.41869
G1 X84.017 Y70.129 E14.43936
G1 X84.581 Y70.335 E14.45933
G0 F3600 X71.222 Y108.544
G0 X70.75 Y109.361
G0 X68.048 Y111.062
G1 F1800 X68.648 Y111.115 E14.47936
G1 X69.266 Y111.057 E14.50001
G1 X69.846 Y110.9 E14.51999
G1 X70.409 Y110.636 E14.54068
G1 X70.9 Y110.29 E14.56065
G1 X71.336 Y109.85 E14.58126
G1 X71.685 Y109.352 E14.60148
G1 X71.941 Y108.804 E14.6216
G1 X72.097 Y108.205 E14.64219
G1 X72.152 Y107.606 E14.66219
G1 X72.094 Y106.986 E14.68291
G1 X71.937 Y106.403 E14.70299
G1 X71.673 Y105.847 E14.72346
G1 X71.328 Y105.352 E14.74353
G1 X70.887 Y104.916 E14.76415
G1 X70.388 Y104.567 E14.78441
G1 X69.841 Y104.311 E14.80449
G1 X69.241 Y104.153 E14.82513
G1 X68.642 Y104.101 E14.84513
G1 X68.026 Y104.159 E14.86571
G1 X67.443 Y104.314 E14.88577
G1 X66.881 Y104.579 E14.90644
G1 X66.389 Y104.924 E14.92642
G1 X65.95 Y105.366 E14.94714
G1 X65.604 Y105.866 E14.96737
G1 X65.348 Y106.41 E14.98736
G1 X65.19 Y107.011 E15.00803
G1 X65.138 Y107.611 E15.02806
G1 X65.196 Y108.227 E15.04864
G1 X65.351 Y108.809 E15.06867
G1 X65.616 Y109.372 E15.08937
G1 X65.962 Y109.863 E15.10935
G1 X66.403 Y110.299 E15.12997
G1 X66.901 Y110.648 E15.1502
G1 X67.447 Y110.902 E15.17023
G1 X68.048 Y111.062 E15.19091
G0 F3600 X83.005 Y149.433
G0 X84.582 Y151.653
G1 F1800 X85.194 Y151.758 E15.21157
G1 X85.802 Y151.757 E15.23179
G1 X86.395 Y151.653 E15.25181
G1 X86.979 Y151.437 E15.27252
G1 X87.499 Y151.134 E15.29254
G1 X87.971 Y150.738 E15.31303
G1 X88.361 Y150.275 E15.33317
G1 X88.666 Y149.735 E15.35379
G1 X88.872 Y149.171 E15.37377
G1 X88.978 Y148.559 E15.39442
G1 X88.977 Y147.948 E15.41475
G1 X88.872 Y147.356 E15.43474
G1 X88.657 Y146.773 E15.45541
G1 X88.354 Y146.254 E15.4754
G1 X87.958 Y145.781 E15.49592
G1 X87.492 Y145.391 E15.51613
G1 X86.956 Y145.086 E15.53664
G1 X86.39 Y144.88 E15.55667
G1 X85.779 Y144.774 E15.5773
G1 X85.168 Y144.775 E15.59762
G1 X84.575 Y144.88 E15.61765
G1 X83.993 Y145.095 E15.63829
G1 X83.472 Y145.398 E15.65833
G1 X82.999 Y145.797 E15.67891
G1 X82.611 Y146.26 E15.699
G1 X82.306 Y146.796 E15.71952
G1 X82.1 Y147.362 E15.73955
G1 X81.994 Y147.973 E15.76018
G1 X81.995 Y148.584 E15.7805
G1 X82.1 Y149.177 E15.80053
G1 X82.315 Y149.759 E15.82116
G1 X82.618 Y150.281 E15.84124
G1 X83.017 Y150.751 E15.86174
G1 X83.476 Y151.138 E15.88171
G1 X84.014 Y151.447 E15.90235
G1 X84.582 Y151.653 E15.92244
G0 F3600 X125.548 Y168.562
G1 F1800 X126.148 Y168.615 E15.94248
G1 X126.766 Y168.557 E15.96312
G1 X127.346 Y168.4 E15.98311
G1 X127.909 Y168.136 E16.00379
G1 X128.4 Y167.79 E16.02377
G1 X128.836 Y167.35 E16.04437
G1 X129.185 Y166.852 E16.0646
G1 X129.441 Y166.304 E16.08471
G1 X129.597 Y165.705 E16.1053
G1 X129.652 Y165.106 E16.12531
G1 X129.594 Y164.486 E16.14602
G1 X129.437 Y163.903 E16.1661
G1 X129.173 Y163.347 E16.18657
G1 X128.828 Y162.852 E16.20664
G1 X128.387 Y162.416 E16.22727
G1 X127.888 Y162.067 E16.24752
G1 X127.341 Y161.811 E16.26761
G1 X126.741 Y161.653 E16.28824
G1 X126.142 Y161.601 E16.30824
G1 X125.526 Y161.659 E16.32882
G1 X124.943 Y161.814 E16.34888
G1 X124.381 Y162.079 E16.36955
G1 X123.889 Y162.424 E16.38954
G1 X123.45 Y162.866 E16.41026
G1 X123.104 Y163.366 E16.43048
G1 X122.848 Y163.91 E16.45048
G1 X122.69 Y164.511 E16.47114
G1 X122.638 Y165.111 E16.49118
