;FLAVOR:Marlin
;TIME:4943
;Filament used: 7.65111m
;Layer height: 0.3
;MINX:106.8
;MINY:23.6
;MINZ:0.2
;MAXX:143.2
;MAXY:186.5
;MAXZ:4.1
;Generated with Cura_SteamEngine 99.10.0-Arachne_engine_beta_2
M82 ;absolute extrusion mode
G21 ; set units to millimeters
G90 ; use absolute positioning
M82 ; absolute extrusion mode
M104 S225 ; set extruder temp
M140 S60 ; set bed temp
M190 S60 ; wait for bed temp
M109 S225 ; wait for extruder temp
G28 W ; home all without mesh bed level
G80 ; mesh bed leveling
G92 E0.0 ; reset extruder distance position
G1 Y-3.0 F1000.0 ; go outside print area
G1 X60.0 E9.0 F1000.0 ; intro line
G1 X100.0 E21.5 F1000.0 ; intro line
G92 E0.0 ; reset extruder distance position
G92 E0
G92 E0
G1 F2100 E-0.8
;LAYER_COUNT:14
;LAYER:0
M107
G0 F3600 X106.856 Y26.262 Z0.2
G0 X110.24 Y23.601
;TYPE:SKIRT
G1 F2100 E0
G1 F1800 X139.339 Y23.6 E0.96784
G1 X140.037 Y23.61 E0.99105
G1 X140.54 Y23.657 E1.00786
G1 X141.03 Y23.783 E1.02469
G1 X141.494 Y23.985 E1.04152
G1 X141.92 Y24.257 E1.05833
G1 X142.298 Y24.592 E1.07513
G1 X142.618 Y24.983 E1.09193
G1 X142.873 Y25.42 E1.10876
G1 X143.056 Y25.891 E1.12557
G1 X143.163 Y26.385 E1.14238
G1 X143.199 Y27.04 E1.1642
G1 X143.2 Y182.604 E6.33828
G1 X143.191 Y183.331 E6.36246
G1 X143.145 Y183.834 E6.37926
G1 X143.02 Y184.324 E6.39608
G1 X142.819 Y184.788 E6.41289
G1 X142.548 Y185.215 E6.42972
G1 X142.213 Y185.594 E6.44654
G1 X141.823 Y185.915 E6.46334
G1 X141.387 Y186.171 E6.48016
G1 X140.916 Y186.354 E6.49696
G1 X140.422 Y186.462 E6.51378
G1 X139.76 Y186.499 E6.53583
G1 X110.666 Y186.5 E7.5035
G1 X109.968 Y186.491 E7.52672
G1 X109.464 Y186.444 E7.54356
G1 X108.974 Y186.319 E7.56038
G1 X108.51 Y186.118 E7.5772
G1 X108.084 Y185.847 E7.59399
G1 X107.705 Y185.512 E7.61081
G1 X107.384 Y185.121 E7.62764
G1 X107.129 Y184.685 E7.64444
G1 X106.945 Y184.214 E7.66126
G1 X106.838 Y183.72 E7.67807
G1 X106.801 Y183.044 E7.70059
G1 X106.8 Y27.431 E12.87629
G1 X106.809 Y26.766 E12.89841
G1 X106.856 Y26.262 E12.91525
G1 X106.982 Y25.773 E12.93205
G1 X107.183 Y25.309 E12.94886
G1 X107.454 Y24.882 E12.96569
G1 X107.789 Y24.504 E12.98248
G1 X108.18 Y24.183 E12.99931
G1 X108.617 Y23.928 E13.01614
G1 X109.088 Y23.744 E13.03296
G1 X109.582 Y23.638 E13.04976
G1 X110.24 Y23.601 E13.07168
G1 F2100 E12.27168
;MESH:Body146.stl
G0 F3600 X110.424 Y26.135
G0 X110.424 Y27.224
G0 X118.239 Y30.601
;TYPE:WALL-INNER
G1 F2100 E13.07168
G1 F1800 X118.118 Y30.872 E13.08155
G1 X117.924 Y31.414 E13.1007
G1 X117.819 Y31.796 E13.11388
G1 X117.708 Y32.368 E13.13326
G1 X117.662 Y32.767 E13.14661
G1 X117.64 Y33.348 E13.16595
G1 X117.655 Y33.741 E13.17903
G1 X117.709 Y34.252 E13.19612
G1 X117.795 Y34.703 E13.21139
G1 X117.955 Y35.284 E13.23144
G1 X118.091 Y35.662 E13.2448
G1 X118.329 Y36.188 E13.264
G1 X118.518 Y36.535 E13.27714
G1 X118.831 Y37.015 E13.2962
G1 X119.073 Y37.335 E13.30955
G1 X119.453 Y37.761 E13.32853
G1 X119.737 Y38.037 E13.34171
G1 X120.204 Y38.422 E13.36184
G1 X120.771 Y38.805 E13.38459
G1 X121.374 Y39.115 E13.40714
G1 X121.913 Y39.334 E13.4265
G1 X122.587 Y39.535 E13.44989
G1 X123.267 Y39.65 E13.47283
G1 X123.838 Y39.692 E13.49187
G1 X124.613 Y39.674 E13.51765
G1 X125.2 Y39.59 E13.53737
G1 X125.786 Y39.453 E13.55739
G1 X126.426 Y39.238 E13.57985
G1 X127.056 Y38.938 E13.60305
G1 X127.548 Y38.646 E13.62208
G1 X128.108 Y38.24 E13.64509
G1 X128.622 Y37.758 E13.66853
G1 X128.997 Y37.336 E13.6873
G1 X129.238 Y37.022 E13.70047
G1 X129.554 Y36.535 E13.71978
G1 X129.743 Y36.187 E13.73295
G1 X129.984 Y35.653 E13.75243
G1 X130.12 Y35.275 E13.7658
G1 X130.277 Y34.703 E13.78552
G1 X130.364 Y34.253 E13.80077
G1 X130.417 Y33.74 E13.81792
G1 X130.432 Y33.343 E13.83113
G1 X130.411 Y32.77 E13.85021
G1 X130.366 Y32.373 E13.86349
G1 X130.251 Y31.783 E13.88349
G1 X130.144 Y31.398 E13.89678
G1 X129.951 Y30.866 E13.9156
G1 X129.832 Y30.6 E13.92529
G0 F3600 X129.17 Y30.201
G1 F1800 X129.179 Y30.214 E13.92582
G1 X129.424 Y30.667 E13.94295
G1 X129.586 Y31.029 E13.95614
G1 X129.758 Y31.506 E13.973
G1 X129.865 Y31.89 E13.98626
G1 X129.968 Y32.419 E14.00419
G1 X130.013 Y32.815 E14.01744
G1 X130.032 Y33.328 E14.03452
G1 X129.97 Y34.184 E14.06306
G1 X129.884 Y34.628 E14.0781
G1 X129.743 Y35.139 E14.09574
G1 X129.608 Y35.518 E14.10912
G1 X129.392 Y35.996 E14.12656
G1 X129.203 Y36.344 E14.13973
G1 X128.92 Y36.779 E14.157
G1 X128.68 Y37.093 E14.17014
G1 X128.344 Y37.47 E14.18694
G1 X127.853 Y37.931 E14.20934
G1 X127.318 Y38.318 E14.2313
G1 X126.878 Y38.579 E14.24831
G1 X126.277 Y38.867 E14.27048
G1 X125.664 Y39.072 E14.29198
G1 X125.14 Y39.194 E14.30987
G1 X124.573 Y39.276 E14.32893
G1 X123.838 Y39.292 E14.35338
G1 X123.327 Y39.254 E14.37042
G1 X122.677 Y39.145 E14.39234
G1 X122.034 Y38.952 E14.41467
G1 X121.552 Y38.757 E14.43197
G1 X120.975 Y38.46 E14.45355
G1 X120.433 Y38.094 E14.4753
G1 X120.015 Y37.75 E14.49331
G1 X119.731 Y37.474 E14.50648
G1 X119.391 Y37.092 E14.52349
G1 X119.149 Y36.773 E14.53681
G1 X118.869 Y36.343 E14.55387
G1 X118.68 Y35.996 E14.56701
G1 X118.468 Y35.525 E14.58419
G1 X118.331 Y35.147 E14.59757
G1 X118.188 Y34.628 E14.61547
G1 X118.055 Y33.726 E14.6458
G1 X118.04 Y33.333 E14.65888
G1 X118.059 Y32.813 E14.67618
G1 X118.106 Y32.414 E14.68955
G1 X118.205 Y31.902 E14.70689
G1 X118.309 Y31.52 E14.72006
G1 X118.483 Y31.035 E14.7372
G1 X118.647 Y30.67 E14.75051
G1 X118.897 Y30.208 E14.76798
G0 F3600 X120.429 Y34.918
G0 X121.085 Y35.93
G0 X122.016 Y36.698
G0 X123.137 Y37.15
G0 X125.806 Y37.325
G1 F1800 X125.178 Y37.547 E14.79013
G1 X124.504 Y37.672 E14.81293
G1 X123.838 Y37.692 E14.83509
G1 X123.172 Y37.612 E14.8574
G1 X122.519 Y37.428 E14.87997
G1 X121.904 Y37.146 E14.90247
G1 X121.35 Y36.782 E14.92452
G1 X120.844 Y36.325 E14.9472
G1 X120.422 Y35.803 E14.96952
G1 X120.085 Y35.229 E14.99166
G1 X119.835 Y34.602 E15.01411
G1 X119.684 Y33.935 E15.03686
G1 X119.639 Y33.272 E15.05896
G1 X119.695 Y32.597 E15.08149
G1 X119.853 Y31.944 E15.10383
G1 X120.108 Y31.322 E15.12619
G1 X120.455 Y30.746 E15.14856
G1 X120.885 Y30.232 E15.17085
G1 X121.397 Y29.782 E15.19352
G1 X121.965 Y29.42 E15.21592
G1 X122.576 Y29.151 E15.23812
G1 F1836.7 X123.229 Y28.984 E15.26009
G1 F1951.2 X123.894 Y28.929 E15.28057
G1 F2005.6 X124.551 Y28.949 E15.30019
G1 F1879.9 X125.225 Y29.065 E15.32197
G1 F1800 X125.865 Y29.3 E15.34464
G1 X126.452 Y29.624 E15.36695
G1 X126.983 Y30.035 E15.38928
G1 X127.449 Y30.526 E15.41179
G1 X127.834 Y31.081 E15.43426
G1 X128.125 Y31.683 E15.4565
G1 X128.324 Y32.319 E15.47866
G1 X128.423 Y32.995 E15.50139
G1 X128.418 Y33.665 E15.52367
G1 X128.313 Y34.327 E15.54597
G1 X128.102 Y34.976 E15.56866
G1 X127.798 Y35.577 E15.59106
G1 X127.409 Y36.122 E15.61334
G1 X126.944 Y36.599 E15.63549
G1 X126.4 Y37.008 E15.65813
G1 X125.806 Y37.325 E15.68052
G0 F3600 X125.628 Y36.967
G1 F1800 X125.056 Y37.166 E15.70067
G1 X124.444 Y37.277 E15.72135
G1 X123.838 Y37.292 E15.74151
G1 X123.232 Y37.217 E15.76182
G1 X122.641 Y37.047 E15.78228
G1 X122.082 Y36.787 E15.80278
G1 X121.579 Y36.454 E15.82285
G1 X121.123 Y36.037 E15.8434
G1 X120.74 Y35.561 E15.86372
G1 X120.436 Y35.038 E15.88384
G1 X120.211 Y34.466 E15.90428
G1 X120.077 Y33.86 E15.92493
G1 X120.038 Y33.257 E15.94502
G1 X120.093 Y32.643 E15.96553
G1 X120.238 Y32.05 E15.98583
G1 X120.473 Y31.485 E16.00618
G1 X120.791 Y30.963 E16.02651
G1 X121.184 Y30.497 E16.04679
G1 X121.652 Y30.09 E16.06742
G1 X122.169 Y29.764 E16.08775
G1 X122.726 Y29.522 E16.10794
G1 X123.318 Y29.367 E16.1283
G1 X123.922 Y29.304 E16.1485
G1 X124.524 Y29.331 E16.16854
G1 X125.135 Y29.455 E16.18928
G1 X125.715 Y29.671 E16.20986
G1 X126.247 Y29.968 E16.23013
G1 X126.729 Y30.344 E16.25046
G1 X127.151 Y30.792 E16.27093
G1 X127.498 Y31.298 E16.29133
G1 X127.76 Y31.846 E16.31154
G1 X127.938 Y32.427 E16.33175
G1 X128.026 Y33.04 E16.35235
G1 X128.018 Y33.649 E16.3726
G1 X127.92 Y34.252 E16.39292
G1 X127.726 Y34.84 E16.41352
G1 X127.447 Y35.385 E16.43388
G1 X127.091 Y35.879 E16.45413
G1 X126.666 Y36.312 E16.47431
G1 X126.171 Y36.68 E16.49483
G1 X125.628 Y36.967 E16.51525
G0 F3600 X125.451 Y36.608
G1 F1800 X124.935 Y36.785 E16.5334
G1 X124.384 Y36.881 E16.552
G1 X123.838 Y36.892 E16.57016
G1 X123.292 Y36.821 E16.58848
G1 X122.762 Y36.665 E16.60685
G1 X122.26 Y36.429 E16.6253
G1 X121.808 Y36.126 E16.6434
G1 X121.401 Y35.75 E16.66183
G1 X121.058 Y35.319 E16.68015
G1 X120.787 Y34.846 E16.69828
G1 X120.587 Y34.329 E16.71672
G1 X120.47 Y33.784 E16.73526
G1 X120.438 Y33.242 E16.75332
G1 X120.49 Y32.689 E16.77179
G1 X120.624 Y32.156 E16.79007
G1 X120.838 Y31.649 E16.80838
G1 X121.127 Y31.181 E16.82667
G1 X121.483 Y30.763 E16.84493
G1 X121.906 Y30.399 E16.86349
G1 X122.373 Y30.108 E16.88179
G1 X122.876 Y29.892 E16.9
G1 X123.409 Y29.757 E16.91829
G1 X123.951 Y29.703 E16.9364
G1 X124.496 Y29.731 E16.95455
G1 X125.046 Y29.845 E16.97324
G1 X125.565 Y30.042 E16.9917
G1 X126.042 Y30.312 E17.00993
G1 X126.475 Y30.653 E17.02826
G1 X126.852 Y31.058 E17.04667
G1 X127.161 Y31.515 E17.06501
G1 X127.395 Y32.01 E17.08322
G1 X127.553 Y32.534 E17.10143
G1 X127.628 Y33.086 E17.11996
G1 X127.619 Y33.634 E17.13819
G1 X127.527 Y34.176 E17.15647
G1 X127.349 Y34.705 E17.17503
G1 X127.096 Y35.194 E17.19335
G1 X126.773 Y35.636 E17.21155
G1 X126.387 Y36.025 E17.22978
G1 X125.941 Y36.352 E17.24817
G1 X125.451 Y36.608 E17.26656
G0 F3600 X125.189 Y36.284
G1 F1800 X124.72 Y36.426 E17.28286
G1 X124.234 Y36.492 E17.29917
G1 X123.747 Y36.486 E17.31537
G1 X123.261 Y36.404 E17.33177
G1 X122.798 Y36.25 E17.34799
G1 X122.362 Y36.025 E17.36431
G1 X121.963 Y35.738 E17.38066
G1 X121.619 Y35.395 E17.39682
G1 X121.327 Y35 E17.41316
G1 X121.1 Y34.571 E17.4293
G1 X120.938 Y34.101 E17.44583
G1 X120.853 Y33.619 E17.46211
G1 X120.838 Y33.226 E17.47519
G1 X120.905 Y32.644 E17.49468
G1 X121.041 Y32.177 E17.51086
G1 X121.248 Y31.73 E17.52724
G1 X121.518 Y31.326 E17.5434
G1 X121.849 Y30.964 E17.55972
G1 X122.235 Y30.656 E17.57614
G1 X122.658 Y30.412 E17.59238
G1 X123.115 Y30.235 E17.60868
G1 X123.592 Y30.131 E17.62492
G1 X124.069 Y30.102 E17.64081
G1 X124.56 Y30.144 E17.6572
G1 X125.047 Y30.263 E17.67388
G1 X125.496 Y30.453 E17.6901
G1 X125.912 Y30.708 E17.70632
G1 X126.287 Y31.026 E17.72268
G1 X126.611 Y31.399 E17.73911
G1 X126.868 Y31.811 E17.75526
G1 X127.061 Y32.257 E17.77142
G1 X127.186 Y32.735 E17.78786
G1 X127.233 Y33.256 E17.80526
G1 X127.211 Y33.7 E17.82004
G1 X127.109 Y34.192 E17.83675
G1 X126.935 Y34.654 E17.85317
G1 X126.695 Y35.079 E17.86941
G1 X126.396 Y35.459 E17.88549
G1 X126.036 Y35.798 E17.90194
G1 X125.634 Y36.071 E17.9181
G1 X125.189 Y36.284 E17.93451
G0 F3600 X125.433 Y37.056
G0 X124.337 Y37.241
G0 X123.137 Y37.15
G0 X122.016 Y36.698
G0 X121.129 Y35.972
G0 X119.239 Y33.287
G1 F1800 X119.298 Y32.552 E17.95903
G1 X119.467 Y31.838 E17.98344
G1 X119.742 Y31.159 E18.0078
G1 X120.12 Y30.529 E18.03224
G1 X120.586 Y29.966 E18.05655
G1 X121.143 Y29.473 E18.08129
G1 X121.76 Y29.076 E18.10569
G1 X121.914 Y29.001 E18.11139
G0 F3600 X120.601 Y29.401
G1 F1800 X120.287 Y29.7 E18.12581
G1 X119.784 Y30.311 E18.15213
G1 X119.377 Y30.996 E18.17863
G1 X119.081 Y31.732 E18.20502
G1 X118.9 Y32.506 E18.23145
G1 X118.839 Y33.303 E18.25804
G1 X118.898 Y34.085 E18.28412
G1 X119.083 Y34.875 E18.31111
G1 X119.383 Y35.613 E18.33761
G1 X119.785 Y36.288 E18.36374
G1 X120.288 Y36.899 E18.39006
G1 X120.892 Y37.438 E18.41698
G1 X121.548 Y37.862 E18.44296
G1 X122.277 Y38.19 E18.46955
G1 X123.052 Y38.403 E18.49628
G1 X123.838 Y38.492 E18.52259
G1 X124.624 Y38.463 E18.54875
G1 X125.421 Y38.309 E18.57575
G1 X126.161 Y38.042 E18.60192
G1 X126.859 Y37.663 E18.62833
G1 X127.501 Y37.174 E18.65518
G1 X128.044 Y36.607 E18.68129
G1 X128.5 Y35.96 E18.70761
G1 X128.855 Y35.247 E18.73411
G1 X129.099 Y34.477 E18.76097
G1 X129.218 Y33.695 E18.78728
G1 X129.218 Y32.905 E18.81356
G1 X129.094 Y32.105 E18.84048
G1 X128.856 Y31.356 E18.86662
G1 X128.506 Y30.648 E18.89289
G1 X128.046 Y29.993 E18.91951
G1 X127.471 Y29.401 E18.94696
G0 F3600 X126.158 Y29.001
G1 F1800 X126.656 Y29.28 E18.96594
G1 X127.237 Y29.726 E18.99031
G1 X127.748 Y30.259 E19.01486
G1 X128.17 Y30.865 E19.03943
G1 X128.491 Y31.52 E19.06369
G1 X128.709 Y32.212 E19.08782
G1 X128.821 Y32.95 E19.11264
G1 X128.818 Y33.68 E19.13693
G1 X128.706 Y34.402 E19.16123
G1 X128.478 Y35.111 E19.186
G1 X128.149 Y35.769 E19.21047
G1 X127.726 Y36.364 E19.23475
G1 X127.222 Y36.887 E19.2589
G1 X126.63 Y37.335 E19.2836
G1 X125.984 Y37.683 E19.308
G1 X125.299 Y37.928 E19.3322
G1 X124.564 Y38.068 E19.35708
G1 X123.838 Y38.092 E19.38124
G1 X123.112 Y38.008 E19.40555
G1 X122.398 Y37.809 E19.4302
G1 X121.726 Y37.504 E19.45475
G1 X121.121 Y37.11 E19.47876
G1 X120.566 Y36.612 E19.50356
G1 X120.103 Y36.046 E19.52789
G1 X119.734 Y35.421 E19.55203
G1 X119.459 Y34.738 E19.57652
G1 X119.291 Y34.01 E19.60136
G1 X119.239 Y33.287 E19.62547
G0 F3600 X118.44 Y33.318
G1 F1800 X118.505 Y34.16 E19.65356
G1 X118.707 Y35.011 E19.68265
G1 X119.032 Y35.805 E19.71119
G1 X119.467 Y36.531 E19.73934
G1 X120.009 Y37.187 E19.76764
G1 X120.663 Y37.766 E19.79669
G1 X121.37 Y38.22 E19.82464
G1 X122.155 Y38.571 E19.85324
G1 X122.992 Y38.799 E19.88209
G1 X123.838 Y38.892 E19.9104
G1 X124.684 Y38.859 E19.93856
G1 X125.543 Y38.69 E19.96768
G1 X126.339 Y38.4 E19.99585
G1 X127.089 Y37.99 E20.02428
G1 X127.779 Y37.461 E20.0532
G1 X128.362 Y36.85 E20.08129
G1 X128.851 Y36.152 E20.10964
G1 X129.231 Y35.382 E20.1382
G1 X129.491 Y34.552 E20.16712
G1 X129.617 Y33.71 E20.19544
G1 X129.616 Y32.86 E20.22371
G1 X129.48 Y31.997 E20.25277
G1 X129.221 Y31.193 E20.28086
G1 X128.843 Y30.431 E20.30916
G1 X128.4 Y29.8 E20.3348
G0 F3600 X124.023 Y29.348
G0 X119.672 Y29.801
G1 F1800 X119.448 Y30.094 E20.34706
G1 X119.012 Y30.833 E20.3756
G1 X118.695 Y31.626 E20.40401
G1 X118.503 Y32.46 E20.43247
G1 X118.44 Y33.318 E20.46109
G0 F3600 X121.522 Y36.35
G0 X122.558 Y36.967
G0 X123.735 Y37.241
G0 X125.604 Y36.989
G0 X125.067 Y35.903
;TYPE:WALL-OUTER
G1 F1800 X124.66 Y36.03 E20.47527
G1 X124.234 Y36.092 E20.48958
G1 X123.807 Y36.09 E20.50379
G1 X123.382 Y36.023 E20.5181
G1 X122.976 Y35.892 E20.53229
G1 X122.591 Y35.697 E20.54664
G1 X122.241 Y35.45 E20.56089
G1 X121.937 Y35.153 E20.57502
G1 X121.678 Y34.808 E20.58937
G1 X121.476 Y34.435 E20.60348
G1 X121.331 Y34.026 E20.61791
G1 X121.253 Y33.604 E20.63219
G1 X121.238 Y33.211 E20.64527
G1 X121.291 Y32.75 E20.6607
G1 X121.406 Y32.34 E20.67486
G1 X121.584 Y31.948 E20.68918
G1 X121.817 Y31.592 E20.70334
G1 X122.103 Y31.273 E20.71759
G1 X122.439 Y31 E20.73198
G1 X122.808 Y30.783 E20.74622
G1 X123.206 Y30.625 E20.76046
G1 X123.622 Y30.53 E20.77466
G1 X124.041 Y30.501 E20.78863
G1 X124.47 Y30.534 E20.80294
G1 X124.897 Y30.634 E20.81752
G1 X125.292 Y30.797 E20.83174
G1 X125.658 Y31.017 E20.84594
G1 X125.989 Y31.292 E20.86025
G1 X126.275 Y31.616 E20.87463
G1 X126.503 Y31.975 E20.88877
G1 X126.675 Y32.365 E20.90295
G1 X126.788 Y32.78 E20.91725
G1 X126.833 Y33.241 E20.93266
G1 X126.817 Y33.631 E20.94564
G1 X126.733 Y34.056 E20.96005
G1 X126.584 Y34.462 E20.97443
G1 X126.377 Y34.836 E20.98865
G1 X126.118 Y35.172 E21.00276
G1 X125.806 Y35.47 E21.01711
G1 X125.456 Y35.713 E21.03128
G1 X125.067 Y35.903 E21.04568
G0 F3600 X124.876 Y35.962
G0 X125.537 Y37.022
G0 X119.239 Y176.287
;TYPE:WALL-INNER
G1 F1800 X119.298 Y175.551 E21.07024
G1 X119.467 Y174.838 E21.09461
G1 X119.742 Y174.159 E21.11898
G1 X120.12 Y173.529 E21.14341
G1 X120.586 Y172.966 E21.16772
G1 X121.143 Y172.473 E21.19246
G1 X121.76 Y172.076 E21.21687
G1 X122.426 Y171.78 E21.24111
G1 X123.136 Y171.587 E21.26558
G1 X123.862 Y171.507 E21.28987
G1 X124.58 Y171.534 E21.31377
G1 X125.314 Y171.675 E21.33863
G1 X126.015 Y171.929 E21.36343
G1 X126.656 Y172.281 E21.38775
G1 X127.237 Y172.726 E21.41209
G1 X127.748 Y173.259 E21.43665
G1 X128.169 Y173.865 E21.46119
G1 X128.491 Y174.52 E21.48547
G1 X128.709 Y175.212 E21.5096
G1 X128.821 Y175.95 E21.53442
G1 X128.818 Y176.68 E21.5587
G1 X128.706 Y177.402 E21.58301
G1 X128.479 Y178.112 E21.6078
G1 X128.15 Y178.769 E21.63224
G1 X127.726 Y179.365 E21.65656
G1 X127.222 Y179.887 E21.6807
G1 X126.63 Y180.335 E21.70539
G1 X125.984 Y180.684 E21.72981
G1 F1782.2 X125.301 Y180.932 E21.75422
G1 F1600 X124.967 Y181.053 E21.76751
G0 F3600 X125.806 Y180.326
G1 F1800 X125.178 Y180.547 E21.78966
