;FLAVOR:Marlin
;TIME:4693
;Filament used: 7.8748m
;Layer height: 0.3
;MINX:109.7
;MINY:82.2
;MINZ:0.2
;MAXX:156.8
;MAXY:127.8
;MAXZ:29.3
;Generated with Cura_SteamEngine 99.10.0-Arachne_engine_beta_2
M82 ;absolute extrusion mode
G21 ; set units to millimeters
G90 ; use absolute positioning
M82 ; absolute extrusion mode
M104 S210 ; set extruder temp
M140 S60 ; set bed temp
M190 S60 ; wait for bed temp
M109 S210 ; wait for extruder temp
G28 W ; home all without mesh bed level
G80 ; mesh bed leveling
G92 E0.0 ; reset extruder distance position
G1 Y-3.0 F1000.0 ; go outside print area
G1 X60.0 E9.0 F1000.0 ; intro line
G1 X100.0 E21.5 F1000.0 ; intro line
G92 E0.0 ; reset extruder distance position
G92 E0
G92 E0
G1 F2100 E-0.8
;LAYER_COUNT:98
;LAYER:0
M107
G0 F3600 X111.097 Y85.546 Z0.2
G0 X117.5 Y83
;TYPE:SKIRT
G1 F2100 E0
G1 F1800 X132.5 Y83 E0.4989
G1 X133.279 Y83.045 E0.52485
G1 X133.483 Y83.019 E0.53169
G1 X134 Y83 E0.5489
G1 X149 Y83 E1.0478
G1 X149.747 Y83.04 E1.07268
G1 X150.485 Y83.159 E1.09755
G1 X151.207 Y83.357 E1.12245
G1 X151.903 Y83.63 E1.14731
G1 X152.566 Y83.977 E1.1722
G1 X153.189 Y84.392 E1.1971
G1 X153.763 Y84.871 E1.22197
G1 X154.284 Y85.408 E1.24685
G1 X154.743 Y85.998 E1.27171
G1 X155.138 Y86.634 E1.29662
G1 X155.462 Y87.308 E1.32149
G1 X155.712 Y88.013 E1.34637
G1 X155.886 Y88.741 E1.37126
G1 X155.981 Y89.483 E1.39614
G1 X156 Y90 E1.41335
G1 X156 Y120 E2.41115
G1 X155.96 Y120.747 E2.43604
G1 X155.841 Y121.485 E2.4609
G1 X155.643 Y122.207 E2.4858
G1 X155.37 Y122.903 E2.51067
G1 X155.023 Y123.566 E2.53555
G1 X154.608 Y124.189 E2.56045
G1 X154.129 Y124.763 E2.58532
G1 X153.592 Y125.284 E2.6102
G1 X153.002 Y125.743 E2.63507
G1 X152.366 Y126.138 E2.65997
G1 X151.692 Y126.462 E2.68484
G1 X150.987 Y126.712 E2.70972
G1 X150.259 Y126.886 E2.73461
G1 X149.517 Y126.981 E2.75949
G1 X149 Y127 E2.7767
G1 X134 Y127 E3.2756
G1 X133.221 Y126.955 E3.30156
G1 X133.017 Y126.981 E3.3084
G1 X132.5 Y127 E3.3256
G1 X117.5 Y127 E3.82451
G1 X116.753 Y126.96 E3.84939
G1 X116.015 Y126.841 E3.87425
G1 X115.293 Y126.643 E3.89915
G1 X114.597 Y126.37 E3.92402
G1 X113.934 Y126.023 E3.94891
G1 X113.311 Y125.608 E3.9738
G1 X112.737 Y125.129 E3.99867
G1 X112.216 Y124.592 E4.02355
G1 X111.757 Y124.002 E4.04842
G1 X111.362 Y123.366 E4.07332
G1 X111.038 Y122.692 E4.09819
G1 X110.788 Y121.987 E4.12307
G1 X110.614 Y121.259 E4.14796
G1 X110.519 Y120.517 E4.17284
G1 X110.5 Y120 E4.19005
G1 X110.5 Y90 E5.18786
G1 X110.54 Y89.253 E5.21274
G1 X110.659 Y88.515 E5.2376
G1 X110.857 Y87.793 E5.2625
G1 X111.13 Y87.097 E5.28737
G1 X111.477 Y86.434 E5.31226
G1 X111.892 Y85.811 E5.33715
G1 X112.371 Y85.237 E5.36202
G1 X112.908 Y84.716 E5.3869
G1 X113.498 Y84.257 E5.41177
G1 X114.134 Y83.862 E5.43667
G1 X114.808 Y83.538 E5.46154
G1 X115.513 Y83.288 E5.48642
G1 X116.241 Y83.114 E5.51132
G1 X116.983 Y83.019 E5.5362
G1 X117.5 Y83 E5.5534
G0 F3600 X117.5 Y82.6
G1 F1800 X132.5 Y82.6 E6.0523
G1 X133.278 Y82.642 E6.07822
G1 X134 Y82.6 E6.10227
G1 X149 Y82.6 E6.60118
G1 X149.768 Y82.64 E6.62675
G1 X150.528 Y82.759 E6.65234
G1 X151.271 Y82.957 E6.67791
G1 X151.99 Y83.231 E6.70351
G1 X152.676 Y83.578 E6.72908
G1 X153.323 Y83.994 E6.75466
G1 X153.923 Y84.475 E6.78024
G1 X154.47 Y85.016 E6.80582
G1 X154.958 Y85.611 E6.83142
G1 X155.381 Y86.253 E6.85699
G1 X155.736 Y86.936 E6.88259
G1 X156.017 Y87.651 E6.90814
G1 X156.223 Y88.393 E6.93376
G1 X156.351 Y89.151 E6.95932
G1 X156.4 Y90 E6.98761
G1 X156.4 Y120 E7.98541
G1 X156.36 Y120.768 E8.01099
G1 X156.241 Y121.528 E8.03658
G1 X156.043 Y122.271 E8.06215
G1 X155.769 Y122.99 E8.08774
G1 X155.422 Y123.676 E8.11331
G1 X155.006 Y124.323 E8.1389
G1 X154.525 Y124.923 E8.16447
G1 X153.984 Y125.47 E8.19006
G1 X153.389 Y125.958 E8.21566
G1 X152.747 Y126.381 E8.24123
G1 X152.064 Y126.736 E8.26683
G1 X151.349 Y127.017 E8.29238
G1 X150.607 Y127.223 E8.31799
G1 X149.849 Y127.351 E8.34356
G1 X149 Y127.4 E8.37185
G1 X134 Y127.4 E8.87075
G1 X133.222 Y127.358 E8.89666
G1 X132.5 Y127.4 E8.92072
G1 X117.5 Y127.4 E9.41962
G1 X116.732 Y127.36 E9.4452
G1 X115.972 Y127.241 E9.47078
G1 X115.229 Y127.043 E9.49636
G1 X114.51 Y126.769 E9.52195
G1 X113.824 Y126.422 E9.54752
G1 X113.177 Y126.006 E9.5731
G1 X112.577 Y125.525 E9.59868
G1 X112.03 Y124.984 E9.62427
G1 X111.542 Y124.389 E9.64986
G1 X111.119 Y123.747 E9.67543
G1 X110.764 Y123.064 E9.70104
G1 X110.483 Y122.349 E9.72659
G1 X110.277 Y121.607 E9.7522
G1 X110.149 Y120.849 E9.77777
G1 X110.1 Y120 E9.80605
G1 X110.1 Y90 E10.80386
G1 X110.14 Y89.232 E10.82944
G1 X110.259 Y88.472 E10.85502
G1 X110.457 Y87.729 E10.8806
G1 X110.731 Y87.01 E10.90619
G1 X111.078 Y86.324 E10.93176
G1 X111.494 Y85.677 E10.95734
G1 X111.975 Y85.077 E10.98292
G1 X112.516 Y84.53 E11.00851
G1 X113.111 Y84.042 E11.0341
G1 X113.753 Y83.619 E11.05967
G1 X114.436 Y83.264 E11.08527
G1 X115.151 Y82.983 E11.11083
G1 X115.893 Y82.777 E11.13644
G1 X116.651 Y82.649 E11.16201
G1 X117.5 Y82.6 E11.19029
G0 F3600 X117.5 Y82.2
G1 F1800 X132.5 Y82.2 E11.68919
G1 X133.296 Y82.241 E11.7157
G1 X134 Y82.2 E11.73916
G1 X149 Y82.2 E12.23806
G1 X149.789 Y82.24 E12.26434
G1 X150.569 Y82.359 E12.29058
G1 X151.334 Y82.557 E12.31686
G1 X152.074 Y82.831 E12.34311
G1 X152.783 Y83.179 E12.36938
G1 X153.454 Y83.597 E12.39567
G1 X154.078 Y84.08 E12.42191
G1 X154.651 Y84.623 E12.44817
G1 X155.166 Y85.222 E12.47444
G1 X155.617 Y85.87 E12.5007
G1 X156.001 Y86.561 E12.527
G1 X156.313 Y87.286 E12.55325
G1 X156.55 Y88.039 E12.5795
G1 X156.709 Y88.813 E12.60579
G1 X156.79 Y89.598 E12.63203
G1 X156.8 Y90 E12.64541
G1 X156.8 Y120 E13.64321
G1 X156.76 Y120.789 E13.66949
G1 X156.641 Y121.569 E13.69573
G1 X156.443 Y122.334 E13.72201
G1 X156.169 Y123.074 E13.74826
G1 X155.821 Y123.783 E13.77453
G1 X155.403 Y124.454 E13.80082
G1 X154.92 Y125.078 E13.82707
G1 X154.377 Y125.651 E13.85332
G1 X153.778 Y126.166 E13.8796
G1 X153.13 Y126.617 E13.90586
G1 X152.439 Y127.001 E13.93215
G1 X151.714 Y127.313 E13.9584
G1 X150.961 Y127.55 E13.98466
G1 X150.187 Y127.709 E14.01094
G1 X149.402 Y127.79 E14.03719
G1 X149 Y127.8 E14.05056
G1 X134 Y127.8 E14.54946
G1 X133.204 Y127.759 E14.57597
G1 X132.5 Y127.8 E14.59943
G1 X117.5 Y127.8 E15.09833
G1 X116.711 Y127.76 E15.1246
G1 X115.931 Y127.641 E15.15085
G1 X115.166 Y127.443 E15.17713
G1 X114.426 Y127.169 E15.20338
G1 X113.717 Y126.821 E15.22964
G1 X113.046 Y126.403 E15.25594
G1 X112.422 Y125.92 E15.28218
G1 X111.849 Y125.377 E15.30844
G1 X111.334 Y124.778 E15.33471
G1 X110.883 Y124.13 E15.36097
G1 X110.499 Y123.439 E15.38727
G1 X110.187 Y122.714 E15.41352
G1 X109.95 Y121.961 E15.43977
G1 X109.791 Y121.187 E15.46605
G1 X109.71 Y120.402 E15.4923
G1 X109.7 Y120 E15.50568
G1 X109.7 Y90 E16.50348
G1 X109.74 Y89.211 E16.52976
G1 X109.859 Y88.431 E16.556
G1 X110.057 Y87.666 E16.58228
G1 X110.331 Y86.926 E16.60853
G1 X110.679 Y86.217 E16.6348
G1 X111.097 Y85.546 E16.66109
G1 X111.58 Y84.922 E16.68734
G1 X112.123 Y84.349 E16.71359
G1 X112.722 Y83.834 E16.73987
G1 X113.37 Y83.383 E16.76612
G1 X114.061 Y82.999 E16.79242
G1 X114.786 Y82.687 E16.81867
G1 X115.539 Y82.45 E16.84493
G1 X116.313 Y82.291 E16.87121
G1 X117.098 Y82.21 E16.89745
G1 X117.5 Y82.2 E16.91083
G0 F3600 X117.5 Y83.4
G1 F1800 X132.5 Y83.4 E17.40973
G1 X133.225 Y83.44 E17.43388
G1 X133.285 Y83.45 E17.4359
G1 X134 Y83.4 E17.45974
G1 X149 Y83.4 E17.95865
G1 X149.725 Y83.44 E17.9828
G1 X150.442 Y83.559 E18.00697
G1 X151.141 Y83.757 E18.03113
G1 X151.814 Y84.03 E18.05529
G1 X152.453 Y84.375 E18.07944
G1 X153.05 Y84.789 E18.10361
G1 X153.598 Y85.265 E18.12775
G1 X154.091 Y85.799 E18.15192
G1 X154.521 Y86.384 E18.17607
G1 X154.885 Y87.013 E18.20024
G1 X155.178 Y87.678 E18.22441
G1 X155.396 Y88.371 E18.24857
G1 X155.536 Y89.083 E18.27271
G1 X155.6 Y90 E18.30328
G1 X155.6 Y120 E19.30108
G1 X155.56 Y120.725 E19.32523
G1 X155.441 Y121.442 E19.34941
G1 X155.243 Y122.141 E19.37357
G1 X154.97 Y122.814 E19.39773
G1 X154.625 Y123.453 E19.42188
G1 X154.211 Y124.05 E19.44604
G1 X153.735 Y124.598 E19.47019
G1 X153.201 Y125.091 E19.49436
G1 X152.616 Y125.521 E19.51851
G1 X151.987 Y125.885 E19.54268
G1 X151.322 Y126.178 E19.56685
G1 X150.629 Y126.396 E19.59101
G1 X149.917 Y126.536 E19.61515
G1 X149 Y126.6 E19.64572
G1 X134 Y126.6 E20.14462
G1 X133.275 Y126.56 E20.16877
G1 X133.215 Y126.55 E20.17079
G1 X132.5 Y126.6 E20.19463
G1 X117.5 Y126.6 E20.69354
G1 X116.775 Y126.56 E20.71769
G1 X116.058 Y126.441 E20.74186
G1 X115.359 Y126.243 E20.76602
G1 X114.686 Y125.97 E20.79018
G1 X114.047 Y125.625 E20.81433
G1 X113.45 Y125.211 E20.8385
G1 X112.902 Y124.735 E20.86264
G1 X112.409 Y124.201 E20.88681
G1 X111.979 Y123.616 E20.91096
G1 X111.615 Y122.987 E20.93513
G1 X111.322 Y122.322 E20.9593
G1 X111.104 Y121.629 E20.98346
G1 X110.964 Y120.917 E21.0076
G1 X110.9 Y120 E21.03817
G1 X110.9 Y90 E22.03597
G1 X110.94 Y89.275 E22.06013
G1 X111.059 Y88.558 E22.0843
G1 X111.257 Y87.859 E22.10846
G1 X111.53 Y87.186 E22.13262
G1 X111.875 Y86.547 E22.15677
G1 X112.289 Y85.95 E22.18093
G1 X112.765 Y85.402 E22.20508
G1 X113.299 Y84.909 E22.22925
G1 X113.884 Y84.479 E22.2534
G1 X114.513 Y84.115 E22.27757
G1 X115.178 Y83.822 E22.30174
G1 X115.871 Y83.604 E22.3259
G1 X116.583 Y83.464 E22.35004
G1 X117.5 Y83.4 E22.38061
G0 F3600 X117.5 Y83.8
G1 F1800 X132.5 Y83.8 E22.87951
G1 X133.203 Y83.84 E22.90293
G1 X134 Y83.8 E22.92947
G1 X149 Y83.8 E23.42838
G1 X149.703 Y83.84 E23.45179
G1 X150.397 Y83.959 E23.47521
G1 X151.072 Y84.157 E23.49861
G1 X151.721 Y84.429 E23.52202
G1 X152.335 Y84.774 E23.54544
G1 X152.906 Y85.185 E23.56884
G1 X153.427 Y85.659 E23.59227
G1 X153.891 Y86.189 E23.6157
G1 X154.291 Y86.768 E23.6391
G1 X154.623 Y87.389 E23.66252
G1 X154.883 Y88.043 E23.68593
G1 X155.067 Y88.723 E23.70936
G1 X155.173 Y89.419 E23.73278
G1 X155.2 Y90 E23.75212
G1 X155.2 Y120 E24.74993
G1 X155.16 Y120.703 E24.77335
G1 X155.041 Y121.397 E24.79677
G1 X154.843 Y122.072 E24.82016
G1 X154.571 Y122.721 E24.84357
G1 X154.226 Y123.335 E24.86699
G1 X153.815 Y123.906 E24.89039
G1 X153.341 Y124.427 E24.91382
G1 X152.811 Y124.891 E24.93725
G1 X152.232 Y125.291 E24.96065
G1 X151.611 Y125.623 E24.98407
G1 X150.957 Y125.883 E25.00748
G1 X150.277 Y126.067 E25.03091
G1 X149.581 Y126.173 E25.05433
G1 X149 Y126.2 E25.07367
G1 X134 Y126.2 E25.57258
G1 X133.297 Y126.16 E25.596
G1 X132.5 Y126.2 E25.62254
G1 X117.5 Y126.2 E26.12144
G1 X116.797 Y126.16 E26.14486
G1 X116.103 Y126.041 E26.16828
G1 X115.428 Y125.843 E26.19168
G1 X114.779 Y125.571 E26.21508
G1 X114.165 Y125.226 E26.2385
G1 X113.594 Y124.815 E26.2619
G1 X113.073 Y124.341 E26.28533
G1 X112.609 Y123.811 E26.30876
G1 X112.209 Y123.232 E26.33217
G1 X111.877 Y122.611 E26.35559
G1 X111.617 Y121.957 E26.379
G1 X111.433 Y121.277 E26.40243
G1 X111.327 Y120.581 E26.42584
G1 X111.3 Y120 E26.44519
G1 X111.3 Y90 E27.44299
G1 X111.34 Y89.297 E27.46641
G1 X111.459 Y88.603 E27.48983
G1 X111.657 Y87.928 E27.51323
G1 X111.929 Y87.279 E27.53663
G1 X112.274 Y86.665 E27.56006
G1 X112.685 Y86.094 E27.58346
G1 X113.159 Y85.573 E27.60688
G1 X113.689 Y85.109 E27.63031
G1 X114.268 Y84.709 E27.65372
G1 X114.889 Y84.377 E27.67714
G1 X115.543 Y84.117 E27.70055
G1 X116.223 Y83.933 E27.72398
G1 X116.919 Y83.827 E27.74739
G1 X117.5 Y83.8 E27.76674
G0 F3600 X117.5 Y84.2
G1 F1800 X132.5 Y84.2 E28.26564
G1 X133.18 Y84.24 E28.2883
G1 X133.281 Y84.258 E28.29171
G1 X134 Y84.2 E28.3157
G1 X149 Y84.2 E28.8146
G1 X149.68 Y84.24 E28.83726
G1 X150.35 Y84.359 E28.85989
G1 X151.002 Y84.556 E28.88254
G1 X151.626 Y84.828 E28.90519
G1 X152.214 Y85.172 E28.92784
G1 X152.758 Y85.582 E28.9505
G1 X153.249 Y86.053 E28.97313
G1 X153.683 Y86.578 E28.99579
G1 X154.052 Y87.15 E29.01843
G1 X154.351 Y87.762 E29.04108
G1 X154.576 Y88.404 E29.06371
G1 X154.725 Y89.069 E29.08637
G1 X154.8 Y90 E29.11744
G1 X154.8 Y120 E30.11524
G1 X154.76 Y120.68 E30.1379
G1 X154.641 Y121.35 E30.16053
G1 X154.444 Y122.002 E30.18319
G1 X154.172 Y122.626 E30.20583
G1 X153.828 Y123.214 E30.22848
G1 X153.418 Y123.758 E30.25114
G1 X152.947 Y124.249 E30.27377
G1 X152.422 Y124.683 E30.29643
G1 X151.85 Y125.052 E30.31907
G1 X151.238 Y125.351 E30.34172
G1 X150.596 Y125.576 E30.36435
G1 X149.931 Y125.725 E30.38701
G1 X149 Y125.8 E30.41808
G1 X134 Y125.8 E30.91698
G1 X133.32 Y125.76 E30.93964
G1 X133.219 Y125.742 E30.94305
G1 X132.5 Y125.8 E30.96704
G1 X117.5 Y125.8 E31.46594
G1 X116.82 Y125.76 E31.4886
G1 X116.15 Y125.641 E31.51123
G1 X115.498 Y125.444 E31.53389
G1 X114.874 Y125.172 E31.55653
G1 X114.286 Y124.828 E31.57918
G1 X113.742 Y124.418 E31.60184
G1 X113.251 Y123.947 E31.62447
G1 X112.817 Y123.422 E31.64713
G1 X112.448 Y122.85 E31.66977
G1 X112.149 Y122.238 E31.69242
G1 X111.924 Y121.596 E31.71505
G1 X111.775 Y120.931 E31.73771
G1 X111.7 Y120 E31.76878
G1 X111.7 Y90 E32.76658
G1 X111.74 Y89.32 E32.78924
G1 X111.859 Y88.65 E32.81187
G1 X112.056 Y87.998 E32.83453
G1 X112.328 Y87.374 E32.85717
G1 X112.672 Y86.786 E32.87982
G1 X113.082 Y86.242 E32.90248
G1 X113.553 Y85.751 E32.92511
G1 X114.078 Y85.317 E32.94777
G1 X114.65 Y84.948 E32.97041
G1 X115.262 Y84.649 E32.99306
G1 X115.904 Y84.424 E33.01569
G1 X116.569 Y84.275 E33.03835
G1 X117.5 Y84.2 E33.06942
G0 F3600 X117.5 Y84.6
G1 F1800 X132.5 Y84.6 E33.56832
G1 X133.156 Y84.64 E33.59018
G1 X133.407 Y84.633 E33.59853
G1 X134 Y84.6 E33.61829
G1 X149 Y84.6 E34.11719
G1 X149.656 Y84.64 E34.13905
G1 X150.302 Y84.759 E34.16089
G1 X150.929 Y84.956 E34.18275
G1 X151.527 Y85.228 E34.2046
G1 X152.088 Y85.57 E34.22646
G1 X152.603 Y85.978 E34.24831
G1 X153.065 Y86.445 E34.27016
G1 X153.466 Y86.965 E34.292
G1 X153.802 Y87.529 E34.31383
G1 X154.066 Y88.131 E34.3357
G1 X154.256 Y88.76 E34.35755
G1 X154.367 Y89.407 E34.37939
G1 X154.4 Y90 E34.39914
G1 X154.4 Y120 E35.39694
G1 X154.36 Y120.656 E35.4188
G1 X154.241 Y121.302 E35.44065
G1 X154.044 Y121.929 E35.46251
G1 X153.772 Y122.527 E35.48436
G1 X153.43 Y123.088 E35.50621
G1 X153.022 Y123.603 E35.52807
G1 X152.555 Y124.065 E35.54991
G1 X152.035 Y124.466 E35.57175
G1 X151.471 Y124.802 E35.59359
G1 X150.869 Y125.066 E35.61545
G1 X150.24 Y125.256 E35.63731
G1 X149.593 Y125.367 E35.65914
G1 X149 Y125.4 E35.6789
G1 X134 Y125.4 E36.1778
G1 X133.344 Y125.36 E36.19966
G1 X133.093 Y125.367 E36.20801
G1 X132.5 Y125.4 E36.22776
G1 X117.5 Y125.4 E36.72666
G1 X116.844 Y125.36 E36.74852
G1 X116.198 Y125.241 E36.77037
G1 X115.571 Y125.044 E36.79223
G1 X114.973 Y124.772 E36.81408
G1 X114.412 Y124.43 E36.83593
G1 X113.897 Y124.022 E36.85779
G1 X113.435 Y123.555 E36.87963
G1 X113.034 Y123.035 E36.90148
G1 X112.698 Y122.471 E36.92331
G1 X112.434 Y121.869 E36.94517
G1 X112.244 Y121.24 E36.96703
G1 X112.133 Y120.593 E36.98886
G1 X112.1 Y120 E37.00862
G1 X112.1 Y90 E38.00642
G1 X112.14 Y89.344 E38.02828
G1 X112.259 Y88.698 E38.05013
G1 X112.456 Y88.071 E38.07199
G1 X112.728 Y87.473 E38.09384
G1 X113.07 Y86.912 E38.11569
G1 X113.478 Y86.397 E38.13754
G1 X113.945 Y85.935 E38.15939
G1 X114.465 Y85.534 E38.18123
G1 X115.029 Y85.198 E38.20307
G1 X115.631 Y84.934 E38.22493
G1 X116.26 Y84.744 E38.24678
G1 X116.907 Y84.633 E38.26862
G1 X117.5 Y84.6 E38.28837
G0 F3600 X117.5 Y85
G1 F1800 X132.5 Y85 E38.78727
G1 X133.131 Y85.04 E38.8083
G1 X133.266 Y85.066 E38.81288
G1 X134 Y85 E38.83739
G1 X149 Y85 E39.33629
G1 X149.631 Y85.04 E39.35732
G1 X150.252 Y85.159 E39.37835
G1 X150.852 Y85.356 E39.39935
G1 X151.424 Y85.627 E39.4204
G1 X151.956 Y85.967 E39.4414
G1 X152.441 Y86.373 E39.46244
G1 X152.871 Y86.836 E39.48346
G1 X153.24 Y87.35 E39.5045
G1 X153.54 Y87.906 E39.52552
G1 X153.768 Y88.495 E39.54652
G1 X153.92 Y89.109 E39.56756
G1 X154 Y90 E39.59731
G1 X154 Y120 E40.59512
G1 X153.96 Y120.631 E40.61615
G1 X153.841 Y121.252 E40.63718
G1 X153.644 Y121.852 E40.65818
G1 X153.373 Y122.424 E40.67923
G1 X153.033 Y122.956 E40.70023
G1 X152.627 Y123.441 E40.72127
G1 X152.164 Y123.871 E40.74229
G1 X151.65 Y124.24 E40.76333
G1 X151.094 Y124.54 E40.78434
G1 X150.505 Y124.768 E40.80535
G1 X149.891 Y124.92 E40.82639
G1 X149 Y125 E40.85614
G1 X134 Y125 E41.35505
G1 X133.369 Y124.96 E41.37608
G1 X133.234 Y124.934 E41.38065
G1 X132.5 Y125 E41.40516
G1 X117.5 Y125 E41.90406
G1 X116.869 Y124.96 E41.92509
G1 X116.248 Y124.841 E41.94612
G1 X115.648 Y124.644 E41.96712
G1 X115.076 Y124.373 E41.98818
G1 X114.544 Y124.033 E42.00918
